; generated by PrusaSlicer 2.9.4 on 2026-05-22 at 14:39:51 UTC

; 

; external perimeters extrusion width = 2.25mm
; perimeters extrusion width = 2.25mm
; infill extrusion width = 2.25mm
; solid infill extrusion width = 2.25mm
; top infill extrusion width = 2.00mm

M104 S250 T1 ; set temperature
;TYPE:Custom
G28 ; home all axes
G1 Z5 F5000 ; lift nozzle
M109 S250 T1 ; set temperature and wait for it to be reached
G21 ; set units to millimeters
G90 ; use absolute coordinates
M82 ; use absolute distances for extrusion
G92 E0
T1
G92 E0
; Filament gcode
M107
;LAYER_CHANGE
;Z:0.5
;HEIGHT:0.5
G92 E0
G1 E-2 F2400
G92 E0
G1 Z.5 F600
G1 X208.425 Y210.933
G1 E2 F2400
;TYPE:Skirt/Brim
;WIDTH:2.25
G1 F600
G1 X214.47 Y205.368 E3.37987
G1 X215.422 Y204.623 E3.58288
G1 X222.335 Y200.106 E4.9697
G1 X223.362 Y199.551 E5.16575
G1 X230.925 Y196.233 E6.55273
G1 X232.029 Y195.854 E6.74876
G1 X240.035 Y193.827 E8.1357
G1 X241.186 Y193.635 E8.33167
G1 X249.375 Y192.956 E9.71164
G1 X250.584 Y192.953 E9.91468
G1 X258.814 Y193.635 E11.30156
G1 X259.966 Y193.827 E11.49769
G1 X267.971 Y195.854 E12.88447
G1 X269.075 Y196.233 E13.0805
G1 X276.6 Y199.534 E14.46049
G1 X277.665 Y200.106 E14.66351
G1 X284.578 Y204.623 E16.05033
G1 X285.5 Y205.34 E16.24648
G1 X291.575 Y210.933 E17.63325
G1 X292.366 Y211.793 E17.82948
G1 X297.439 Y218.309 E19.21631
G1 X298.077 Y219.287 E19.41241
G1 X302.008 Y226.55 E20.79935
G1 X302.477 Y227.619 E20.99539
G1 X305.158 Y235.43 E22.38228
G1 X305.445 Y236.562 E22.5784
G1 X306.804 Y244.707 E23.96517
G1 X306.901 Y245.871 E24.16133
G1 X306.901 Y254.129 E25.54817
G1 X306.804 Y255.293 E25.74433
G1 X305.445 Y263.438 E27.1311
G1 X305.158 Y264.57 E27.32722
G1 X302.477 Y272.381 E28.71411
G1 X302.008 Y273.45 E28.91015
G1 X298.077 Y280.713 E30.29709
G1 X297.439 Y281.691 E30.49319
G1 X292.366 Y288.207 E31.88002
G1 X291.575 Y289.067 E32.07625
G1 X285.5 Y294.66 E33.46302
G1 X284.578 Y295.377 E33.65917
G1 X277.665 Y299.894 E35.04599
G1 X276.638 Y300.449 E35.24204
G1 X269.075 Y303.767 E36.62902
G1 X267.971 Y304.146 E36.82505
G1 X259.965 Y306.173 E38.21199
G1 X258.814 Y306.365 E38.40796
G1 X250.584 Y307.047 E39.79484
G1 X249.416 Y307.047 E39.99099
G1 X241.186 Y306.365 E41.37787
G1 X240.034 Y306.173 E41.574
G1 X232.069 Y304.156 E42.95386
G1 X230.925 Y303.767 E43.15679
G1 X223.362 Y300.449 E44.54377
G1 X222.335 Y299.894 E44.73982
G1 X215.422 Y295.377 E46.12664
G1 X214.5 Y294.66 E46.32279
G1 X208.425 Y289.067 E47.70956
G1 X207.634 Y288.207 E47.90579
G1 X202.561 Y281.691 E49.29262
G1 X201.923 Y280.713 E49.48872
G1 X197.992 Y273.45 E50.87566
G1 X197.523 Y272.381 E51.0717
G1 X194.842 Y264.57 E52.45859
G1 X194.555 Y263.438 E52.65471
G1 X193.203 Y255.334 E54.0345
G1 X193.099 Y254.129 E54.23762
G1 X193.099 Y245.871 E55.62446
G1 X193.196 Y244.707 E55.82062
G1 X194.555 Y236.562 E57.20739
G1 X194.842 Y235.43 E57.40351
G1 X197.523 Y227.619 E58.7904
G1 X197.992 Y226.55 E58.98644
G1 X201.923 Y219.287 E60.37338
G1 X202.561 Y218.309 E60.56948
G1 X207.634 Y211.793 E61.95631
G1 X208.221 Y211.154 E62.10203
G1 E60.10203 F2400
G92 E0
G1 X257.727 Y206.142 F600
G1 E2 F2400
G92 E0
;TYPE:Perimeter
G1 F600
G1 X264.474 Y207.845 E1.16862
G1 X271.213 Y210.801 E2.40445
G1 X277.376 Y214.827 E3.64073
G1 X282.792 Y219.813 E4.87703
G1 X287.313 Y225.622 E6.11322
G1 X290.817 Y232.096 E7.34949
G1 X293.207 Y239.058 E8.58566
G1 X294.412 Y246.281 E9.81545
G1 X294.418 Y253.683 E11.05853
G1 X293.207 Y260.942 E12.29445
G1 X290.817 Y267.904 E13.53062
G1 X287.313 Y274.378 E14.76689
G1 X282.792 Y280.187 E16.00308
G1 X277.376 Y285.173 E17.23938
G1 X271.213 Y289.199 E18.47566
G1 X264.472 Y292.156 E19.71187
G1 X257.374 Y293.954 E20.94155
G1 X249.998 Y294.571 E22.18459
G1 X242.664 Y293.963 E23.42048
G1 X235.528 Y292.156 E24.65672
G1 X228.787 Y289.199 E25.89293
G1 X222.624 Y285.173 E27.12921
G1 X217.208 Y280.187 E28.36551
G1 X212.687 Y274.378 E29.6017
G1 X209.183 Y267.904 E30.83797
G1 X206.793 Y260.942 E32.07414
G1 X205.588 Y253.719 E33.30393
G1 X205.582 Y246.317 E34.54701
G1 X206.793 Y239.058 E35.78293
G1 X209.183 Y232.096 E37.0191
G1 X212.687 Y225.622 E38.25537
G1 X217.208 Y219.813 E39.49156
G1 X222.624 Y214.827 E40.72786
G1 X228.787 Y210.801 E41.96414
G1 X235.528 Y207.844 E43.20035
G1 X242.664 Y206.037 E44.43659
G1 X250 Y205.429 E45.67281
G1 X257.297 Y206.034 E46.90247
G1 X257.436 Y206.069 E46.92654
G1 E44.92654 F2400
G92 E0
G1 X257.91 Y203.978 F600
G1 E2 F2400
G1 F600
G1 X265.172 Y205.811 E3.25782
G1 X272.237 Y208.91 E4.55343
G1 X278.697 Y213.13 E5.84928
G1 X284.374 Y218.357 E7.14524
G1 X289.113 Y224.446 E8.44103
G1 X292.786 Y231.232 E9.73689
G1 X295.291 Y238.531 E11.03286
G1 X296.555 Y246.102 E12.32192
G1 X296.561 Y253.86 E13.62479
G1 X295.291 Y261.469 E14.92031
G1 X292.786 Y268.768 E16.21628
G1 X289.113 Y275.554 E17.51214
G1 X284.374 Y281.643 E18.80793
G1 X278.697 Y286.87 E20.10389
G1 X272.237 Y291.09 E21.39974
G1 X265.17 Y294.19 E22.69573
G1 X257.729 Y296.074 E23.9848
G1 X249.999 Y296.721 E25.28751
G1 X242.31 Y296.084 E26.58322
G1 X234.83 Y294.19 E27.87905
G1 X227.763 Y291.09 E29.17504
G1 X221.303 Y286.87 E30.47089
G1 X215.626 Y281.643 E31.76685
G1 X210.887 Y275.554 E33.06264
G1 X207.214 Y268.768 E34.3585
G1 X204.709 Y261.469 E35.65447
G1 X203.445 Y253.898 E36.94353
G1 X203.439 Y246.14 E38.2464
G1 X204.709 Y238.531 E39.54192
G1 X207.214 Y231.232 E40.83789
G1 X210.887 Y224.446 E42.13375
G1 X215.626 Y218.357 E43.42954
G1 X221.303 Y213.13 E44.7255
G1 X227.763 Y208.91 E46.02135
G1 X234.83 Y205.81 E47.31734
G1 X242.31 Y203.916 E48.61317
G1 X250 Y203.279 E49.90904
G1 X257.618 Y203.91 E51.19278
G1 E49.19278 F2400
G92 E0
G1 X258.093 Y201.815 F600
G1 E2 F2400
;TYPE:External perimeter
G1 F600
G1 X265.869 Y203.777 E3.34682
G1 X273.26 Y207.019 E4.70222
G1 X280.017 Y211.434 E6.05774
G1 X285.956 Y216.9 E7.41326
G1 X290.913 Y223.27 E8.76878
G1 X294.755 Y230.369 E10.12438
G1 X297.376 Y238.003 E11.47988
G1 X298.698 Y245.924 E12.82852
G1 X298.704 Y254.036 E14.19084
G1 X297.376 Y261.997 E15.54628
G1 X294.755 Y269.631 E16.90178
G1 X290.913 Y276.73 E18.25738
G1 X285.956 Y283.1 E19.6129
G1 X280.017 Y288.566 E20.96842
G1 X273.26 Y292.981 E22.32394
G1 X265.868 Y296.223 E23.67949
G1 X258.084 Y298.195 E25.02802
G1 X250 Y298.871 E26.39038
G1 X241.956 Y298.205 E27.7459
G1 X234.132 Y296.223 E29.10136
G1 X226.74 Y292.981 E30.45691
G1 X219.983 Y288.566 E31.81243
G1 X214.044 Y283.1 E33.16795
G1 X209.087 Y276.73 E34.52347
G1 X205.245 Y269.631 E35.87907
G1 X202.624 Y261.997 E37.23457
G1 X201.302 Y254.076 E38.58321
G1 X201.296 Y245.964 E39.94553
G1 X202.624 Y238.003 E41.30097
G1 X205.245 Y230.369 E42.65647
G1 X209.087 Y223.27 E44.01207
G1 X214.044 Y216.9 E45.36759
G1 X219.983 Y211.434 E46.72311
G1 X226.74 Y207.019 E48.07863
G1 X234.132 Y203.777 E49.43418
G1 X241.956 Y201.795 E50.78964
G1 X250 Y201.129 E52.14516
G1 X257.796 Y201.775 E53.4589
G1 X259.742 Y202.235
G1 E51.4589 F2400
G92 E0
G1 X290.333 Y232.666 F600
G1 E2 F2400
;TYPE:Solid infill
;WIDTH:2.25344
G1 F600
G1 X269.448 Y211.782 E6.96807
G1 X264.042 Y209.41 E7.96109
G1 X290.367 Y235.736 E14.22349
G1 X291.644 Y239.454 E14.88475
G1 X291.763 Y240.166 E15.00618
G1 X259.96 Y208.363 E22.57158
G1 X257.032 Y207.624 E23.07954
G1 X256.109 Y207.548 E23.23532
G1 X292.371 Y243.809 E31.86132
G1 X292.805 Y246.415 E32.30571
G1 X292.806 Y247.28 E32.45121
G1 X252.8 Y207.273 E41.96809
G1 X250 Y207.041 E42.44069
G1 X249.569 Y207.077 E42.51344
G1 X292.809 Y250.317 E52.79951
G1 X292.811 Y253.355 E53.31053
G1 X246.766 Y207.309 E64.26398
G1 X243.963 Y207.542 E64.7371
G1 X292.405 Y255.984 E76.26064
G1 X291.971 Y258.585 E76.7042
G1 X241.401 Y208.014 E88.73407
G1 X238.979 Y208.628 E89.15436
G1 X291.453 Y261.102 E101.63705
G1 X290.677 Y263.361 E102.03883
G1 X236.557 Y209.241 E114.91307
G1 X236.051 Y209.369 E115.00086
G1 X234.382 Y210.101 E115.30742
G1 X289.902 Y265.621 E128.5147
G1 X289.34 Y267.256 E128.80552
G1 X289.046 Y267.8 E128.90953
G1 X232.272 Y211.027 E142.41499
G1 X230.163 Y211.952 E142.80236
G1 X287.98 Y269.77 E156.55617
G1 X286.914 Y271.739 E156.9328
G1 X228.248 Y213.072 E170.88858
G1 X226.412 Y214.272 E171.25753
G1 X285.82 Y273.68 E185.3897
G1 X284.492 Y275.387 E185.75349
G1 X224.576 Y215.471 E200.0065
G1 X223.614 Y216.1 E200.19984
G1 X222.862 Y216.792 E200.37174
G1 X283.164 Y277.093 E214.71646
G1 X281.835 Y278.8 E215.08035
G1 X221.282 Y218.247 E229.48489
G1 X219.702 Y219.702 E229.84618
G1 X280.298 Y280.298 E244.26095
G1 X278.718 Y281.753 E244.62224
G1 X218.165 Y221.2 E259.02678
G1 X216.836 Y222.907 E259.39067
G1 X277.138 Y283.208 E273.73539
G1 X276.386 Y283.9 E273.90729
G1 X275.424 Y284.529 E274.10063
G1 X215.508 Y224.613 E288.35364
G1 X214.18 Y226.32 E288.71743
G1 X273.588 Y285.728 E302.8496
G1 X271.752 Y286.928 E303.21855
G1 X213.086 Y228.261 E317.17433
G1 X212.02 Y230.23 E317.55096
G1 X269.837 Y288.048 E331.30477
G1 X267.728 Y288.973 E331.69214
G1 X210.954 Y232.2 E345.1976
G1 X210.66 Y232.744 E345.30161
G1 X210.098 Y234.379 E345.59243
G1 X265.618 Y289.899 E358.79971
G1 X263.949 Y290.631 E359.10627
G1 X263.443 Y290.759 E359.19406
G1 X209.323 Y236.639 E372.0683
G1 X208.547 Y238.898 E372.47008
G1 X261.021 Y291.372 E384.95277
G1 X258.599 Y291.986 E385.37306
G1 X208.029 Y241.415 E397.40293
G1 X207.595 Y244.016 E397.84649
G1 X256.032 Y292.453 E409.36884
G1 X253.231 Y292.688 E409.84165
G1 X207.189 Y246.645 E420.79439
G1 X207.191 Y249.683 E421.30541
G1 X250.431 Y292.922 E431.59136
G1 X249.997 Y292.958 E431.66461
G1 X247.2 Y292.727 E432.13669
G1 X207.194 Y252.72 E441.65357
G1 X207.195 Y253.585 E441.79907
G1 X207.629 Y256.191 E442.24346
G1 X243.891 Y292.452 E450.86946
G1 X242.929 Y292.373 E451.03182
G1 X240.046 Y291.642 E451.53211
G1 X208.237 Y259.834 E459.09882
G1 X208.356 Y260.546 E459.22025
G1 X209.633 Y264.265 E459.88167
G1 X235.958 Y290.59 E466.14395
G1 X230.551 Y288.218 E467.13712
G1 X209.667 Y267.334 E472.10507
;LAYER_CHANGE
;Z:1
;HEIGHT:0.5
G1 E470.10507 F2400
G92 E0
G1 Z1 F600
G1 X257.728 Y206.136
G1 E2 F2400
;TYPE:Perimeter
;WIDTH:2.25
G1 F600
G1 X264.472 Y207.844 E3.16834
G1 X271.213 Y210.801 E4.40455
G1 X277.376 Y214.827 E5.64083
G1 X282.792 Y219.813 E6.87713
G1 X287.313 Y225.622 E8.11332
G1 X290.817 Y232.096 E9.34959
G1 X293.207 Y239.058 E10.58576
G1 X294.419 Y246.319 E11.82204
G1 X294.419 Y253.681 E13.05841
G1 X293.207 Y260.942 E14.29469
G1 X290.817 Y267.904 E15.53086
G1 X287.313 Y274.378 E16.76713
G1 X282.792 Y280.187 E18.00332
G1 X277.376 Y285.173 E19.23962
G1 X271.213 Y289.199 E20.4759
G1 X264.472 Y292.156 E21.71211
G1 X257.336 Y293.963 E22.94835
G1 X250 Y294.571 E24.18457
G1 X242.664 Y293.963 E25.42079
G1 X235.528 Y292.156 E26.65703
G1 X228.787 Y289.199 E27.89324
G1 X222.624 Y285.173 E29.12952
G1 X217.208 Y280.187 E30.36582
G1 X212.687 Y274.378 E31.60201
G1 X209.183 Y267.904 E32.83828
G1 X206.793 Y260.942 E34.07445
G1 X205.581 Y253.681 E35.31073
G1 X205.581 Y246.319 E36.5471
G1 X206.793 Y239.058 E37.78338
G1 X209.183 Y232.096 E39.01955
G1 X212.687 Y225.622 E40.25582
G1 X217.208 Y219.813 E41.49201
G1 X222.624 Y214.827 E42.72831
G1 X228.787 Y210.801 E43.96459
G1 X235.528 Y207.844 E45.2008
G1 X242.664 Y206.037 E46.43704
G1 X250 Y205.429 E47.67326
G1 X257.336 Y206.037 E48.90948
G1 X257.437 Y206.062 E48.92695
G1 E46.92695 F2400
G92 E0
G1 X257.911 Y203.972 F600
G1 E2 F2400
G1 F600
G1 X265.17 Y205.81 E3.25754
G1 X272.237 Y208.91 E4.55353
G1 X278.697 Y213.13 E5.84938
G1 X284.374 Y218.357 E7.14534
G1 X289.113 Y224.446 E8.44113
G1 X292.786 Y231.232 E9.73699
G1 X295.291 Y238.531 E11.03296
G1 X296.562 Y246.142 E12.32884
G1 X296.562 Y253.858 E13.62466
G1 X295.291 Y261.469 E14.92054
G1 X292.786 Y268.768 E16.21651
G1 X289.113 Y275.554 E17.51237
G1 X284.374 Y281.643 E18.80816
G1 X278.697 Y286.87 E20.10412
G1 X272.237 Y291.09 E21.39997
G1 X265.17 Y294.19 E22.69596
G1 X257.69 Y296.084 E23.99179
G1 X250 Y296.721 E25.28766
G1 X242.31 Y296.084 E26.58353
G1 X234.83 Y294.19 E27.87936
G1 X227.763 Y291.09 E29.17535
G1 X221.303 Y286.87 E30.4712
G1 X215.626 Y281.643 E31.76716
G1 X210.887 Y275.554 E33.06295
G1 X207.214 Y268.768 E34.35881
G1 X204.709 Y261.469 E35.65478
G1 X203.438 Y253.858 E36.95066
G1 X203.438 Y246.142 E38.24648
G1 X204.709 Y238.531 E39.54236
G1 X207.214 Y231.232 E40.83833
G1 X210.887 Y224.446 E42.13419
G1 X215.626 Y218.357 E43.42998
G1 X221.303 Y213.13 E44.72594
G1 X227.763 Y208.91 E46.02179
G1 X234.83 Y205.81 E47.31778
G1 X242.31 Y203.916 E48.61361
G1 X250 Y203.279 E49.90948
G1 X257.618 Y203.91 E51.19322
G1 E49.19322 F2400
G92 E0
G1 X258.093 Y201.813 F600
G1 E2 F2400
;TYPE:External perimeter
G1 F600
G1 X265.868 Y203.777 E3.34674
G1 X273.26 Y207.019 E4.70229
G1 X280.017 Y211.434 E6.05781
G1 X285.956 Y216.9 E7.41333
G1 X290.913 Y223.27 E8.76885
G1 X294.755 Y230.369 E10.12445
G1 X297.376 Y238.003 E11.47995
G1 X298.699 Y245.934 E12.83028
G1 X298.704 Y254.036 E14.19092
G1 X297.376 Y261.997 E15.54636
G1 X294.755 Y269.631 E16.90186
G1 X290.913 Y276.73 E18.25746
G1 X285.956 Y283.1 E19.61298
G1 X280.017 Y288.566 E20.9685
G1 X273.26 Y292.981 E22.32402
G1 X265.868 Y296.223 E23.67957
G1 X258.074 Y298.197 E25.02982
G1 X250 Y298.871 E26.39048
G1 X241.956 Y298.205 E27.746
G1 X234.132 Y296.223 E29.10146
G1 X226.74 Y292.981 E30.45701
G1 X219.983 Y288.566 E31.81253
G1 X214.044 Y283.1 E33.16805
G1 X209.087 Y276.73 E34.52357
G1 X205.245 Y269.631 E35.87917
G1 X202.624 Y261.997 E37.23467
G1 X201.301 Y254.066 E38.585
G1 X201.296 Y245.964 E39.94564
G1 X202.624 Y238.003 E41.30108
G1 X205.245 Y230.369 E42.65658
G1 X209.087 Y223.27 E44.01218
G1 X214.044 Y216.9 E45.3677
G1 X219.983 Y211.434 E46.72322
G1 X226.74 Y207.019 E48.07874
G1 X234.132 Y203.777 E49.43429
G1 X241.956 Y201.795 E50.78975
G1 X250 Y201.129 E52.14527
G1 X257.796 Y201.775 E53.45901
G1 X259.742 Y202.234
G1 E51.45901 F2400
G92 E0
G1 X226.017 Y213.378 F600
G1 E2 F2400
;TYPE:Internal infill
G1 F600
G1 X218.057 Y221.338 E3.89051
G1 X214.037 Y226.504 E4.98981
G1 X210.66 Y232.744 E6.18137
G1 X208.356 Y239.454 E7.37282
G1 X207.188 Y246.453 E8.56448
G1 X207.188 Y247.358 E8.71646
G1 X247.28 Y207.267 E18.23826
G1 X250 Y207.041 E18.69663
G1 X257.071 Y207.627 E19.8882
G1 X261.06 Y208.638 E20.57929
G1 X208.559 Y261.138 E33.04824
G1 X210.66 Y267.256 E34.13459
G1 X213.094 Y271.755 E34.99363
G1 X271.767 Y213.082 E48.92856
G1 X276.386 Y216.1 E49.85517
G1 X280.298 Y219.702 E50.74822
G1 X219.702 Y280.298 E65.13987
G1 X223.614 Y283.9 E66.03292
G1 X228.233 Y286.918 E66.95953
G1 X286.906 Y228.245 E80.89446
G1 X289.34 Y232.744 E81.7535
G1 X291.441 Y238.862 E82.83985
G1 X238.94 Y291.362 E95.3088
G1 X242.929 Y292.373 E95.99989
G1 X250 Y292.959 E97.19146
G1 X252.72 Y292.733 E97.64983
G1 X292.812 Y252.642 E107.17163
G1 X292.812 Y253.547 E107.32361
G1 X291.644 Y260.546 E108.51527
G1 X289.34 Y267.256 E109.70672
G1 X285.963 Y273.496 E110.89828
G1 X281.943 Y278.662 E111.99758
G1 X273.983 Y286.622 E113.88809
;LAYER_CHANGE
;Z:1.5
;HEIGHT:0.5
G1 E111.88809 F2400
G92 E0
G1 Z1.5 F600
G1 X257.728 Y206.136
G1 E2 F2400
;TYPE:Perimeter
G1 F600
G1 X264.472 Y207.844 E3.16834
G1 X271.213 Y210.801 E4.40455
G1 X277.376 Y214.827 E5.64083
G1 X282.792 Y219.813 E6.87713
G1 X287.313 Y225.622 E8.11332
G1 X290.817 Y232.096 E9.34959
G1 X293.207 Y239.058 E10.58576
G1 X294.419 Y246.319 E11.82204
G1 X294.419 Y253.681 E13.05841
G1 X293.207 Y260.942 E14.29469
G1 X290.817 Y267.904 E15.53086
G1 X287.313 Y274.378 E16.76713
G1 X282.792 Y280.187 E18.00332
G1 X277.376 Y285.173 E19.23962
G1 X271.213 Y289.199 E20.4759
G1 X264.472 Y292.156 E21.71211
G1 X257.336 Y293.963 E22.94835
G1 X250 Y294.571 E24.18457
G1 X242.664 Y293.963 E25.42079
G1 X235.528 Y292.156 E26.65703
G1 X228.787 Y289.199 E27.89324
G1 X222.624 Y285.173 E29.12952
G1 X217.208 Y280.187 E30.36582
G1 X212.687 Y274.378 E31.60201
G1 X209.183 Y267.904 E32.83828
G1 X206.793 Y260.942 E34.07445
G1 X205.581 Y253.681 E35.31073
G1 X205.581 Y246.319 E36.5471
G1 X206.793 Y239.058 E37.78338
G1 X209.183 Y232.096 E39.01955
G1 X212.687 Y225.622 E40.25582
G1 X217.208 Y219.813 E41.49201
G1 X222.624 Y214.827 E42.72831
G1 X228.787 Y210.801 E43.96459
G1 X235.528 Y207.844 E45.2008
G1 X242.664 Y206.037 E46.43704
G1 X250 Y205.429 E47.67326
G1 X257.336 Y206.037 E48.90948
G1 X257.437 Y206.062 E48.92695
G1 E46.92695 F2400
G92 E0
