;FLAVOR:Marlin
;TIME:2503
;Filament used: 0m, 9.58893m
;Layer height: 0.5
;MINX:15.592
;MINY:25.505
;MINZ:0.5
;MAXX:140.584
;MAXY:107.495
;MAXZ:7
;TARGET_MACHINE.NAME:Unknown
;Generated with Cura_SteamEngine 5.13.0
T1
M104 S250
M105
M109 S250
G21 ; set units to millimeters
G90 ; use absolute coordinates
G28 ; home all axes
G1 Z5 F5000 ; lift nozzle
M106 S255 ; fan on full
M82 ;absolute extrusion mode
G92 E0
G92 E0
G1 F2400 E-15
;LAYER_COUNT:10
;LAYER:-4
M106 S255
G0 F600 X24.559 Y36.365 Z0.5
;TYPE:SUPPORT-INTERFACE
G1 F900 E3.00173
G1 F600 X25.656 Y35.735 E3.52767
G1 X26.651 Y35.241 E3.98952
G1 X27.64 Y34.82 E4.4364
G1 X28.849 Y34.39 E4.96989
G1 X29.971 Y34.073 E5.45462
G1 X31.17 Y33.809 E5.96505
G1 X32.365 Y33.634 E6.46717
G1 X33.5 Y33.535 E6.94084
G1 X34.616 Y33.5 E7.40505
G1 X73.409 Y33.496 E23.5333
G1 X73.993 Y33.463 E23.77649
G1 X74.247 Y33.431 E23.88293
G1 X74.765 Y33.331 E24.10226
G1 X74.989 Y33.272 E24.19857
G1 X75.552 Y33.086 E24.44508
G1 X76.21 Y32.784 E24.74608
G1 X76.63 Y32.537 E24.94865
G1 X77.606 Y31.9 E25.4332
G1 X78.5 Y31.345 E25.87069
G1 X79.437 Y30.799 E26.32156
G1 X80.377 Y30.284 E26.76717
G1 X81.396 Y29.761 E27.24337
G1 X82.423 Y29.273 E27.71609
G1 X83.509 Y28.788 E28.21058
G1 X84.513 Y28.378 E28.66146
G1 X85.532 Y27.988 E29.11508
G1 X86.66 Y27.594 E29.61183
G1 X87.702 Y27.266 E30.066
G1 X88.749 Y26.961 E30.51939
G1 X89.874 Y26.672 E31.00229
G1 X90.905 Y26.434 E31.44221
G1 X92.228 Y26.164 E32.00358
G1 X93.382 Y25.977 E32.48962
G1 X94.301 Y25.848 E32.87544
G1 X95.36 Y25.723 E33.31878
G1 X96.494 Y25.622 E33.79211
G1 X97.617 Y25.547 E34.26004
G1 X98.724 Y25.512 E34.7205
G1 X99.727 Y25.505 E35.13751
G1 X100.889 Y25.524 E35.62068
G1 X101.839 Y25.559 E36.01591
G1 X103.226 Y25.665 E36.59424
G1 X104.029 Y25.741 E36.92958
G1 X105.418 Y25.919 E37.51178
G1 X106.452 Y26.082 E37.94698
G1 X107.49 Y26.27 E38.38555
G1 X108.304 Y26.437 E38.73102
G1 X109.729 Y26.774 E39.33981
G1 X110.827 Y27.074 E39.81304
G1 X111.954 Y27.414 E40.30245
G1 X112.593 Y27.626 E40.58235
G1 X112.608 Y27.616 E40.58985
G1 X113.695 Y28.009 E41.0704
G1 X113.706 Y28.002 E41.07582
G1 X114.999 Y28.511 E41.65354
G1 X116.047 Y28.949 E42.12577
G1 X117.081 Y29.421 E42.59833
G1 X118.061 Y29.897 E43.05128
G1 X119.05 Y30.415 E43.51545
G1 X120.211 Y31.07 E44.06965
G1 X120.934 Y31.498 E44.41896
G1 X121.958 Y32.143 E44.92211
G1 X122.859 Y32.747 E45.37308
G1 X123.848 Y33.451 E45.87779
G1 X124.691 Y34.087 E46.31683
G1 X125.594 Y34.807 E46.79698
G1 X126.398 Y35.482 E47.23343
G1 X127.217 Y36.207 E47.68818
G1 X128.005 Y36.948 E48.13789
G1 X128.893 Y37.828 E48.65765
G1 X129.639 Y38.613 E49.10788
G1 X130.362 Y39.41 E49.55526
G1 X131.048 Y40.209 E49.99308
G1 X131.818 Y41.16 E50.50182
G1 X132.417 Y41.941 E50.91102
G1 X133.182 Y43 E51.45416
G1 X133.712 Y43.771 E51.84314
G1 X134.285 Y44.657 E52.28182
G1 X134.826 Y45.541 E52.7127
G1 X135.524 Y46.767 E53.29924
G1 X136.007 Y47.673 E53.72609
G1 X136.534 Y48.722 E54.21416
G1 X137.002 Y49.736 E54.67846
G1 X137.464 Y50.805 E55.16263
G1 X137.854 Y51.779 E55.59883
G1 X138.245 Y52.842 E56.06972
G1 X138.604 Y53.897 E56.53304
G1 X138.936 Y54.973 E57.0012
G1 X139.212 Y55.971 E57.43169
G1 X139.514 Y57.18 E57.94978
G1 X139.72 Y58.123 E58.35108
G1 X139.955 Y59.332 E58.86313
G1 X140.127 Y60.385 E59.30672
G1 X140.316 Y61.756 E59.88211
G1 X140.309 Y61.763 E59.88622
G1 X140.4 Y62.606 E60.23874
G1 X140.493 Y63.746 E60.71427
G1 X140.514 Y63.889 E60.77436
G1 X140.504 Y63.9 E60.78054
G1 X140.552 Y64.837 E61.17061
G1 X140.584 Y65.978 E61.64517
G1 X140.584 Y67.065 E62.09709
G1 X140.517 Y68.961 E62.88585
G1 X140.4 Y70.397 E63.48485
G1 X140.287 Y71.445 E63.92308
G1 X140.111 Y72.709 E64.45366
G1 X139.939 Y73.742 E64.88904
G1 X139.72 Y74.873 E65.36799
G1 X139.51 Y75.826 E65.77371
G1 X139.205 Y77.044 E66.29573
G1 X138.92 Y78.068 E66.73764
G1 X138.517 Y79.357 E67.29913
G1 X138.233 Y80.193 E67.6662
G1 X137.819 Y81.311 E68.16186
G1 X137.417 Y82.309 E68.60918
G1 X136.972 Y83.333 E69.07337
G1 X136.527 Y84.289 E69.51178
G1 X136 Y85.343 E70.0017
G1 X135.5 Y86.271 E70.43996
G1 X134.915 Y87.3 E70.93207
G1 X134.45 Y88.08 E71.30961
G1 X133.699 Y89.241 E71.88448
G1 X133.098 Y90.115 E72.32546
G1 X132.425 Y91.047 E72.80341
G1 X131.803 Y91.86 E73.22899
G1 X131.049 Y92.786 E73.72546
G1 X130.378 Y93.566 E74.15323
G1 X129.55 Y94.48 E74.66596
G1 X128.905 Y95.16 E75.05563
G1 X127.885 Y96.168 E75.65183
G1 X127.232 Y96.77 E76.02108
G1 X126.354 Y97.551 E76.50963
G1 X125.526 Y98.245 E76.9588
G1 X124.719 Y98.889 E77.38805
G1 X123.785 Y99.593 E77.87431
G1 X122.822 Y100.277 E78.36539
G1 X122.04 Y100.804 E78.75745
G1 X120.791 Y101.581 E79.369
G1 X120.02 Y102.041 E79.74227
G1 X119.025 Y102.595 E80.21574
G1 X118.074 Y103.09 E80.66147
G1 X117.003 Y103.61 E81.15645
G1 X115.993 Y104.068 E81.61751
G1 X115.093 Y104.452 E82.02433
G1 X113.634 Y105.009 E82.67361
G1 X112.888 Y105.273 E83.00261
G1 X111.86 Y105.613 E83.45277
G1 X110.767 Y105.938 E83.92685
G1 X109.939 Y106.168 E84.28413
G1 X108.796 Y106.449 E84.77348
G1 X107.33 Y106.762 E85.39671
G1 X106.364 Y106.929 E85.80428
G1 X105.37 Y107.086 E86.22266
G1 X103.98 Y107.265 E86.80533
G1 X101.873 Y107.436 E87.6842
G1 X101.668 Y107.436 E87.76943
G1 X100.86 Y107.472 E88.10569
G1 X99.691 Y107.495 E88.5918
G1 X98.643 Y107.484 E89.02753
G1 X97.617 Y107.449 E89.45434
G1 X96.494 Y107.378 E89.92216
G1 X95.324 Y107.269 E90.41069
G1 X94.274 Y107.148 E90.85012
G1 X93.019 Y106.964 E91.37747
G1 X92.23 Y106.832 E91.71006
G1 X90.877 Y106.558 E92.28399
G1 X89.854 Y106.32 E92.72066
G1 X88.737 Y106.034 E93.20003
G1 X87.579 Y105.705 E93.70053
G1 X87.569 Y105.691 E93.70768
G1 X86.531 Y105.359 E94.16077
G1 X85.512 Y105 E94.60994
G1 X84.524 Y104.625 E95.0493
G1 X83.539 Y104.22 E95.49208
G1 X82.692 Y103.85 E95.87635
G1 X81.482 Y103.278 E96.43279
G1 X80.46 Y102.756 E96.9099
G1 X79.424 Y102.189 E97.40091
G1 X78.499 Y101.65 E97.84601
G1 X77.614 Y101.104 E98.27834
G1 X76.678 Y100.488 E98.74419
G1 X76.083 Y100.15 E99.02869
G1 X75.944 Y100.083 E99.09284
G1 X75.336 Y99.833 E99.36616
G1 X74.706 Y99.654 E99.63845
G1 X74.494 Y99.608 E99.72864
G1 X74.224 Y99.574 E99.84178
G1 X74.214 Y99.563 E99.84796
G1 X73.804 Y99.516 E100.01953
G1 X73.373 Y99.5 E100.19884
G1 X34.651 Y99.5 E116.29758
G1 X33.49 Y99.465 E116.78049
G1 X32.256 Y99.351 E117.29571
G1 X30.959 Y99.149 E117.84144
G1 X30.312 Y98.998 E118.11766
G1 X30.104 Y98.958 E118.20572
G1 X29.748 Y98.867 E118.35849
G1 X28.907 Y98.623 E118.72255
G1 X28.895 Y98.632 E118.72879
G1 X27.551 Y98.146 E119.32297
G1 X26.543 Y97.706 E119.78023
G1 X25.491 Y97.173 E120.27054
G1 X24.544 Y96.621 E120.72626
G1 X24.304 Y96.469 E120.84437
G1 X23.313 Y95.784 E121.34522
G1 X22.302 Y94.98 E121.88226
G1 X21.45 Y94.215 E122.35831
G1 X20.705 Y93.462 E122.7987
G1 X20.509 Y93.248 E122.91935
G1 X19.932 Y92.576 E123.28759
G1 X19.183 Y91.605 E123.79743
G1 X18.431 Y90.488 E124.35726
G1 X17.897 Y89.561 E124.80204
G1 X17.329 Y88.433 E125.32711
G1 X16.843 Y87.269 E125.85153
G1 X16.463 Y86.184 E126.32948
G1 X16.14 Y85.026 E126.8293
G1 X15.905 Y83.913 E127.30224
G1 X15.722 Y82.711 E127.80773
G1 X15.607 Y81.305 E128.39423
G1 X15.593 Y80.491 E128.7327
G1 X15.592 Y52.555 E140.34714
G1 X15.616 Y51.496 E140.78753
G1 X15.76 Y49.998 E141.4132
G1 X15.943 Y48.863 E141.89117
G1 X16.129 Y48.015 E142.25211
G1 X16.208 Y47.711 E142.3827
G1 X16.449 Y46.884 E142.74082
G1 X16.441 Y46.873 E142.74648
G1 X16.919 Y45.533 E143.33797
G1 X17.383 Y44.453 E143.82667
G1 X18.027 Y43.199 E144.41275
G1 X18.629 Y42.199 E144.89803
G1 X19.305 Y41.219 E145.39299
G1 X20.101 Y40.214 E145.92601
G1 X20.872 Y39.359 E146.40466
G1 X21.626 Y38.613 E146.84564
G1 X21.844 Y38.41 E146.96948
G1 X22.507 Y37.841 E147.33272
G1 X23.462 Y37.108 E147.83323
G1 X24.559 Y36.365 E148.38407
G1 F2400 E133.38407
G0 F600 X24.848 Y37.377
G1 F900 E151.3858
G1 F600 X19.449 Y42.776 E154.56021
G1 F2400 E139.56021
G0 F600 X17.219 Y47.835
G1 F900 E157.56193
G1 F600 X29.93 Y35.123 E165.03581
G1 F2400 E150.03581
G0 F600 X33.329 Y34.553
G1 F900 E168.03754
G1 F600 X16.645 Y51.238 E177.84738
G1 F2400 E162.84738
G0 F600 X16.593 Y54.118
G1 F900 E180.84911
G1 F600 X36.211 Y34.5 E192.38374
G1 F2400 E177.38374
G0 F600 X39.039 Y34.5
G1 F900 E195.38547
G1 F600 X16.593 Y56.946 E208.58286
G1 F2400 E193.58286
G0 F600 X16.593 Y59.775
G1 F900 E211.58458
G1 F600 X41.868 Y34.499 E226.44561
G1 F2400 E211.44561
G0 F600 X44.697 Y34.499
G1 F900 E229.44734
G1 F600 X16.593 Y62.603 E245.97141
G1 F2400 E230.97141
G0 F600 X16.593 Y65.431
G1 F900 E248.97314
G1 F600 X47.526 Y34.498 E267.16056
G1 F2400 E252.16056
G0 F600 X50.354 Y34.498
G1 F900 E270.16228
G1 F600 X16.593 Y68.26 E290.01275
G1 F2400 E275.01275
G0 F600 X16.593 Y71.088
G1 F900 E293.01448
G1 F600 X53.184 Y34.498 E314.52829
G1 F2400 E299.52829
G0 F600 X56.012 Y34.498
G1 F900 E317.53002
G1 F600 X16.593 Y73.917 E340.70688
G1 F2400 E325.70688
G0 F600 X16.593 Y76.745
G1 F900 E343.70861
G1 F600 X58.841 Y34.497 E368.54881
G1 F2400 E353.54881
G0 F600 X61.67 Y34.497
G1 F900 E371.55054
G1 F600 X16.593 Y79.574 E398.05409
G1 F2400 E383.05409
G0 F600 X16.693 Y82.302
G1 F900 E401.05581
G1 F600 X64.499 Y34.496 E429.16391
G1 F2400 E414.16391
G0 F600 X67.327 Y34.496
G1 F900 E432.16564
G1 F600 X17.099 Y84.724 E461.69778
G1 F2400 E446.69778
G0 F600 X17.768 Y86.884
G1 F900 E464.6995
G1 F600 X70.156 Y34.495 E495.50193
G1 F2400 E480.50193
G0 F600 X72.985 Y34.495
G1 F900 E498.50366
G1 F600 X18.65 Y88.83 E530.45056
G1 F2400 E515.45056
G0 F600 X19.711 Y90.598
G1 F900 E533.45229
G1 F600 X76.613 Y33.696 E566.90848
G1 F2400 E551.90848
G0 F600 X83.048 Y30.089
G1 F900 E569.91021
G1 F600 X20.932 Y92.205 E606.43204
G1 F2400 E591.43204
G0 F600 X22.316 Y93.649
G1 F900 E609.43376
G1 F600 X87.628 Y28.337 E647.83472
G1 F2400 E632.83472
G0 F600 X91.452 Y27.342
G1 F900 E650.83644
G1 F600 X23.856 Y94.938 E690.5803
G1 F2400 E675.5803
G0 F600 X25.564 Y96.058
G1 F900 E693.58203
G1 F600 X94.83 Y26.792 E734.30778
G1 F2400 E719.30778
G0 F600 X97.913 Y26.538
G1 F900 E737.30951
G1 F600 X27.442 Y97.009 E778.74376
G1 F2400 E763.74376
G0 F600 X29.52 Y97.76
G1 F900 E781.74548
G1 F600 X100.757 Y26.522 E823.6304
G1 F2400 E808.6304
G0 F600 X103.42 Y26.688
G1 F900 E826.63213
G1 F600 X31.834 Y98.274 E868.72196
G1 F2400 E853.72196
G0 F600 X34.442 Y98.494
G1 F900 E871.72368
G1 F600 X105.925 Y27.011 E913.75295
G1 F2400 E898.75295
G0 F600 X108.301 Y27.463
G1 F900 E916.75467
G1 F600 X37.264 Y98.501 E958.522
G1 F2400 E943.522
G0 F600 X40.092 Y98.501
G1 F900 E961.52373
G1 F600 X110.557 Y28.036 E1002.95445
G1 F2400 E987.95445
G0 F600 X112.706 Y28.715
G1 F900 E1005.95618
G1 F600 X42.921 Y98.501 E1046.98737
G1 F2400 E1031.98737
G0 F600 X45.749 Y98.501
G1 F900 E1049.9891
G1 F600 X114.756 Y29.493 E1090.56287
G1 F2400 E1075.56287
G0 F600 X116.721 Y30.358
G1 F900 E1093.56459
G1 F600 X48.578 Y98.501 E1133.63007
G1 F2400 E1118.63007
G0 F600 X51.406 Y98.501
G1 F900 E1136.63179
G1 F600 X118.599 Y31.308 E1176.1387
G1 F2400 E1161.1387
G0 F600 X120.395 Y32.34
G1 F900 E1179.14043
G1 F600 X54.234 Y98.501 E1218.04056
G1 F2400 E1203.04056
G0 F600 X57.062 Y98.501
G1 F900 E1221.04229
G1 F600 X122.113 Y33.45 E1259.28978
G1 F2400 E1244.28978
G0 F600 X123.758 Y34.634
G1 F900 E1262.29151
G1 F600 X59.891 Y98.501 E1299.84286
G1 F2400 E1284.84286
G0 F600 X62.719 Y98.501
G1 F900 E1302.84459
G1 F600 X125.33 Y35.891 E1339.65716
G1 F2400 E1324.65716
G0 F600 X126.832 Y37.216
G1 F900 E1342.65889
G1 F600 X65.547 Y98.501 E1378.69212
G1 F2400 E1363.69212
G0 F600 X68.376 Y98.501
G1 F900 E1381.69385
G1 F600 X128.261 Y38.616 E1416.90393
G1 F2400 E1401.90393
G0 F600 X129.621 Y40.084
G1 F900 E1419.90566
G1 F600 X71.204 Y98.501 E1454.25262
G1 F2400 E1439.25262
G0 F600 X74.003 Y98.531
G1 F900 E1457.25434
G1 F600 X130.908 Y41.626 E1490.7123
G1 F2400 E1475.7123
G0 F600 X132.121 Y43.241
G1 F900 E1493.71403
G1 F600 X76.24 Y99.122 E1526.56992
G1 F2400 E1511.56992
G0 F600 X78.017 Y100.174
G1 F900 E1529.57164
G1 F600 X133.266 Y44.925 E1562.05594
G1 F2400 E1547.05594
G0 F600 X134.329 Y46.69
G1 F900 E1565.05767
G1 F600 X79.78 Y101.239 E1597.13039
G1 F2400 E1582.13039
G0 F600 X81.621 Y102.226
G1 F900 E1600.13211
G1 F600 X135.318 Y48.53 E1631.7036
G1 F2400 E1616.7036
G0 F600 X136.223 Y50.453
G1 F900 E1634.70533
G1 F600 X83.545 Y103.132 E1665.67827
G1 F2400 E1650.67827
G0 F600 X85.556 Y103.948
G1 F900 E1668.67999
G1 F600 X137.04 Y52.464 E1698.95061
G1 F2400 E1683.95061
G0 F600 X137.764 Y54.569
G1 F900 E1701.95234
G1 F600 X87.662 Y104.671 E1731.41039
G1 F2400 E1716.41039
G0 F600 X89.869 Y105.292
G1 F900 E1734.41212
G1 F600 X138.382 Y56.779 E1762.93591
G1 F2400 E1747.93591
G0 F600 X138.891 Y59.099
G1 F900 E1765.93763
G1 F600 X92.187 Y105.803 E1793.3978
G1 F2400 E1778.3978
G0 F600 X94.636 Y106.183
G1 F900 E1796.39952
G1 F600 X139.277 Y61.542 E1822.64672
G1 F2400 E1807.64672
G0 F600 X139.515 Y64.132
G1 F900 E1825.64845
G1 F600 X97.224 Y106.422 E1850.51364
G1 F2400 E1835.51364
G0 F600 X99.986 Y106.49
G1 F900 E1853.51537
G1 F600 X139.584 Y66.892 E1876.79747
G1 F2400 E1861.79747
G0 F600 X139.439 Y69.864
G1 F900 E1879.7992
G1 F600 X102.958 Y106.345 E1901.24863
G1 F2400 E1886.24863
G0 F600 X106.187 Y105.945
G1 F900 E1904.25036
G1 F600 X139.031 Y73.101 E1923.56137
G1 F2400 E1908.56137
G0 F600 X138.26 Y76.701
G1 F900 E1926.5631
G1 F600 X109.789 Y105.172 E1943.30296
G1 F2400 E1928.30296
G0 F600 X113.984 Y103.805
G1 F900 E1946.30468
G1 F600 X136.914 Y80.875 E1959.78664
G1 F2400 E1944.78664
G0 F600 X134.354 Y86.263
G1 F900 E1962.78837
G1 F600 X119.345 Y101.273 E1971.61338
G1 F2400 E1956.61338
G0 F600 Z1
G0 X119.052 Y39.856
;TIME_ELAPSED:552.415843
;LAYER:-3
;TYPE:SUPPORT
G1 F900 E1974.61511
G1 F600 X126.231 Y47.035 E1978.83609
G1 X126.68 Y47.658 E1979.15536
G1 X126.946 Y48.047 E1979.35128
G1 X128.171 Y50.323 E1980.42588
G1 X128.283 Y50.211 E1980.49174
G1 X128.533 Y50.651 E1980.70213
G1 X128.872 Y51.285 E1981.00103
G1 X129.374 Y52.294 E1981.46958
G1 X129.649 Y52.883 E1981.73983
G1 X129.952 Y53.585 E1982.05772
G1 X112.512 Y36.144 E1992.31206
G1 X111.908 Y35.888 E1992.5848
G1 X111.32 Y35.658 E1992.8473
G1 X110.251 Y35.273 E1993.31968
G1 X108.819 Y34.877 E1993.93738
G1 X108.819 Y34.824 E1993.95942
G1 X108.184 Y34.645 E1994.23371
G1 X131.445 Y57.906 E2007.91028
G1 X131.759 Y59.367 E2008.53157
G1 X131.807 Y59.367 E2008.55152
G1 X131.882 Y59.711 E2008.6979
G1 X132.091 Y60.786 E2009.1532
G1 X132.207 Y61.496 E2009.4523
G1 X104.599 Y33.888 E2025.68475
G1 X103.227 Y33.706 E2026.26016
G1 X102.584 Y33.639 E2026.52893
G1 X101.437 Y33.554 E2027.00711
G1 X132.537 Y64.654 E2045.29271
G1 X132.556 Y65.032 E2045.45007
G1 X132.588 Y66.189 E2045.93128
G1 X132.587 Y66.84 E2046.20193
G1 X132.569 Y67.515 E2046.48266
G1 X98.578 Y33.525 E2066.46777
G1 X97.852 Y33.55 E2066.76979
G1 X97.106 Y33.599 E2067.08061
G1 X95.933 Y33.708 E2067.57038
G1 X132.385 Y70.159 E2089.00247
G1 X132.205 Y71.518 E2089.57241
G1 X132.1 Y72.162 E2089.84369
G1 X132.013 Y72.616 E2090.03588
G1 X93.475 Y34.078 E2112.69474
G1 X92.532 Y34.268 E2113.09468
G1 X91.848 Y34.425 E2113.38644
G1 X91.17 Y34.602 E2113.67777
G1 X131.48 Y74.912 E2137.37851
G1 X131.423 Y75.195 E2137.49853
G1 X131.293 Y75.658 E2137.69846
G1 X130.959 Y76.742 E2138.17005
G1 X130.84 Y77.099 E2138.3265
G1 X89.104 Y35.364 E2162.86537
G1 X88.203 Y35.765 E2163.27539
G1 X88.143 Y35.557 E2163.36539
G1 X87.393 Y35.841 E2163.69881
G1 X86.94 Y36.029 E2163.90272
G1 X130.066 Y79.154 E2189.25886
G1 X129.665 Y80.083 E2189.67954
G1 X129.181 Y81.098 E2190.14705
G1 X85.068 Y36.985 E2216.08381
G1 X83.349 Y37.78 E2216.87121
G1 X83.151 Y37.896 E2216.96662
G1 X128.194 Y82.939 E2243.45018
G1 X127.624 Y83.906 E2243.91685
G1 X127.119 Y84.693 E2244.30562
