; generated by PrusaSlicer 2.9.4 on 2026-06-20 at 06:04:04 UTC

; 

; external perimeters extrusion width = 2.25mm
; perimeters extrusion width = 2.25mm
; infill extrusion width = 2.25mm
; solid infill extrusion width = 2.25mm
; top infill extrusion width = 2.00mm
; support material extrusion width = 2.00mm

M104 S250 T1 ; set temperature
;TYPE:Custom
G28 ; home all axes
G1 Z5 F5000 ; lift nozzle
M109 S250 T1 ; set temperature and wait for it to be reached
G21 ; set units to millimeters
G90 ; use absolute coordinates
M82 ; use absolute distances for extrusion
G92 E0
T1
G92 E0
; Filament gcode
M106 S255
;LAYER_CHANGE
;Z:0.5
;HEIGHT:0.5
G92 E0
G1 E-15 F2400
G92 E0
G1 Z.5 F600
G1 X277.91 Y229.412
G1 E18 F900
;TYPE:Support material
;WIDTH:2
G1 F600
G1 X277.91 Y270.588 E34.20055
G1 X274.981 Y273.517 E35.8303
G1 X225.019 Y273.517 E55.48767
G1 X222.09 Y270.588 E57.11742
G1 X222.09 Y229.412 E73.31797
G1 X225.019 Y226.483 E74.94772
G1 X274.981 Y226.483 E94.60509
G1 X277.709 Y229.211 E96.123
G1 E81.123 F2400
G92 E0
G1 X275.528 Y228.234 F600
G1 E18 F900
G1 F600
G1 X225.677 Y228.234 E37.6137
G1 X223.794 Y230.117 E38.66143
G1 X276.206 Y230.127 E59.28274
G1 X276.206 Y232.019 E60.02714
G1 X223.794 Y232.019 E80.64845
G1 X223.794 Y233.912 E81.39324
G1 X276.206 Y233.912 E102.01455
G1 X276.206 Y235.805 E102.75934
G1 X223.794 Y235.805 E123.38065
G1 X223.794 Y237.698 E124.12544
G1 X276.206 Y237.698 E144.74675
G1 X276.206 Y239.59 E145.49115
G1 X223.794 Y239.59 E166.11246
G1 X223.794 Y241.483 E166.85725
G1 X276.206 Y241.483 E187.47856
G1 X276.206 Y243.376 E188.22335
G1 X223.794 Y243.376 E208.84466
G1 X223.794 Y245.268 E209.58906
G1 X276.206 Y245.268 E230.21037
G1 X276.206 Y247.161 E230.95516
G1 X223.794 Y247.161 E251.57647
G1 X223.794 Y249.054 E252.32126
G1 X276.206 Y249.054 E272.94257
G1 X276.206 Y250.946 E273.68697
G1 X223.794 Y250.946 E294.30828
G1 X223.794 Y252.839 E295.05307
G1 X276.206 Y252.839 E315.67438
G1 X276.206 Y254.732 E316.41917
G1 X223.794 Y254.732 E337.04048
G1 X223.794 Y256.624 E337.78488
G1 X276.206 Y256.624 E358.40619
G1 X276.206 Y258.517 E359.15098
G1 X223.794 Y258.517 E379.77229
G1 X223.794 Y260.41 E380.51708
G1 X276.206 Y260.41 E401.13839
G1 X276.206 Y262.303 E401.88318
G1 X223.794 Y262.303 E422.50449
G1 X223.794 Y264.195 E423.24889
G1 X276.206 Y264.195 E443.8702
G1 X276.206 Y266.088 E444.61499
G1 X223.794 Y266.088 E465.2363
G1 X223.794 Y267.981 E465.98109
G1 X276.206 Y267.981 E486.6024
G1 X276.206 Y269.873 E487.3468
G1 X223.794 Y269.873 E507.96811
G1 X225.677 Y271.766 E509.01863
G1 X275.527 Y271.766 E528.63193
;LAYER_CHANGE
;Z:2
;HEIGHT:1.5
G1 E513.63193 F2400
G92 E0
G1 Z2 F600
G1 X226.685 Y265.497
G1 E18 F900
;TYPE:Support material interface
G1 F600
G1 X229.259 Y268.071 E21.80948
G1 X231.936 Y268.071 E24.61098
G1 X227.536 Y263.672 E31.12218
G1 X227.536 Y260.995 E33.92368
G1 X234.612 Y268.071 E44.39606
G1 X237.289 Y268.071 E47.19756
G1 X227.536 Y258.318 E61.63186
G1 X227.536 Y255.642 E64.43231
G1 X239.966 Y268.071 E82.82779
G1 X242.642 Y268.071 E85.62824
G1 X227.536 Y252.965 E107.9849
G1 X227.536 Y250.288 E110.7864
G1 X245.319 Y268.071 E137.10498
G1 X247.996 Y268.071 E139.90648
G1 X227.536 Y247.612 E170.18624
G1 X227.536 Y244.935 E172.98774
G1 X250.672 Y268.071 E207.22868
G1 X253.349 Y268.071 E210.03018
G1 X227.536 Y242.258 E248.23304
G1 X227.536 Y239.581 E251.03454
G1 X256.026 Y268.071 E293.19932
G1 X258.702 Y268.071 E295.99977
G1 X227.536 Y236.905 E342.12499
G1 X227.536 Y234.228 E344.92649
G1 X261.379 Y268.071 E395.01363
G1 X264.056 Y268.071 E397.81513
G1 X227.914 Y231.929 E451.30476
G1 X230.591 Y231.929 E454.10626
G1 X266.733 Y268.071 E507.59589
G1 X269.409 Y268.071 E510.39634
G1 X233.268 Y231.929 E563.88523
G1 X235.944 Y231.929 E566.68568
G1 X272.086 Y268.071 E620.17531
G1 X272.464 Y268.071 E620.57089
G1 X272.464 Y265.772 E622.97681
G1 X238.621 Y231.929 E673.06395
G1 X241.298 Y231.929 E675.86545
G1 X272.464 Y263.095 E721.99067
G1 X272.464 Y260.418 E724.79217
G1 X243.974 Y231.929 E766.95621
G1 X246.651 Y231.929 E769.75771
G1 X272.464 Y257.742 E807.96057
G1 X272.464 Y255.065 E810.76207
G1 X249.328 Y231.929 E845.00301
G1 X252.004 Y231.929 E847.80346
G1 X272.464 Y252.388 E878.08322
G1 X272.464 Y249.712 E880.88367
G1 X254.681 Y231.929 E907.20225
G1 X257.358 Y231.929 E910.00375
G1 X272.464 Y247.035 E932.36041
G1 X272.464 Y244.358 E935.16191
G1 X260.034 Y231.929 E953.55739
G1 X262.711 Y231.929 E956.35889
G1 X272.464 Y241.682 E970.79319
G1 X272.464 Y239.005 E973.59469
G1 X265.388 Y231.929 E984.06707
G1 X268.064 Y231.929 E986.86752
G1 X272.464 Y236.328 E993.37872
G1 X272.464 Y233.652 E996.17917
G1 X269.889 Y231.077 E999.99013
;LAYER_CHANGE
;Z:3.5
;HEIGHT:1.5
G1 E984.99013 F2400
G92 E0
G1 Z3.5 F600
G1 X270.389 Y268.423
G1 E18 F900
G1 F600
G1 X271.964 Y266.848 E20.33098
G1 X271.964 Y264.172 E23.13143
G1 X268.564 Y267.571 E28.16264
G1 X265.888 Y267.571 E30.96309
G1 X271.964 Y261.495 E39.95548
G1 X271.964 Y258.818 E42.75698
G1 X263.211 Y267.571 E55.71129
G1 X260.534 Y267.571 E58.51279
G1 X271.964 Y256.142 E75.42828
G1 X271.964 Y253.465 E78.22978
G1 X257.858 Y267.571 E99.10645
G1 X255.181 Y267.571 E101.90795
G1 X271.964 Y250.788 E126.74654
G1 X271.964 Y248.112 E129.54699
G1 X252.504 Y267.571 E158.34676
G1 X249.828 Y267.571 E161.14721
G1 X271.964 Y245.435 E193.90816
G1 X271.964 Y242.758 E196.70966
G1 X247.151 Y267.571 E233.43254
G1 X244.474 Y267.571 E236.23404
G1 X271.964 Y240.081 E276.91884
G1 X271.964 Y237.405 E279.71929
G1 X241.797 Y267.571 E324.36527
G1 X239.121 Y267.571 E327.16572
G1 X271.964 Y234.728 E375.77288
G1 X271.964 Y232.429 E378.1788
G1 X271.586 Y232.429 E378.57438
G1 X236.444 Y267.571 E430.58402
G1 X233.767 Y267.571 E433.38552
G1 X268.909 Y232.429 E485.39516
G1 X266.232 Y232.429 E488.19666
G1 X231.091 Y267.571 E540.20556
G1 X228.414 Y267.571 E543.00706
G1 X263.556 Y232.429 E595.0167
G1 X260.879 Y232.429 E597.8182
G1 X228.036 Y265.272 E646.42536
G1 X228.036 Y262.595 E649.22686
G1 X258.202 Y232.429 E693.8721
G1 X255.526 Y232.429 E696.67255
G1 X228.036 Y259.918 E737.35661
G1 X228.036 Y257.242 E740.15706
G1 X252.849 Y232.429 E776.87994
G1 X250.172 Y232.429 E779.68144
G1 X228.036 Y254.565 E812.44239
G1 X228.036 Y251.888 E815.24389
G1 X247.496 Y232.429 E844.04366
G1 X244.819 Y232.429 E846.84516
G1 X228.036 Y249.212 E871.68375
G1 X228.036 Y246.535 E874.48525
G1 X242.142 Y232.429 E895.36192
G1 X239.466 Y232.429 E898.16237
G1 X228.036 Y243.858 E915.07786
G1 X228.036 Y241.182 E917.87831
G1 X236.789 Y232.429 E930.83262
G1 X234.112 Y232.429 E933.63412
G1 X228.036 Y238.505 E942.62651
G1 X228.036 Y235.828 E945.42801
G1 X231.436 Y232.429 E950.45922
G1 X228.759 Y232.429 E953.26072
G1 X227.185 Y234.003 E955.59022
;LAYER_CHANGE
;Z:4
;HEIGHT:0.5
G1 E940.59022 F2400
G92 E0
G1 Z4 F600
G1 X242.553 Y247.553
G1 E18 F900
;TYPE:Perimeter
;WIDTH:2.25
G1 F600
G1 X257.447 Y247.553 E24.63402
G1 X257.447 Y252.447 E26.81388
G1 X242.553 Y252.447 E33.4479
G1 X242.553 Y247.853 E35.49414
G1 E20.49414 F2400
G92 E0
G1 X240.41 Y245.41 F600
G1 E18 F900
G1 F600
G1 X259.59 Y245.41 E26.54307
G1 X259.59 Y254.59 E30.63198
G1 X240.41 Y254.59 E39.17505
G1 X240.41 Y245.71 E43.13034
G1 E28.13034 F2400
G92 E0
G1 X238.268 Y243.268 F600
G1 E18 F900
G1 F600
G1 X261.732 Y243.268 E28.45123
G1 X261.732 Y256.732 E34.4483
G1 X238.268 Y256.732 E44.89953
G1 X238.268 Y243.568 E50.76298
G1 E35.76298 F2400
G92 E0
G1 X236.125 Y241.125 F600
G1 E18 F900
;TYPE:External perimeter
G1 F600
G1 X263.875 Y241.125 E30.36028
G1 X263.875 Y258.875 E38.2664
G1 X236.125 Y258.875 E50.62668
G1 X236.125 Y241.425 E58.39918
G1 X238.103 Y241.128
G1 E43.39918 F2400
G92 E0
G1 X244.667 Y248.196 F600
G1 E18 F900
;TYPE:Solid infill
;WIDTH:2.60267
G1 F600
G1 X247.311 Y250.84 E19.93961
G1 X250.84 Y250.84 E21.7702
G1 X249.16 Y249.16 E23.00263
G1 X252.689 Y249.16 E24.83322
G1 X255.333 Y251.804 E26.77283
;LAYER_CHANGE
;Z:4.5
;HEIGHT:0.5
G1 E11.77283 F2400
G92 E0
G1 Z4.5 F600
G1 X257.447 Y252.447
G1 E18 F900
;TYPE:Perimeter
;WIDTH:2.25
G1 F600
G1 X242.553 Y252.447 E24.63402
G1 X242.553 Y247.553 E26.81388
G1 X257.447 Y247.553 E33.4479
G1 X257.447 Y252.147 E35.49414
G1 E20.49414 F2400
G92 E0
G1 X259.59 Y254.59 F600
G1 E18 F900
G1 F600
G1 X240.41 Y254.59 E26.54307
G1 X240.41 Y245.41 E30.63198
G1 X259.59 Y245.41 E39.17505
G1 X259.59 Y254.29 E43.13034
G1 E28.13034 F2400
G92 E0
G1 X261.732 Y256.732 F600
G1 E18 F900
G1 F600
G1 X238.268 Y256.732 E28.45123
G1 X238.268 Y243.268 E34.4483
G1 X261.732 Y243.268 E44.89953
G1 X261.732 Y256.432 E50.76298
G1 E35.76298 F2400
G92 E0
G1 X263.875 Y258.875 F600
G1 E18 F900
;TYPE:External perimeter
G1 F600
G1 X236.125 Y258.875 E30.36028
G1 X236.125 Y241.125 E38.2664
G1 X263.875 Y241.125 E50.62668
G1 X263.875 Y258.575 E58.39918
G1 X261.897 Y258.872
G1 E43.39918 F2400
G92 E0
G1 X255.956 Y249.044 F600
G1 E18 F900
;TYPE:Solid infill
;WIDTH:2.01853
G1 F600
G1 X255.956 Y250.956 E18.75963
G1 X244.044 Y250.956 E23.49224
G1 X244.044 Y249.044 E24.25187
G1 X254.884 Y249.044 E28.55858
;LAYER_CHANGE
;Z:5
;HEIGHT:0.5
G1 E13.55858 F2400
G92 E0
G1 Z5 F600
G1 X257.447 Y247.553
G1 E18 F900
;TYPE:Perimeter
;WIDTH:2.25
G1 F600
G1 X257.447 Y252.447 E20.17986
G1 X242.553 Y252.447 E26.81388
G1 X242.553 Y247.553 E28.99374
G1 X257.147 Y247.553 E35.49413
G1 E20.49413 F2400
G92 E0
G1 X259.59 Y245.41 F600
G1 E18 F900
G1 F600
G1 X259.59 Y254.59 E22.08891
G1 X240.41 Y254.59 E30.63198
G1 X240.41 Y245.41 E34.72089
G1 X259.29 Y245.41 E43.13033
G1 E28.13033 F2400
G92 E0
G1 X261.732 Y243.268 F600
G1 E18 F900
G1 F600
G1 X261.732 Y256.732 E23.99707
G1 X238.268 Y256.732 E34.4483
G1 X238.268 Y243.268 E40.44537
G1 X261.432 Y243.268 E50.76297
G1 E35.76297 F2400
G92 E0
G1 X263.875 Y241.125 F600
G1 E18 F900
;TYPE:External perimeter
G1 F600
G1 X263.875 Y258.875 E25.90612
G1 X236.125 Y258.875 E38.2664
G1 X236.125 Y241.125 E46.17252
G1 X263.575 Y241.125 E58.39917
G1 X263.872 Y243.103
G1 E43.39917 F2400
G92 E0
G1 X244.044 Y249.044 F600
G1 E18 F900
;TYPE:Solid infill
;WIDTH:2.01853
G1 F600
G1 X255.956 Y249.044 E22.73262
G1 X255.956 Y250.956 E23.49225
G1 X244.044 Y250.956 E28.22487
G1 X244.044 Y250.116 E28.5586
;LAYER_CHANGE
;Z:5.5
;HEIGHT:0.5
G1 E13.5586 F2400
G92 E0
G1 Z5.5 F600
G1 X242.553 Y252.447
G1 E18 F900
;TYPE:Perimeter
;WIDTH:2.25
G1 F600
G1 X242.553 Y247.553 E20.17986
G1 X257.447 Y247.553 E26.81388
G1 X257.447 Y252.447 E28.99374
G1 X242.853 Y252.447 E35.49413
G1 E20.49413 F2400
G92 E0
G1 X240.41 Y254.59 F600
G1 E18 F900
G1 F600
G1 X240.41 Y245.41 E22.08891
G1 X259.59 Y245.41 E30.63198
G1 X259.59 Y254.59 E34.72089
G1 X240.71 Y254.59 E43.13033
G1 E28.13033 F2400
G92 E0
G1 X238.268 Y256.732 F600
G1 E18 F900
G1 F600
G1 X238.268 Y243.268 E23.99707
G1 X261.732 Y243.268 E34.4483
G1 X261.732 Y256.732 E40.44537
G1 X238.568 Y256.732 E50.76297
G1 E35.76297 F2400
G92 E0
G1 X236.125 Y258.875 F600
G1 E18 F900
;TYPE:External perimeter
G1 F600
G1 X236.125 Y241.125 E25.90612
G1 X263.875 Y241.125 E38.2664
G1 X263.875 Y258.875 E46.17252
G1 X236.425 Y258.875 E58.39917
G1 X236.128 Y256.897
G1 E43.39917 F2400
G92 E0
G1 X255.956 Y249.044 F600
G1 E18 F900
;TYPE:Solid infill
;WIDTH:2.01853
G1 F600
G1 X255.956 Y250.956 E18.75963
G1 X244.044 Y250.956 E23.49224
G1 X244.044 Y249.044 E24.25187
G1 X254.884 Y249.044 E28.55858
;LAYER_CHANGE
;Z:6
;HEIGHT:0.5
G1 E13.55858 F2400
G92 E0
G1 Z6 F600
G1 X257.447 Y247.553
G1 E18 F900
;TYPE:Perimeter
;WIDTH:2.25
G1 F600
G1 X257.447 Y252.447 E20.17986
G1 X242.553 Y252.447 E26.81388
G1 X242.553 Y247.553 E28.99374
G1 X257.147 Y247.553 E35.49413
G1 E20.49413 F2400
G92 E0
G1 X259.59 Y245.41 F600
G1 E18 F900
G1 F600
G1 X259.59 Y254.59 E22.08891
G1 X240.41 Y254.59 E30.63198
G1 X240.41 Y245.41 E34.72089
G1 X259.29 Y245.41 E43.13033
G1 E28.13033 F2400
G92 E0
G1 X261.732 Y243.268 F600
G1 E18 F900
G1 F600
G1 X261.732 Y256.732 E23.99707
G1 X238.268 Y256.732 E34.4483
G1 X238.268 Y243.268 E40.44537
G1 X261.432 Y243.268 E50.76297
G1 E35.76297 F2400
G92 E0
G1 X263.875 Y241.125 F600
G1 E18 F900
;TYPE:External perimeter
G1 F600
G1 X263.875 Y258.875 E25.90612
G1 X236.125 Y258.875 E38.2664
G1 X236.125 Y241.125 E46.17252
G1 X263.575 Y241.125 E58.39917
G1 X263.872 Y243.103
G1 E43.39917 F2400
G92 E0
G1 X244.044 Y249.044 F600
G1 E18 F900
;TYPE:Solid infill
;WIDTH:2.01853
G1 F600
G1 X255.956 Y249.044 E22.73262
G1 X255.956 Y250.956 E23.49225
G1 X244.044 Y250.956 E28.22487
G1 X244.044 Y250.116 E28.5586
;LAYER_CHANGE
;Z:6.5
;HEIGHT:0.5
G1 E13.5586 F2400
G92 E0
G1 Z6.5 F600
G1 X242.553 Y252.447
G1 E18 F900
;TYPE:Perimeter
;WIDTH:2.25
G1 F600
G1 X242.553 Y247.553 E20.17986
G1 X257.447 Y247.553 E26.81388
G1 X257.447 Y252.447 E28.99374
G1 X242.853 Y252.447 E35.49413
G1 E20.49413 F2400
G92 E0
G1 X240.41 Y254.59 F600
G1 E18 F900
G1 F600
G1 X240.41 Y245.41 E22.08891
G1 X259.59 Y245.41 E30.63198
G1 X259.59 Y254.59 E34.72089
G1 X240.71 Y254.59 E43.13033
G1 E28.13033 F2400
G92 E0
G1 X238.268 Y256.732 F600
G1 E18 F900
G1 F600
G1 X238.268 Y243.268 E23.99707
G1 X261.732 Y243.268 E34.4483
G1 X261.732 Y256.732 E40.44537
G1 X238.568 Y256.732 E50.76297
G1 E35.76297 F2400
G92 E0
G1 X236.125 Y258.875 F600
G1 E18 F900
;TYPE:External perimeter
G1 F600
G1 X236.125 Y241.125 E25.90612
G1 X263.875 Y241.125 E38.2664
G1 X263.875 Y258.875 E46.17252
G1 X236.425 Y258.875 E58.39917
G1 X236.128 Y256.897
G1 E43.39917 F2400
G92 E0
G1 X255.956 Y249.044 F600
G1 E18 F900
;TYPE:Solid infill
;WIDTH:2.01853
G1 F600
G1 X255.956 Y250.956 E18.75963
G1 X244.044 Y250.956 E23.49224
G1 X244.044 Y249.044 E24.25187
G1 X254.884 Y249.044 E28.55858
;LAYER_CHANGE
;Z:7
;HEIGHT:0.5
G1 E13.55858 F2400
G92 E0
G1 Z7 F600
G1 X257.447 Y247.553
G1 E18 F900
;TYPE:Perimeter
;WIDTH:2.25
G1 F600
G1 X257.447 Y252.447 E20.17986
G1 X242.553 Y252.447 E26.81388
G1 X242.553 Y247.553 E28.99374
G1 X257.147 Y247.553 E35.49413
G1 E20.49413 F2400
G92 E0
G1 X259.59 Y245.41 F600
G1 E18 F900
G1 F600
G1 X259.59 Y254.59 E22.08891
G1 X240.41 Y254.59 E30.63198
G1 X240.41 Y245.41 E34.72089
G1 X259.29 Y245.41 E43.13033
G1 E28.13033 F2400
G92 E0
G1 X261.732 Y243.268 F600
G1 E18 F900
G1 F600
G1 X261.732 Y256.732 E23.99707
G1 X238.268 Y256.732 E34.4483
G1 X238.268 Y243.268 E40.44537
G1 X261.432 Y243.268 E50.76297
G1 E35.76297 F2400
G92 E0
G1 X263.875 Y241.125 F600
G1 E18 F900
;TYPE:External perimeter
G1 F600
G1 X263.875 Y258.875 E25.90612
G1 X236.125 Y258.875 E38.2664
G1 X236.125 Y241.125 E46.17252
G1 X263.575 Y241.125 E58.39917
G1 X263.872 Y243.103
G1 E43.39917 F2400
G92 E0
G1 X244.044 Y249.044 F600
G1 E18 F900
;TYPE:Solid infill
;WIDTH:2.01853
G1 F600
G1 X255.956 Y249.044 E22.73262
G1 X255.956 Y250.956 E23.49225
G1 X244.044 Y250.956 E28.22487
G1 X244.044 Y250.116 E28.5586
;LAYER_CHANGE
;Z:7.5
;HEIGHT:0.5
G1 E13.5586 F2400
G92 E0
G1 Z7.5 F600
G1 X242.553 Y252.447
G1 E18 F900
;TYPE:Perimeter
;WIDTH:2.25
G1 F600
G1 X242.553 Y247.553 E20.17986
G1 X257.447 Y247.553 E26.81388
G1 X257.447 Y252.447 E28.99374
G1 X242.853 Y252.447 E35.49413
G1 E20.49413 F2400
G92 E0
G1 X240.41 Y254.59 F600
G1 E18 F900
G1 F600
G1 X240.41 Y245.41 E22.08891
G1 X259.59 Y245.41 E30.63198
G1 X259.59 Y254.59 E34.72089
G1 X240.71 Y254.59 E43.13033
G1 E28.13033 F2400
G92 E0
G1 X238.268 Y256.732 F600
G1 E18 F900
G1 F600
G1 X238.268 Y243.268 E23.99707
G1 X261.732 Y243.268 E34.4483
G1 X261.732 Y256.732 E40.44537
G1 X238.568 Y256.732 E50.76297
G1 E35.76297 F2400
G92 E0
G1 X236.125 Y258.875 F600
G1 E18 F900
;TYPE:External perimeter
G1 F600
G1 X236.125 Y241.125 E25.90612
G1 X263.875 Y241.125 E38.2664
G1 X263.875 Y258.875 E46.17252
G1 X236.425 Y258.875 E58.39917
G1 X236.128 Y256.897
G1 E43.39917 F2400
G92 E0
G1 X255.956 Y249.044 F600
G1 E18 F900
;TYPE:Solid infill
;WIDTH:2.01853
G1 F600
G1 X255.956 Y250.956 E18.75963
G1 X244.044 Y250.956 E23.49224
G1 X244.044 Y249.044 E24.25187
G1 X254.884 Y249.044 E28.55858
;LAYER_CHANGE
;Z:8
;HEIGHT:0.5
G1 E13.55858 F2400
G92 E0
G1 Z8 F600
G1 X257.447 Y247.553
G1 E18 F900
;TYPE:Perimeter
;WIDTH:2.25
G1 F600
G1 X257.447 Y252.447 E20.17986
G1 X242.553 Y252.447 E26.81388
G1 X242.553 Y247.553 E28.99374
G1 X257.147 Y247.553 E35.49413
G1 E20.49413 F2400
G92 E0
G1 X259.59 Y245.41 F600
G1 E18 F900
G1 F600
G1 X259.59 Y254.59 E22.08891
G1 X240.41 Y254.59 E30.63198
G1 X240.41 Y245.41 E34.72089
