; generated by PrusaSlicer 2.9.4 on 2026-02-09 at 07:22:51 UTC

; 

; external perimeters extrusion width = 2.00mm
; perimeters extrusion width = 2.00mm
; infill extrusion width = 2.00mm
; solid infill extrusion width = 2.00mm
; top infill extrusion width = 2.00mm
; first layer extrusion width = 2.00mm

M104 S250 T1 ; set temperature
;TYPE:Custom
G28 ; home all axes
G1 Z5 F5000 ; lift nozzle
M109 S250 T1 ; set temperature and wait for it to be reached
G21 ; set units to millimeters
G90 ; use absolute coordinates
M82 ; use absolute distances for extrusion
G92 E0
T1
G92 E0
; Filament gcode
M107
;LAYER_CHANGE
;Z:0.5
;HEIGHT:0.5
G92 E0
G1 E-2 F2400
G92 E0
G1 Z.5 F600
G1 X204.785 Y295.215 F600
;TYPE:Perimeter
;WIDTH:2
G1 F600
G1 X204.785 Y295.215 E13.41481
G1 X204.785 Y204.785 E26.82962
G1 X295.215 Y204.785 E40.24443
G1 X295.215 Y294.915 E53.61474
G1 E51.61474 F2400
G92 E0
G1 X297.107 Y297.107 F600
G1 E2 F2400
G1 F600
G1 X202.893 Y297.107 E15.97615
G1 X202.893 Y202.893 E29.9523
G1 X297.107 Y202.893 E43.92845
G1 X297.107 Y296.807 E57.86009
G1 E55.86009 F2400
G92 E0
G1 X299 Y299 F600
G1 E2 F2400
;TYPE:External perimeter
G1 F600
G1 X201 Y299 E16.53778
G1 X201 Y201 E31.07556
G1 X299 Y201 E45.61334
G1 X299 Y298.7 E60.10661
G1 X297.022 Y298.997
G1 E58.10661 F2400
G92 E0
G1 X294.647 Y209.231 F600
G1 E2 F2400
;TYPE:Solid infill
;WIDTH:2.02469
G1 F600
G1 X291.62 Y206.205 E2.64322
G1 X288.909 Y206.205 E3.05063
G1 X293.795 Y211.091 E4.08904
G1 X293.795 Y213.803 E4.4966
G1 X286.197 Y206.205 E6.11139
G1 X283.486 Y206.205 E6.5188
G1 X293.795 Y216.515 E8.70986
G1 X293.795 Y219.226 E9.11727
G1 X280.774 Y206.205 E11.8846
G1 X278.062 Y206.205 E12.29216
G1 X293.795 Y221.938 E15.63586
G1 X293.795 Y224.649 E16.04327
G1 X275.351 Y206.205 E19.96314
G1 X272.639 Y206.205 E20.3707
G1 X293.795 Y227.361 E24.86694
G1 X293.795 Y230.073 E25.2745
G1 X269.928 Y206.205 E30.34701
G1 X267.216 Y206.205 E30.75457
G1 X293.795 Y232.784 E36.40335
G1 X293.795 Y235.496 E36.81091
G1 X264.504 Y206.205 E43.03607
G1 X261.793 Y206.205 E43.44348
G1 X293.795 Y238.207 E50.2448
G1 X293.795 Y240.919 E50.65236
G1 X259.081 Y206.205 E58.03006
G1 X256.37 Y206.205 E58.43747
G1 X293.795 Y243.631 E66.39144
G1 X293.795 Y246.342 E66.79885
G1 X253.658 Y206.205 E75.32908
G1 X250.946 Y206.205 E75.73664
G1 X293.795 Y249.054 E84.84325
G1 X293.795 Y251.765 E85.25066
G1 X248.235 Y206.205 E94.93343
G1 X245.523 Y206.205 E95.34099
G1 X293.795 Y254.477 E105.60014
G1 X293.795 Y257.189 E106.0077
G1 X242.812 Y206.205 E116.84312
G1 X240.1 Y206.205 E117.25068
G1 X293.795 Y259.9 E128.66237
G1 X293.795 Y262.612 E129.06993
G1 X237.388 Y206.205 E141.05799
G1 X234.677 Y206.205 E141.4654
G1 X293.795 Y265.323 E154.02963
G1 X293.795 Y268.035 E154.43719
G1 X231.965 Y206.205 E167.57779
G1 X229.253 Y206.205 E167.98535
G1 X293.795 Y270.747 E181.70233
G1 X293.795 Y273.458 E182.10974
G1 X226.542 Y206.205 E196.40288
G1 X223.83 Y206.205 E196.81044
G1 X293.795 Y276.17 E211.67996
G1 X293.795 Y278.881 E212.08737
G1 X221.119 Y206.205 E227.53305
G1 X218.407 Y206.205 E227.94061
G1 X293.795 Y281.593 E243.96267
G1 X293.795 Y284.305 E244.37023
G1 X215.695 Y206.205 E260.96866
G1 X212.984 Y206.205 E261.37607
G1 X293.795 Y287.016 E278.55067
G1 X293.795 Y289.728 E278.95823
G1 X210.272 Y206.205 E296.7092
G1 X207.561 Y206.205 E297.11661
G1 X293.795 Y292.439 E315.44375
G1 X293.795 Y293.795 E315.64753
G1 X292.439 Y293.795 E315.85131
G1 X206.205 Y207.561 E334.17845
G1 X206.205 Y210.272 E334.58586
G1 X289.728 Y293.795 E352.33683
G1 X287.016 Y293.795 E352.74439
G1 X206.205 Y212.984 E369.91899
G1 X206.205 Y215.696 E370.32655
G1 X284.304 Y293.795 E386.92477
G1 X281.593 Y293.795 E387.33218
G1 X206.205 Y218.407 E403.35424
G1 X206.205 Y221.119 E403.7618
G1 X278.881 Y293.795 E419.20748
G1 X276.17 Y293.795 E419.61489
G1 X206.205 Y223.83 E434.48441
G1 X206.205 Y226.542 E434.89197
G1 X273.458 Y293.795 E449.18511
G1 X270.746 Y293.795 E449.59267
G1 X206.205 Y229.254 E463.30944
G1 X206.205 Y231.965 E463.71685
G1 X268.035 Y293.795 E476.85745
G1 X265.323 Y293.795 E477.26501
G1 X206.205 Y234.677 E489.82924
G1 X206.205 Y237.388 E490.23665
G1 X262.612 Y293.795 E502.22471
G1 X259.9 Y293.795 E502.63227
G1 X206.205 Y240.1 E514.04396
G1 X206.205 Y242.812 E514.45152
G1 X257.188 Y293.795 E525.28683
G1 X254.477 Y293.795 E525.69424
G1 X206.205 Y245.523 E535.95339
G1 X206.205 Y248.235 E536.36095
G1 X251.765 Y293.795 E546.04372
G1 X249.054 Y293.795 E546.45113
G1 X206.205 Y250.946 E555.55774
G1 X206.205 Y253.658 E555.9653
G1 X246.342 Y293.795 E564.49553
G1 X243.63 Y293.795 E564.90309
G1 X206.205 Y256.37 E572.85695
G1 X206.205 Y259.081 E573.26436
G1 X240.919 Y293.795 E580.64206
G1 X238.207 Y293.795 E581.04962
G1 X206.205 Y261.793 E587.85094
G1 X206.205 Y264.504 E588.25835
G1 X235.496 Y293.795 E594.48351
G1 X232.784 Y293.795 E594.89107
G1 X206.205 Y267.216 E600.53985
G1 X206.205 Y269.928 E600.94741
G1 X230.072 Y293.795 E606.01981
G1 X227.361 Y293.795 E606.42722
G1 X206.205 Y272.639 E610.92346
G1 X206.205 Y275.351 E611.33102
G1 X224.649 Y293.795 E615.25089
G1 X221.938 Y293.795 E615.6583
G1 X206.205 Y278.062 E619.002
G1 X206.205 Y280.774 E619.40956
G1 X219.226 Y293.795 E622.17689
G1 X216.514 Y293.795 E622.58445
G1 X206.205 Y283.486 E624.7754
G1 X206.205 Y286.197 E625.18281
G1 X213.803 Y293.795 E626.7976
G1 X211.091 Y293.795 E627.20516
G1 X206.205 Y288.909 E628.24357
G1 X206.205 Y291.62 E628.65098
G1 X209.231 Y294.647 E629.2942
