;FLAVOR:Marlin
;TIME:1147
;Filament used: 0m, 4.5747m
;Layer height: 0.5
;MINX:5.55
;MINY:6.299
;MINZ:0.5
;MAXX:211.55
;MAXY:34.299
;MAXZ:2
;TARGET_MACHINE.NAME:Unknown
;Generated with Cura_SteamEngine 5.13.0
T1
M104 S250
M105
M109 S250
G21 ; set units to millimeters
G90 ; use absolute coordinates
G28 ; home all axes
G1 Z5 F5000 ; lift nozzle
M106 S255 ; fan on full
M82 ;absolute extrusion mode
G92 E0
G92 E0
G1 F2400 E-15
;LAYER_COUNT:4
;LAYER:0
M106 S255
;MESH:????????????.STL
G0 F600 X6.05 Y6.299 Z0.5
;TYPE:FILL
G1 F900 E3.00173
G1 F600 X57.589 Y6.299 E24.42915
G1 X58.089 Y6.299
G1 F2400 E9.42915
G0 F600 X61.313 Y8.299
G1 F900 E27.43088
G1 F600 X6.05 Y8.299 E50.40657
G1 F2400 E35.40657
G0 F600 X6.05 Y10.299
G1 F900 E53.40829
G1 F600 X70.673 Y10.299 E80.27541
G1 X71.173 Y10.299
G1 F2400 E65.27541
G0 F600 X61.315 Y32.299
G1 F900 E83.27714
G1 F600 X6.05 Y32.299 E106.25366
G1 F2400 E91.25366
G0 F600 X6.05 Y34.299
G1 F900 E109.25539
G1 F600 X57.591 Y34.299 E130.68364
G1 X58.091 Y34.299
G1 F2400 E115.68364
G0 F600 X6.05 Y30.299
G1 F900 E133.68537
G1 F600 X211.05 Y30.299 E218.91447
G1 F2400 E203.91447
G0 F600 X211.05 Y32.299
G1 F900 E221.91619
G1 F600 X155.785 Y32.299 E244.89271
G1 X155.285 Y32.299
G1 F2400 E229.89271
G0 F600 X159.508 Y34.299
G1 F900 E247.89444
G1 F600 X211.05 Y34.299 E269.32311
G1 X211.55 Y34.299
G1 F2400 E254.32311
G0 F600 X211.05 Y28.299
G1 F900 E272.32484
G1 F600 X6.05 Y28.299 E357.55394
G1 F2400 E342.55394
G0 F600 X6.05 Y26.299
G1 F900 E360.55566
G1 F600 X211.05 Y26.299 E445.78476
G1 F2400 E430.78476
G0 F600 X211.05 Y24.299
G1 F900 E448.78649
G1 F600 X6.05 Y24.299 E534.01558
G1 F2400 E519.01558
G0 F600 X6.05 Y22.299
G1 F900 E537.01731
G1 F600 X211.05 Y22.299 E622.24641
G1 F2400 E607.24641
G0 F600 X211.05 Y20.299
G1 F900 E625.24813
G1 F600 X6.05 Y20.299 E710.47723
G1 F2400 E695.47723
G0 F600 X6.05 Y18.299
G1 F900 E713.47896
G1 F600 X211.05 Y18.299 E798.70805
G1 F2400 E783.70805
G0 F600 X211.05 Y16.299
G1 F900 E801.70978
G1 F600 X6.05 Y16.299 E886.93887
G1 F2400 E871.93887
G0 F600 X6.05 Y14.299
G1 F900 E889.9406
G1 F600 X211.05 Y14.299 E975.1697
G1 F2400 E960.1697
G0 F600 X211.05 Y12.299
G1 F900 E978.17143
G1 F600 X6.05 Y12.299 E1063.40052
G1 X5.55 Y12.299
G1 F2400 E1048.40052
G0 F600 X146.428 Y10.299
G1 F900 E1066.40225
G1 F600 X211.05 Y10.299 E1093.26895
G1 F2400 E1078.26895
G0 F600 X211.05 Y8.299
G1 F900 E1096.27068
G1 F600 X155.789 Y8.299 E1119.24554
G1 X155.289 Y8.299
G1 F2400 E1104.24554
G0 F600 X159.512 Y6.299
G1 F900 E1122.24726
G1 F600 X211.05 Y6.299 E1143.67427
G1 X211.55 Y6.299
G1 F2400 E1128.67427
;MESH:NONMESH
G0 F600 Z1
G0 X6.05 Y6.299
;TIME_ELAPSED:342.642246
;LAYER:1
;TYPE:FILL
;MESH:????????????.STL
G1 F900 E1146.676
G1 F720 X57.589 Y6.299 E1168.10343
G1 X58.089 Y6.299
G1 F2400 E1153.10343
G0 F600 X61.313 Y8.299
G1 F900 E1171.10515
G1 F720 X6.05 Y8.299 E1194.08084
G1 F2400 E1179.08084
G0 F600 X6.05 Y10.299
G1 F900 E1197.08257
G1 F720 X70.673 Y10.299 E1223.94969
G1 X71.173 Y10.299
G1 F2400 E1208.94969
G0 F600 X61.315 Y32.299
G1 F900 E1226.95141
G1 F720 X6.05 Y32.299 E1249.92793
G1 F2400 E1234.92793
G0 F600 X6.05 Y34.299
G1 F900 E1252.92966
G1 F720 X57.591 Y34.299 E1274.35792
G1 X58.091 Y34.299
G1 F2400 E1259.35792
G0 F600 X6.05 Y30.299
G1 F900 E1277.35964
G1 F720 X211.05 Y30.299 E1362.58874
G1 F2400 E1347.58874
G0 F600 X211.05 Y32.299
G1 F900 E1365.59047
G1 F720 X155.785 Y32.299 E1388.56698
G1 X155.285 Y32.299
G1 F2400 E1373.56698
G0 F600 X159.508 Y34.299
G1 F900 E1391.56871
G1 F720 X211.05 Y34.299 E1412.99738
G1 X211.55 Y34.299
G1 F2400 E1397.99738
G0 F600 X211.05 Y28.299
G1 F900 E1415.99911
G1 F720 X6.05 Y28.299 E1501.22821
G1 F2400 E1486.22821
G0 F600 X6.05 Y26.299
G1 F900 E1504.22994
G1 F720 X211.05 Y26.299 E1589.45903
G1 F2400 E1574.45903
G0 F600 X211.05 Y24.299
G1 F900 E1592.46076
G1 F720 X6.05 Y24.299 E1677.68985
G1 F2400 E1662.68985
G0 F600 X6.05 Y22.299
G1 F900 E1680.69158
G1 F720 X211.05 Y22.299 E1765.92068
G1 F2400 E1750.92068
G0 F600 X211.05 Y20.299
G1 F900 E1768.92241
G1 F720 X6.05 Y20.299 E1854.1515
G1 F2400 E1839.1515
G0 F600 X6.05 Y18.299
G1 F900 E1857.15323
G1 F720 X211.05 Y18.299 E1942.38232
G1 F2400 E1927.38232
G0 F600 X211.05 Y16.299
G1 F900 E1945.38405
G1 F720 X6.05 Y16.299 E2030.61315
G1 F2400 E2015.61315
G0 F600 X6.05 Y14.299
G1 F900 E2033.61487
G1 F720 X211.05 Y14.299 E2118.84397
G1 F2400 E2103.84397
G0 F600 X211.05 Y12.299
G1 F900 E2121.8457
G1 F720 X6.05 Y12.299 E2207.07479
G1 X5.55 Y12.299
G1 F2400 E2192.07479
G0 F600 X146.428 Y10.299
G1 F900 E2210.07652
G1 F720 X211.05 Y10.299 E2236.94323
G1 F2400 E2221.94323
G0 F600 X211.05 Y8.299
G1 F900 E2239.94495
G1 F720 X155.789 Y8.299 E2262.91981
G1 X155.289 Y8.299
G1 F2400 E2247.91981
G0 F600 X159.512 Y6.299
G1 F900 E2265.92154
G1 F720 X211.05 Y6.299 E2287.34855
G1 X211.55 Y6.299
G1 F2400 E2272.34855
;MESH:NONMESH
G0 F600 Z1.5
G0 X6.05 Y6.299
;TIME_ELAPSED:638.649877
;LAYER:2
;TYPE:FILL
;MESH:????????????.STL
G1 F900 E2290.35027
G1 F840 X57.589 Y6.299 E2311.7777
G1 X58.089 Y6.299
G1 F2400 E2296.7777
G0 F600 X61.313 Y8.299
G1 F900 E2314.77943
G1 F840 X6.05 Y8.299 E2337.75511
G1 F2400 E2322.75511
G0 F600 X6.05 Y10.299
G1 F900 E2340.75684
G1 F840 X70.673 Y10.299 E2367.62396
G1 X71.173 Y10.299
G1 F2400 E2352.62396
G0 F600 X61.315 Y32.299
G1 F900 E2370.62569
G1 F840 X6.05 Y32.299 E2393.6022
G1 F2400 E2378.6022
G0 F600 X6.05 Y34.299
G1 F900 E2396.60393
G1 F840 X57.591 Y34.299 E2418.03219
G1 X58.091 Y34.299
G1 F2400 E2403.03219
G0 F600 X6.05 Y30.299
G1 F900 E2421.03392
G1 F840 X211.05 Y30.299 E2506.26301
G1 F2400 E2491.26301
G0 F600 X211.05 Y32.299
G1 F900 E2509.26474
G1 F840 X155.785 Y32.299 E2532.24126
G1 X155.285 Y32.299
G1 F2400 E2517.24126
G0 F600 X159.508 Y34.299
G1 F900 E2535.24298
G1 F840 X211.05 Y34.299 E2556.67166
G1 X211.55 Y34.299
G1 F2400 E2541.67166
G0 F600 X211.05 Y28.299
G1 F900 E2559.67339
G1 F840 X6.05 Y28.299 E2644.90248
G1 F2400 E2629.90248
G0 F600 X6.05 Y26.299
G1 F900 E2647.90421
G1 F840 X211.05 Y26.299 E2733.1333
G1 F2400 E2718.1333
G0 F600 X211.05 Y24.299
G1 F900 E2736.13503
G1 F840 X6.05 Y24.299 E2821.36413
G1 F2400 E2806.36413
G0 F600 X6.05 Y22.299
G1 F900 E2824.36585
G1 F840 X211.05 Y22.299 E2909.59495
G1 F2400 E2894.59495
G0 F600 X211.05 Y20.299
G1 F900 E2912.59668
G1 F840 X6.05 Y20.299 E2997.82577
G1 F2400 E2982.82577
G0 F600 X6.05 Y18.299
G1 F900 E3000.8275
G1 F840 X211.05 Y18.299 E3086.0566
G1 F2400 E3071.0566
G0 F600 X211.05 Y16.299
G1 F900 E3089.05832
G1 F840 X6.05 Y16.299 E3174.28742
G1 F2400 E3159.28742
G0 F600 X6.05 Y14.299
G1 F900 E3177.28915
G1 F840 X211.05 Y14.299 E3262.51824
G1 F2400 E3247.51824
G0 F600 X211.05 Y12.299
G1 F900 E3265.51997
G1 F840 X6.05 Y12.299 E3350.74907
G1 X5.55 Y12.299
G1 F2400 E3335.74907
G0 F600 X146.428 Y10.299
G1 F900 E3353.75079
G1 F840 X211.05 Y10.299 E3380.6175
G1 F2400 E3365.6175
G0 F600 X211.05 Y8.299
G1 F900 E3383.61923
G1 F840 X155.789 Y8.299 E3406.59408
G1 X155.289 Y8.299
G1 F2400 E3391.59408
G0 F600 X159.512 Y6.299
G1 F900 E3409.59581
G1 F840 X211.05 Y6.299 E3431.02282
G1 X211.55 Y6.299
G1 F2400 E3416.02282
;MESH:NONMESH
G0 F600 Z2
G0 X6.05 Y6.299
;TIME_ELAPSED:903.581184
;LAYER:3
;TYPE:FILL
;MESH:????????????.STL
G1 F900 E3434.02455
G1 F840 X57.589 Y6.299 E3455.45197
G1 X58.089 Y6.299
G1 F2400 E3440.45197
G0 F600 X61.313 Y8.299
G1 F900 E3458.4537
G1 F840 X6.05 Y8.299 E3481.42938
G1 F2400 E3466.42938
G0 F600 X6.05 Y10.299
G1 F900 E3484.43111
G1 F840 X70.673 Y10.299 E3511.29823
G1 X71.173 Y10.299
G1 F2400 E3496.29823
G0 F600 X61.315 Y32.299
G1 F900 E3514.29996
G1 F840 X6.05 Y32.299 E3537.27648
G1 F2400 E3522.27648
G0 F600 X6.05 Y34.299
G1 F900 E3540.2782
G1 F840 X57.591 Y34.299 E3561.70646
G1 X58.091 Y34.299
G1 F2400 E3546.70646
G0 F600 X6.05 Y30.299
G1 F900 E3564.70819
G1 F840 X211.05 Y30.299 E3649.93729
G1 F2400 E3634.93729
G0 F600 X211.05 Y32.299
G1 F900 E3652.93901
G1 F840 X155.785 Y32.299 E3675.91553
G1 X155.285 Y32.299
G1 F2400 E3660.91553
G0 F600 X159.508 Y34.299
G1 F900 E3678.91726
G1 F840 X211.05 Y34.299 E3700.34593
G1 X211.55 Y34.299
G1 F2400 E3685.34593
G0 F600 X211.05 Y28.299
G1 F900 E3703.34766
G1 F840 X6.05 Y28.299 E3788.57675
G1 F2400 E3773.57675
G0 F600 X6.05 Y26.299
G1 F900 E3791.57848
G1 F840 X211.05 Y26.299 E3876.80758
G1 F2400 E3861.80758
G0 F600 X211.05 Y24.299
G1 F900 E3879.8093
G1 F840 X6.05 Y24.299 E3965.0384
G1 F2400 E3950.0384
G0 F600 X6.05 Y22.299
G1 F900 E3968.04013
G1 F840 X211.05 Y22.299 E4053.26922
G1 F2400 E4038.26922
G0 F600 X211.05 Y20.299
G1 F900 E4056.27095
G1 F840 X6.05 Y20.299 E4141.50005
G1 F2400 E4126.50005
G0 F600 X6.05 Y18.299
G1 F900 E4144.50177
G92 E0
G1 F840 X211.05 Y18.299 E85.2291
G1 F2400 E70.2291
G0 F600 X211.05 Y16.299
G1 F900 E88.23082
G1 F840 X6.05 Y16.299 E173.45992
G1 F2400 E158.45992
G0 F600 X6.05 Y14.299
G1 F900 E176.46165
G1 F840 X211.05 Y14.299 E261.69074
G1 F2400 E246.69074
G0 F600 X211.05 Y12.299
G1 F900 E264.69247
G1 F840 X6.05 Y12.299 E349.92157
G1 X5.55 Y12.299
G1 F2400 E334.92157
G0 F600 X146.428 Y10.299
G1 F900 E352.92329
G1 F840 X211.05 Y10.299 E379.79
G1 F2400 E364.79
G0 F600 X211.05 Y8.299
G1 F900 E382.79173
G1 F840 X155.789 Y8.299 E405.76658
G1 X155.289 Y8.299
G1 F2400 E390.76658
G0 F600 X159.512 Y6.299
G1 F900 E408.76831
G1 F840 X211.05 Y6.299 E430.19532
G1 X211.55 Y6.299
;TIME_ELAPSED:1147.446028
G1 F2400 E415.19532
M107
M104 S0 ; turn off temperature
G28 X0  ; home X axis
M84     ; disable motors
M82 ;absolute extrusion mode
M104 S0
;End of Gcode
;SETTING_3 {"global_quality": "[general]\\nversion = 4\\nname = test\\ndefinitio
;SETTING_3 n = custom\\n\\n[metadata]\\ntype = quality_changes\\nquality_type = 
;SETTING_3 high\\nsetting_version = 27\\n\\n[values]\\nacceleration_enabled = Fa
;SETTING_3 lse\\nadhesion_extruder_nr = 1\\nadhesion_type = none\\nbottom_layers
;SETTING_3  = 0\\nbottom_thickness = 0\\nbridge_fan_speed = 100\\nbridge_setting
;SETTING_3 s_enabled = True\\nbridge_skin_speed = 10\\nbridge_wall_speed = 10\\n
;SETTING_3 brim_width = 10\\ncool_fan_enabled = True\\ncool_fan_full_at_height =
;SETTING_3  0\\ncool_fan_full_layer = 1\\ncool_fan_speed = 100\\ncool_fan_speed_
;SETTING_3 0 = 100\\ncool_fan_speed_max = 100\\ncool_fan_speed_min = 100\\ncool_
;SETTING_3 min_layer_time = 0\\ncool_min_speed = 10\\nflooring_extruder_nr = 1\\
;SETTING_3 ninfill_angles = [90,90]\\ninfill_extruder_nr = 1\\ninfill_line_width
;SETTING_3  = 2\\ninfill_pattern = lines\\ninfill_sparse_density = 100\\njerk_en
;SETTING_3 abled = False\\nlayer_height = 0.5\\nlayer_height_0 = 0.5\\nline_widt
;SETTING_3 h = 2\\nmaterial_bed_temperature = 0\\nmaterial_bed_temperature_layer
;SETTING_3 _0 = 0\\nmaterial_diameter = 1.75\\nmaterial_print_temperature = 250\
;SETTING_3 \nmaterial_print_temperature_layer_0 = 250\\nmeshfix_maximum_resoluti
;SETTING_3 on = 0.0125\\nraft_airgap = 0.4\\nraft_base_extruder_nr = 1\\nraft_ba
;SETTING_3 se_fan_speed = 100\\nraft_base_flow = 100\\nraft_base_line_spacing = 
;SETTING_3 2\\nraft_base_line_width = 2\\nraft_base_margin = 20\\nraft_base_spee
;SETTING_3 d = 10\\nraft_base_thickness = 0.5\\nraft_interface_extruder_nr = 1\\
;SETTING_3 nraft_interface_fan_speed = 100\\nraft_interface_flow = 100\\nraft_in
;SETTING_3 terface_layers = 1\\nraft_interface_line_spacing = 2\\nraft_interface
;SETTING_3 _line_width = 2\\nraft_interface_margin = 13\\nraft_interface_speed =
;SETTING_3  10\\nraft_interface_thickness = 0.5\\nraft_margin = 15\\nraft_surfac
;SETTING_3 e_extruder_nr = 1\\nraft_surface_fan_speed = 100\\nraft_surface_flow 
;SETTING_3 = 100\\nraft_surface_layers = 1\\nraft_surface_line_spacing = 2\\nraf
;SETTING_3 t_surface_line_width = 2\\nraft_surface_margin = 6\\nraft_surface_spe
;SETTING_3 ed = 10\\nraft_surface_thickness = 0.8\\nrelative_extrusion = False\\
;SETTING_3 nretract_at_layer_change = True\\nretraction_combing = off\\nroofing_
;SETTING_3 extruder_nr = 1\\nskin_line_width = 2\\nskirt_brim_extruder_nr = 1\\n
;SETTING_3 skirt_line_count = 0\\nspeed_infill = 10\\nspeed_layer_0 = 10\\nspeed
;SETTING_3 _print = 10\\nspeed_print_layer_0 = 10\\nspeed_support = 10\\nspeed_s
;SETTING_3 upport_infill = 10\\nspeed_topbottom = 10\\nspeed_travel = 10\\nspeed
;SETTING_3 _travel_layer_0 = 10\\nspeed_wall = 10\\nspeed_wall_0 = 10\\nspeed_wa
;SETTING_3 ll_x = 10\\nsupport_bottom_extruder_nr = 1\\nsupport_enable = False\\
;SETTING_3 nsupport_extruder_nr = 1\\nsupport_infill_extruder_nr = 1\\nsupport_i
;SETTING_3 nterface_extruder_nr = 1\\nsupport_line_width = 2\\nsupport_pattern =
;SETTING_3  grid\\nsupport_roof_extruder_nr = 1\\nsupport_structure = normal\\ns
;SETTING_3 upport_type = everywhere\\nsupport_xy_distance = 1\\nsupport_z_distan
;SETTING_3 ce = 0.2\\ntop_bottom_extruder_nr = 1\\ntop_bottom_pattern = lines\\n
;SETTING_3 top_bottom_thickness = 0\\ntop_layers = 0\\ntop_thickness = 0\\ntrave
;SETTING_3 l_avoid_other_parts = False\\ntravel_avoid_supports = False\\nwall_0_
;SETTING_3 extruder_nr = 1\\nwall_extruder_nr = 1\\nwall_line_count = 0\\nwall_l
;SETTING_3 ine_width = 2\\nwall_line_width_0 = 2\\nwall_line_width_x = 2\\nwall_
;SETTING_3 thickness = 0\\nwall_x_extruder_nr = 1\\n\\n", "extruder_quality": ["
;SETTING_3 [general]\\nversion = 4\\nname = test\\ndefinition = custom\\n\\n[met
;SETTING_3 adata]\\ntype = quality_changes\\nquality_type = high\\nintent_catego
;SETTING_3 ry = default\\nposition = 0\\nsetting_version = 27\\n\\n[values]\\nco
;SETTING_3 ol_fan_enabled = True\\ncool_fan_speed = 100\\ncool_fan_speed_max = 1
;SETTING_3 00\\ncool_fan_speed_min = 100\\ninfill_sparse_density = 100\\nline_wi
;SETTING_3 dth = 2\\nmaterial_bed_temperature = 0\\nmaterial_bed_temperature_lay
;SETTING_3 er_0 = 0\\nmaterial_diameter = 1.75\\nmaterial_flow = 100\\nmaterial_
;SETTING_3 print_temperature = 250\\nmaterial_print_temperature_layer_0 = 250\\n
;SETTING_3 material_type = ABS\\nretraction_amount = 15\\nretraction_enable = Tr
;SETTING_3 ue\\nretraction_extra_prime_amount = 7.22\\nretraction_hop_enabled = 
;SETTING_3 False\\nretraction_min_travel = 0\\nretraction_prime_speed = 15\\nret
;SETTING_3 raction_retract_speed = 40\\nretraction_speed = 40\\nswitch_extruder_
;SETTING_3 retraction_amount = 10\\n\\n", "[general]\\nversion = 4\\nname = test
;SETTING_3 \\ndefinition = custom\\n\\n[metadata]\\ntype = quality_changes\\nqua
;SETTING_3 lity_type = high\\nintent_category = default\\nposition = 1\\nsetting
;SETTING_3 _version = 27\\n\\n[values]\\ncool_fan_enabled = True\\ncool_fan_spee
;SETTING_3 d = 100\\ncool_fan_speed_max = 100\\ncool_fan_speed_min = 100\\ninfil
;SETTING_3 l_angles = [90]\\ninfill_sparse_density = 100\\nline_width = 2\\nmate
;SETTING_3 rial_bed_temperature = 0\\nmaterial_bed_temperature_layer_0 = 0\\nmat
;SETTING_3 erial_diameter = 1.75\\nmaterial_flow = 100\\nmaterial_print_temperat
;SETTING_3 ure = 250\\nmaterial_print_temperature_layer_0 = 250\\nmaterial_type 
;SETTING_3 = ABS\\nretraction_amount = 15\\nretraction_enable = True\\nretractio
;SETTING_3 n_extra_prime_amount = 7.22\\nretraction_hop_enabled = False\\nretrac
;SETTING_3 tion_min_travel = 0\\nretraction_prime_speed = 15\\nretraction_retrac
;SETTING_3 t_speed = 40\\nretraction_speed = 40\\nswitch_extruder_retraction_amo
;SETTING_3 unt = 10\\n\\n"]}
