; generated by PrusaSlicer 2.9.4 on 2026-03-25 at 10:16:09 UTC

; 

; external perimeters extrusion width = 2.00mm
; perimeters extrusion width = 2.00mm
; infill extrusion width = 2.00mm
; solid infill extrusion width = 2.00mm
; top infill extrusion width = 2.00mm
; first layer extrusion width = 2.00mm

M104 S250 T1 ; set temperature
;TYPE:Custom
G28 ; home all axes
G1 Z5 F5000 ; lift nozzle
M109 S250 T1 ; set temperature and wait for it to be reached
G21 ; set units to millimeters
G90 ; use absolute coordinates
M82 ; use absolute distances for extrusion
G92 E0
T1
G92 E0
; Filament gcode
M107
;LAYER_CHANGE
;Z:0.5
;HEIGHT:0.5
G92 E0
G1 E-2 F2400
G92 E0
G1 Z.5 F600
G1 X194.597 Y195.635
G1 E2 F2400
;TYPE:Skirt/Brim
;WIDTH:2
G1 F600
G1 X196.36 Y194.083 E2.34843
G1 X198.54 Y193.209 E2.69684
G1 X200 Y193.054 E2.91464
G1 X300 Y193.054 E17.74911
G1 X302.315 Y193.451 E18.09754
G1 X304.365 Y194.597 E18.44594
G1 X305.917 Y196.36 E18.79437
G1 X306.791 Y198.54 E19.14278
G1 X306.946 Y200 E19.36058
G1 X306.946 Y300 E34.19505
G1 X306.549 Y302.315 E34.54348
G1 X305.403 Y304.365 E34.89188
G1 X303.64 Y305.917 E35.24031
G1 X301.46 Y306.791 E35.58872
G1 X300 Y306.946 E35.80652
G1 X200 Y306.946 E50.64099
G1 X197.685 Y306.549 E50.98942
G1 X195.635 Y305.403 E51.33782
G1 X194.083 Y303.64 E51.68625
G1 X193.209 Y301.46 E52.03466
G1 X193.054 Y300 E52.25246
G1 X193.054 Y200 E67.08693
G1 X193.451 Y197.685 E67.43536
G1 X194.45 Y195.897 E67.73919
G1 E65.73919 F2400
G92 E0
G1 X295.215 Y295.215 F600
G1 E2 F2400
G92 E0
;TYPE:Perimeter
;WIDTH:2
G1 F600
G1 X204.785 Y295.215 E13.41481
G1 X204.785 Y204.785 E26.82962
G1 X295.215 Y204.785 E40.24443
G1 X295.215 Y294.915 E53.61474
G1 E51.61474 F2400
G92 E0
G1 X297.107 Y297.107 F600
G1 E2 F2400
G1 F600
G1 X202.893 Y297.107 E15.97615
G1 X202.893 Y202.893 E29.9523
G1 X297.107 Y202.893 E43.92845
G1 X297.107 Y296.807 E57.86009
G1 E55.86009 F2400
G92 E0
G1 X299 Y299 F600
G1 E2 F2400
;TYPE:External perimeter
G1 F600
G1 X201 Y299 E16.53778
G1 X201 Y201 E31.07556
G1 X299 Y201 E45.61334
G1 X299 Y298.7 E60.10661
G1 X297.022 Y298.997
G1 E58.10661 F2400
G92 E0
G1 X294.647 Y209.231 F600
G1 E2 F2400
;TYPE:Solid infill
;WIDTH:2.02469
G1 F600
G1 X291.62 Y206.205 E2.64322
G1 X288.909 Y206.205 E3.05063
G1 X293.795 Y211.091 E4.08904
G1 X293.795 Y213.803 E4.4966
G1 X286.197 Y206.205 E6.11139
G1 X283.486 Y206.205 E6.5188
G1 X293.795 Y216.515 E8.70986
G1 X293.795 Y219.226 E9.11727
G1 X280.774 Y206.205 E11.8846
G1 X278.062 Y206.205 E12.29216
G1 X293.795 Y221.938 E15.63586
G1 X293.795 Y224.649 E16.04327
G1 X275.351 Y206.205 E19.96314
G1 X272.639 Y206.205 E20.3707
G1 X293.795 Y227.361 E24.86694
G1 X293.795 Y230.073 E25.2745
G1 X269.928 Y206.205 E30.34701
G1 X267.216 Y206.205 E30.75457
G1 X293.795 Y232.784 E36.40335
G1 X293.795 Y235.496 E36.81091
G1 X264.504 Y206.205 E43.03607
G1 X261.793 Y206.205 E43.44348
G1 X293.795 Y238.207 E50.2448
G1 X293.795 Y240.919 E50.65236
G1 X259.081 Y206.205 E58.03006
G1 X256.37 Y206.205 E58.43747
G1 X293.795 Y243.631 E66.39144
G1 X293.795 Y246.342 E66.79885
G1 X253.658 Y206.205 E75.32908
G1 X250.946 Y206.205 E75.73664
G1 X293.795 Y249.054 E84.84325
G1 X293.795 Y251.765 E85.25066
G1 X248.235 Y206.205 E94.93343
G1 X245.523 Y206.205 E95.34099
G1 X293.795 Y254.477 E105.60014
G1 X293.795 Y257.189 E106.0077
G1 X242.812 Y206.205 E116.84312
G1 X240.1 Y206.205 E117.25068
G1 X293.795 Y259.9 E128.66237
G1 X293.795 Y262.612 E129.06993
G1 X237.388 Y206.205 E141.05799
G1 X234.677 Y206.205 E141.4654
G1 X293.795 Y265.323 E154.02963
G1 X293.795 Y268.035 E154.43719
G1 X231.965 Y206.205 E167.57779
G1 X229.253 Y206.205 E167.98535
G1 X293.795 Y270.747 E181.70233
G1 X293.795 Y273.458 E182.10974
G1 X226.542 Y206.205 E196.40288
G1 X223.83 Y206.205 E196.81044
G1 X293.795 Y276.17 E211.67996
G1 X293.795 Y278.881 E212.08737
G1 X221.119 Y206.205 E227.53305
G1 X218.407 Y206.205 E227.94061
G1 X293.795 Y281.593 E243.96267
G1 X293.795 Y284.305 E244.37023
G1 X215.695 Y206.205 E260.96866
G1 X212.984 Y206.205 E261.37607
G1 X293.795 Y287.016 E278.55067
G1 X293.795 Y289.728 E278.95823
G1 X210.272 Y206.205 E296.7092
G1 X207.561 Y206.205 E297.11661
G1 X293.795 Y292.439 E315.44375
G1 X293.795 Y293.795 E315.64753
G1 X292.439 Y293.795 E315.85131
G1 X206.205 Y207.561 E334.17845
G1 X206.205 Y210.272 E334.58586
G1 X289.728 Y293.795 E352.33683
G1 X287.016 Y293.795 E352.74439
G1 X206.205 Y212.984 E369.91899
G1 X206.205 Y215.696 E370.32655
G1 X284.304 Y293.795 E386.92477
G1 X281.593 Y293.795 E387.33218
G1 X206.205 Y218.407 E403.35424
G1 X206.205 Y221.119 E403.7618
G1 X278.881 Y293.795 E419.20748
G1 X276.17 Y293.795 E419.61489
G1 X206.205 Y223.83 E434.48441
G1 X206.205 Y226.542 E434.89197
G1 X273.458 Y293.795 E449.18511
G1 X270.746 Y293.795 E449.59267
G1 X206.205 Y229.254 E463.30944
G1 X206.205 Y231.965 E463.71685
G1 X268.035 Y293.795 E476.85745
G1 X265.323 Y293.795 E477.26501
G1 X206.205 Y234.677 E489.82924
G1 X206.205 Y237.388 E490.23665
G1 X262.612 Y293.795 E502.22471
G1 X259.9 Y293.795 E502.63227
G1 X206.205 Y240.1 E514.04396
G1 X206.205 Y242.812 E514.45152
G1 X257.188 Y293.795 E525.28683
G1 X254.477 Y293.795 E525.69424
G1 X206.205 Y245.523 E535.95339
G1 X206.205 Y248.235 E536.36095
G1 X251.765 Y293.795 E546.04372
G1 X249.054 Y293.795 E546.45113
G1 X206.205 Y250.946 E555.55774
G1 X206.205 Y253.658 E555.9653
G1 X246.342 Y293.795 E564.49553
G1 X243.63 Y293.795 E564.90309
G1 X206.205 Y256.37 E572.85695
G1 X206.205 Y259.081 E573.26436
G1 X240.919 Y293.795 E580.64206
G1 X238.207 Y293.795 E581.04962
G1 X206.205 Y261.793 E587.85094
G1 X206.205 Y264.504 E588.25835
G1 X235.496 Y293.795 E594.48351
G1 X232.784 Y293.795 E594.89107
G1 X206.205 Y267.216 E600.53985
G1 X206.205 Y269.928 E600.94741
G1 X230.072 Y293.795 E606.01981
G1 X227.361 Y293.795 E606.42722
G1 X206.205 Y272.639 E610.92346
G1 X206.205 Y275.351 E611.33102
G1 X224.649 Y293.795 E615.25089
G1 X221.938 Y293.795 E615.6583
G1 X206.205 Y278.062 E619.002
G1 X206.205 Y280.774 E619.40956
G1 X219.226 Y293.795 E622.17689
G1 X216.514 Y293.795 E622.58445
G1 X206.205 Y283.486 E624.7754
G1 X206.205 Y286.197 E625.18281
G1 X213.803 Y293.795 E626.7976
G1 X211.091 Y293.795 E627.20516
G1 X206.205 Y288.909 E628.24357
G1 X206.205 Y291.62 E628.65098
G1 X209.231 Y294.647 E629.2942
;LAYER_CHANGE
;Z:1
;HEIGHT:0.5
G1 E627.2942 F2400
G92 E0
G1 Z1 F600
G1 X295.215 Y295.215
G1 E2 F2400
;TYPE:Perimeter
;WIDTH:2
G1 F600
G1 X204.785 Y295.215 E15.41481
G1 X204.785 Y204.785 E28.82962
G1 X295.215 Y204.785 E42.24443
G1 X295.215 Y294.915 E55.61474
G1 E53.61474 F2400
G92 E0
G1 X297.107 Y297.107 F600
G1 E2 F2400
G1 F600
G1 X202.893 Y297.107 E15.97615
G1 X202.893 Y202.893 E29.9523
G1 X297.107 Y202.893 E43.92845
G1 X297.107 Y296.807 E57.86009
G1 E55.86009 F2400
G92 E0
G1 X299 Y299 F600
G1 E2 F2400
;TYPE:External perimeter
G1 F600
G1 X201 Y299 E16.53778
G1 X201 Y201 E31.07556
G1 X299 Y201 E45.61334
G1 X299 Y298.7 E60.10661
G1 X297.022 Y298.997
G1 E58.10661 F2400
G92 E0
G1 X206.719 Y206.358 F600
G1 E2 F2400
;TYPE:Solid infill
;WIDTH:2.45924
G1 F600
G1 X206.511 Y206.151 E2.05409
G1 X206.227 Y206.227 E2.10828
G1 X206.151 Y206.511 E2.16247
G1 X206.358 Y206.719 E2.21656
G1 X206.642 Y206.642 E2.2708
;WIDTH:2
G1 X206.205 Y209.666 E2.72405
G1 X209.666 Y206.205 E3.45014
G1 X212.342 Y206.205 E3.84711
G1 X206.205 Y212.342 E5.1346
G1 X206.205 Y215.019 E5.53172
G1 X215.019 Y206.205 E7.38082
G1 X217.696 Y206.205 E7.77794
G1 X206.205 Y217.696 E10.18865
G1 X206.205 Y220.372 E10.58562
G1 X220.372 Y206.205 E13.55773
G1 X223.049 Y206.205 E13.95485
G1 X206.205 Y223.049 E17.48857
G1 X206.205 Y225.726 E17.88569
G1 X225.726 Y206.205 E21.98102
G1 X228.402 Y206.205 E22.37799
G1 X206.205 Y228.402 E27.03472
G1 X206.205 Y231.079 E27.43184
G1 X231.079 Y206.205 E32.65018
G1 X233.756 Y206.205 E33.0473
G1 X206.205 Y233.756 E38.82725
G1 X206.205 Y236.432 E39.22422
G1 X236.432 Y206.205 E45.56557
G1 X239.109 Y206.205 E45.96269
G1 X206.205 Y239.109 E52.86565
G1 X206.205 Y241.786 E53.26277
G1 X241.786 Y206.205 E60.72735
G1 X244.462 Y206.205 E61.12432
G1 X206.205 Y244.462 E69.1503
G1 X206.205 Y247.139 E69.54742
G1 X247.139 Y206.205 E78.13501
G1 X249.816 Y206.205 E78.53213
G1 X206.205 Y249.816 E87.68133
G1 X206.205 Y252.492 E88.0783
G1 X252.492 Y206.205 E97.7889
G1 X255.169 Y206.205 E98.18602
G1 X206.205 Y255.169 E108.45823
G1 X206.205 Y257.846 E108.85535
G1 X257.846 Y206.205 E119.68917
G1 X260.523 Y206.205 E120.08629
G1 X206.205 Y260.523 E131.48172
G1 X206.205 Y263.199 E131.87869
G1 X263.199 Y206.205 E143.83552
G1 X265.876 Y206.205 E144.23264
G1 X206.205 Y265.876 E156.75108
G1 X206.205 Y268.553 E157.1482
G1 X268.553 Y206.205 E170.22825
G1 X271.229 Y206.205 E170.62522
G1 X206.205 Y271.229 E184.26667
G1 X206.205 Y273.906 E184.66379
G1 X273.906 Y206.205 E198.86685
G1 X276.583 Y206.205 E199.26397
G1 X206.205 Y276.583 E214.02864
G1 X206.205 Y279.259 E214.42561
G1 X279.259 Y206.205 E229.75169
G1 X281.936 Y206.205 E230.14881
G1 X206.205 Y281.936 E246.0365
G1 X206.205 Y284.613 E246.43362
G1 X284.613 Y206.205 E262.88292
G1 X287.289 Y206.205 E263.27989
G1 X206.205 Y287.289 E280.29059
G1 X206.205 Y289.966 E280.68771
G1 X289.966 Y206.205 E298.26002
G1 E296.26002 F2400
G92 E0
G1 X294.402 Y205.748 F600
G1 E2 F2400
;WIDTH:1.8073
G1 F600
G1 X294.252 Y205.598 E2.02826
G1 X294.047 Y205.653 E2.05654
G1 X293.992 Y205.858 E2.08482
G1 X294.142 Y206.008 E2.11308
G1 X294.347 Y205.953 E2.14136
;WIDTH:1.85548
G1 X293.921 Y206.016 E2.20036
;WIDTH:1.90365
G1 X293.495 Y206.079 E2.26099
;WIDTH:1.95183
G1 X293.069 Y206.142 E2.32325
;WIDTH:2
G1 X292.643 Y206.205 E2.38713
G1 X206.205 Y292.643 E20.52105
G1 X206.142 Y293.069 E20.58493
;WIDTH:1.95183
G1 X206.079 Y293.495 E20.64719
;WIDTH:1.90365
G1 X206.016 Y293.921 E20.70782
;WIDTH:1.85548
G1 X205.953 Y294.347 E20.76682
;WIDTH:1.8073
G1 X205.748 Y294.402 E20.7951
G1 X205.598 Y294.252 E20.82336
G1 X205.653 Y294.047 E20.85164
G1 X205.858 Y293.992 E20.87992
G1 X206.008 Y294.142 E20.90818
;WIDTH:2
G1 X207.729 Y293.795 E21.16862
G1 X293.795 Y207.729 E39.2245
G1 X293.795 Y210.406 E39.62162
G1 X210.406 Y293.795 E57.11589
G1 X213.083 Y293.795 E57.51301
G1 X293.795 Y213.083 E74.44567
G1 X293.795 Y215.759 E74.84264
G1 X215.759 Y293.795 E91.21389
G1 X218.436 Y293.795 E91.61101
G1 X293.795 Y218.436 E107.42065
G1 X293.795 Y221.113 E107.81777
G1 X221.113 Y293.795 E123.0658
G1 X223.789 Y293.795 E123.46277
G1 X293.795 Y223.789 E138.1494
G1 X293.795 Y226.466 E138.54652
G1 X226.466 Y293.795 E152.67154
G1 X229.143 Y293.795 E153.06866
G1 X293.795 Y229.143 E166.63207
G1 X293.795 Y231.819 E167.02904
G1 X231.819 Y293.795 E180.03105
G1 X234.496 Y293.795 E180.42817
G1 X293.795 Y234.496 E192.86857
G1 X293.795 Y237.173 E193.26569
G1 X237.173 Y293.795 E205.14448
G1 X239.849 Y293.795 E205.54145
G1 X293.795 Y239.849 E216.85884
G1 X293.795 Y242.526 E217.25596
G1 X242.526 Y293.795 E228.01174
G1 X245.203 Y293.795 E228.40886
G1 X293.795 Y245.203 E238.60303
G1 X293.795 Y247.879 E239
G1 X247.879 Y293.795 E248.63277
G1 X250.556 Y293.795 E249.02989
G1 X293.795 Y250.556 E258.10105
G1 X293.795 Y253.233 E258.49817
G1 X253.233 Y293.795 E267.00771
G1 X255.909 Y293.795 E267.40468
G1 X293.795 Y255.909 E275.35282
G1 X293.795 Y258.586 E275.74994
G1 X258.586 Y293.795 E283.13647
G1 X261.263 Y293.795 E283.53359
G1 X293.795 Y261.263 E290.35851
G1 X293.795 Y263.94 E290.75563
G1 X263.939 Y293.795 E297.01905
G1 X266.616 Y293.795 E297.41617
G1 X293.795 Y266.616 E303.11808
G1 X293.795 Y269.293 E303.5152
G1 X269.293 Y293.795 E308.6555
G1 X271.97 Y293.795 E309.05262
G1 X293.795 Y271.97 E313.63131
G1 X293.795 Y274.646 E314.02828
G1 X274.646 Y293.795 E318.04557
G1 X277.323 Y293.795 E318.44269
G1 X293.795 Y277.323 E321.89837
G1 X293.795 Y280 E322.29549
G1 X280 Y293.795 E325.18956
G1 X282.676 Y293.795 E325.58653
G1 X293.795 Y282.676 E327.9192
G1 X293.795 Y285.353 E328.31632
G1 X285.353 Y293.795 E330.08738
G1 X288.03 Y293.795 E330.4845
G1 X293.795 Y288.03 E331.69395
G1 X294.808 Y289.925 E332.01271
;WIDTH:1.8073
G1 X294.658 Y289.774 E332.04107
G1 X294.453 Y289.829 E332.06935
G1 X294.398 Y290.035 E332.09776
G1 X294.548 Y290.185 E332.12602
G1 X294.753 Y290.13 E332.1543
;WIDTH:1.85548
G1 X294.514 Y290.274 E332.19253
;WIDTH:1.90365
G1 X294.274 Y290.418 E332.23194
;WIDTH:1.95183
G1 X294.035 Y290.562 E332.27228
;WIDTH:2
G1 X293.795 Y290.706 E332.3138
G1 X290.706 Y293.795 E332.96184
G1 X290.562 Y294.035 E333.00336
;WIDTH:1.95183
G1 X290.418 Y294.274 E333.0437
;WIDTH:1.90365
G1 X290.274 Y294.514 E333.08311
;WIDTH:1.85548
G1 X290.13 Y294.753 E333.12134
;WIDTH:1.8073
G1 X289.925 Y294.808 E333.14962
G1 X289.774 Y294.658 E333.17798
G1 X289.829 Y294.453 E333.20626
G1 X290.035 Y294.398 E333.23467
G1 X290.185 Y294.548 E333.26293
;WIDTH:2
G1 X293.863 Y293.863 E333.81792
;WIDTH:2.24139
G1 X293.605 Y293.932 E333.86259
G1 X293.417 Y293.743 E333.90718
G1 X293.486 Y293.486 E333.95169
G1 X293.743 Y293.417 E333.9962
G1 X293.932 Y293.605 E334.04079
;LAYER_CHANGE
;Z:1.5
;HEIGHT:0.5
G1 E332.04079 F2400
G92 E0
G1 Z1.5 F600
G1 X295.215 Y295.215
G1 E2 F2400
;TYPE:Perimeter
;WIDTH:2
G1 F600
G1 X204.785 Y295.215 E15.41481
G1 X204.785 Y204.785 E28.82962
G1 X295.215 Y204.785 E42.24443
G1 X295.215 Y294.915 E55.61474
G1 E53.61474 F2400
G92 E0
G1 X297.107 Y297.107 F600
G1 E2 F2400
G1 F600
G1 X202.893 Y297.107 E15.97615
G1 X202.893 Y202.893 E29.9523
G1 X297.107 Y202.893 E43.92845
G1 X297.107 Y296.807 E57.86009
G1 E55.86009 F2400
G92 E0
G1 X299 Y299 F600
G1 E2 F2400
;TYPE:External perimeter
G1 F600
G1 X201 Y299 E16.53778
G1 X201 Y201 E31.07556
G1 X299 Y201 E45.61334
G1 X299 Y298.7 E60.10661
G1 X297.022 Y298.997
G1 E58.10661 F2400
G92 E0
G1 X206.358 Y293.281 F600
G1 E2 F2400
;TYPE:Solid infill
;WIDTH:2.45924
G1 F600
G1 X206.151 Y293.489 E2.05409
G1 X206.227 Y293.773 E2.10828
G1 X206.511 Y293.849 E2.16247
G1 X206.719 Y293.642 E2.21656
G1 X206.642 Y293.358 E2.2708
;WIDTH:2
G1 X209.666 Y293.795 E2.72405
G1 X206.205 Y290.334 E3.45014
G1 X206.205 Y287.658 E3.84711
G1 X212.342 Y293.795 E5.1346
G1 X215.019 Y293.795 E5.53172
G1 X206.205 Y284.981 E7.38082
G1 X206.205 Y282.304 E7.77794
G1 X217.696 Y293.795 E10.18865
G1 X220.372 Y293.795 E10.58562
G1 X206.205 Y279.628 E13.55773
G1 X206.205 Y276.951 E13.95485
G1 X223.049 Y293.795 E17.48857
G1 X225.726 Y293.795 E17.88569
G1 X206.205 Y274.274 E21.98102
G1 X206.205 Y271.598 E22.37799
G1 X228.402 Y293.795 E27.03472
G1 X231.079 Y293.795 E27.43184
G1 X206.205 Y268.921 E32.65018
G1 X206.205 Y266.244 E33.0473
G1 X233.756 Y293.795 E38.82725
G1 X236.432 Y293.795 E39.22422
G1 X206.205 Y263.568 E45.56557
G1 X206.205 Y260.891 E45.96269
G1 X239.109 Y293.795 E52.86565
G1 X241.786 Y293.795 E53.26277
G1 X206.205 Y258.214 E60.72735
G1 X206.205 Y255.538 E61.12432
G1 X244.462 Y293.795 E69.1503
G1 X247.139 Y293.795 E69.54742
G1 X206.205 Y252.861 E78.13501
G1 X206.205 Y250.184 E78.53213
G1 X249.816 Y293.795 E87.68133
G1 X252.492 Y293.795 E88.0783
G1 X206.205 Y247.508 E97.7889
G1 X206.205 Y244.831 E98.18602
G1 X255.169 Y293.795 E108.45823
G1 X257.846 Y293.795 E108.85535
G1 X206.205 Y242.154 E119.68917
G1 X206.205 Y239.477 E120.08629
G1 X260.523 Y293.795 E131.48172
G1 X263.199 Y293.795 E131.87869
G1 X206.205 Y236.801 E143.83552
G1 X206.205 Y234.124 E144.23264
G1 X265.876 Y293.795 E156.75108
G1 X268.553 Y293.795 E157.1482
G1 X206.205 Y231.447 E170.22825
G1 X206.205 Y228.771 E170.62522
G1 X271.229 Y293.795 E184.26667
G1 X273.906 Y293.795 E184.66379
G1 X206.205 Y226.094 E198.86685
G1 X206.205 Y223.417 E199.26397
G1 X276.583 Y293.795 E214.02864
G1 X279.259 Y293.795 E214.42561
G1 X206.205 Y220.741 E229.75169
G1 X206.205 Y218.064 E230.14881
G1 X281.936 Y293.795 E246.0365
G1 X284.613 Y293.795 E246.43362
G1 X206.205 Y215.387 E262.88292
G1 X206.205 Y212.711 E263.27989
G1 X287.289 Y293.795 E280.29059
G1 X289.966 Y293.795 E280.68771
G1 X206.205 Y210.034 E298.26002
G1 X206.205 Y207.357 E298.65714
G1 X292.643 Y293.795 E316.79106
G1 X293.069 Y293.858 E316.85494
;WIDTH:1.95183
G1 X293.495 Y293.921 E316.9172
;WIDTH:1.90365
G1 X293.921 Y293.984 E316.97783
;WIDTH:1.85548
G1 X294.347 Y294.047 E317.03683
;WIDTH:1.8073
G1 X294.402 Y294.252 E317.06511
G1 X294.252 Y294.402 E317.09337
G1 X294.047 Y294.347 E317.12165
