;FLAVOR:Marlin
;TIME:8124
;Filament used: 0m, 28.0103m
;Layer height: 0.5
;MINX:11.045
;MINY:11.079
;MINZ:0.5
;MAXX:148.955
;MAXY:148.907
;MAXZ:12
;TARGET_MACHINE.NAME:Unknown
;Generated with Cura_SteamEngine 5.13.0
T1
M104 S250
M105
M109 S250
G21 ; set units to millimeters
G90 ; use absolute coordinates
G28 ; home all axes
G1 Z5 F5000 ; lift nozzle
M106 S255 ; fan on full
M82 ;absolute extrusion mode
G92 E0
G92 E0
G1 F2400 E-15
;LAYER_COUNT:20
;LAYER:-4
M106 S255
G0 F600 X31.895 Y30.626 Z0.5
;TYPE:SUPPORT-INTERFACE
G1 F900 E3.00173
G1 F600 X33.118 Y29.353 E3.73565
G1 X34.005 Y28.49 E4.25017
G1 X34.868 Y27.745 E4.72416
G1 X35.458 Y27.281 E5.03622
G1 X41.816 Y22.502 E8.34303
G1 X42.822 Y21.797 E8.85375
G1 X43.85 Y21.165 E9.35545
G1 X44.284 Y20.918 E9.56307
G1 X52.105 Y16.818 E13.23437
G1 X52.412 Y16.712 E13.3694
G1 X52.566 Y16.625 E13.44293
G1 X52.576 Y16.605 E13.45223
G1 X52.836 Y16.481 E13.57199
G1 X52.845 Y16.488 E13.57673
G1 X53.722 Y16.131 E13.9704
G1 X54.378 Y15.898 E14.25982
G1 X61.962 Y13.366 E17.58397
G1 X63.121 Y13.02 E18.08684
G1 X64.398 Y12.724 E18.63183
G1 X65.227 Y12.576 E18.98194
G1 X72.674 Y11.362 E22.11891
G1 X74.026 Y11.184 E22.68586
G1 X75.473 Y11.079 E23.28903
G1 X75.483 Y11.088 E23.29462
G1 X76.04 Y11.08 E23.52622
G1 X84.065 Y11.08 E26.86263
G1 X85.125 Y11.111 E27.30351
G1 X86.481 Y11.242 E27.8699
G1 X87.037 Y11.321 E28.10338
G1 X94.659 Y12.56 E31.31383
G1 X94.859 Y12.585 E31.39763
G1 X96.186 Y12.843 E31.95966
G1 X97.695 Y13.256 E32.6101
G1 X105.73 Y15.941 E36.13225
G1 X106.308 Y16.151 E36.38792
G1 X106.913 Y16.391 E36.65852
G1 X107.77 Y16.77 E37.0481
G1 X108.488 Y17.127 E37.38148
G1 X115.576 Y20.85 E40.7101
G1 X116.559 Y21.407 E41.17983
G1 X117.688 Y22.145 E41.7406
G1 X118.17 Y22.493 E41.98777
G1 X124.585 Y27.313 E45.32376
G1 X125.469 Y28.028 E45.79645
G1 X126.403 Y28.874 E46.32038
G1 X132.492 Y35.202 E49.97141
G1 X133.204 Y35.991 E50.41326
G1 X133.957 Y36.939 E50.91659
G1 X134.386 Y37.536 E51.22224
G1 X138.978 Y44.193 E54.58449
G1 X139.641 Y45.233 E55.09726
G1 X140.167 Y46.176 E55.54618
G1 X140.485 Y46.811 E55.84143
G1 X143.886 Y53.975 E59.13847
G1 X144.464 Y55.299 E59.73909
G1 X144.456 Y55.311 E59.74509
G1 X144.776 Y56.188 E60.13322
G1 X145.001 Y56.915 E60.44961
G1 X147.323 Y64.968 E63.93406
G1 X147.512 Y65.703 E64.24958
G1 X147.734 Y66.826 E64.7255
G1 X147.837 Y67.489 E65.00445
G1 X148.821 Y75.66 E68.4261
G1 X148.937 Y76.985 E68.97908
G1 X148.955 Y78.051 E69.42234
G1 X148.94 Y78.696 E69.69057
G1 X148.633 Y86.505 E72.93968
G1 X148.543 Y87.791 E73.47565
G1 X148.508 Y88.1 E73.60493
G1 X148.38 Y89.01 E73.98699
G1 X148.245 Y89.759 E74.30341
G1 X146.72 Y97.24 E77.47761
G1 X146.687 Y97.437 E77.56066
G1 X146.334 Y98.888 E78.18151
G1 X146.038 Y99.865 E78.60593
G1 X145.765 Y100.626 E78.94206
G1 X142.918 Y108.139 E82.28235
G1 X142.516 Y109.106 E82.71774
G1 X141.901 Y110.353 E83.2958
G1 X141.612 Y110.877 E83.54459
G1 X137.676 Y117.704 E86.82086
G1 X137.653 Y117.713 E86.83113
G1 X137.558 Y117.892 E86.91538
G1 X136.928 Y118.895 E87.40782
G1 X136.267 Y119.824 E87.88184
G1 X135.859 Y120.342 E88.15598
G1 X130.746 Y126.604 E91.51703
G1 X130.001 Y127.464 E91.99008
G1 X129.216 Y128.257 E92.45399
G1 X128.636 Y128.794 E92.78261
G1 X122.695 Y134.058 E96.08267
G1 X121.817 Y134.793 E96.55872
G1 X120.811 Y135.535 E97.07843
G1 X120.137 Y135.979 E97.41398
G1 X113.383 Y140.25 E100.7363
G1 X112.426 Y140.812 E101.19771
G1 X111.952 Y141.077 E101.42348
G1 X111.94 Y141.069 E101.42948
G1 X111.277 Y141.405 E101.7385
G1 X110.835 Y141.603 E101.93985
G1 X103.312 Y144.81 E105.33989
G1 X102.199 Y145.248 E105.83716
G1 X101.86 Y145.364 E105.98613
G1 X101.851 Y145.357 E105.99087
G1 X101.076 Y145.604 E106.32904
G1 X100.357 Y145.799 E106.63877
G1 X92.605 Y147.708 E109.95796
G1 X91.378 Y147.967 E110.47933
G1 X90.241 Y148.136 E110.95723
G1 X86.263 Y148.62 E112.62329
G1 X84.652 Y148.749 E113.29521
G1 X80.769 Y148.9 E114.91079
G1 X79.516 Y148.907 E115.43174
G1 X78.415 Y148.85 E115.89009
G1 X70.394 Y148.204 E119.23563
G1 X69.161 Y148.06 E119.75174
G1 X67.983 Y147.844 E120.24966
G1 X67.43 Y147.715 E120.48574
G1 X59.594 Y145.784 E123.84103
G1 X58.574 Y145.5 E124.28123
G1 X57.338 Y145.074 E124.82476
G1 X56.675 Y144.808 E125.12177
G1 X49.649 Y141.812 E128.29732
G1 X49.638 Y141.819 E128.30274
G1 X48.339 Y141.216 E128.89816
G1 X47.17 Y140.591 E129.44927
G1 X46.581 Y140.23 E129.73648
G1 X39.857 Y135.983 E133.04293
G1 X38.841 Y135.291 E133.554
G1 X37.793 Y134.476 E134.10596
G1 X37.289 Y134.045 E134.38167
G1 X31.332 Y128.77 E137.68974
G1 X30.546 Y128.026 E138.1397
G1 X29.573 Y126.985 E138.73211
G1 X29.198 Y126.54 E138.97406
G1 X24.039 Y120.222 E142.36523
G1 X23.385 Y119.353 E142.81741
G1 X22.689 Y118.308 E143.33941
G1 X22.354 Y117.751 E143.60964
G1 X18.223 Y110.595 E147.0449
G1 X18.229 Y110.585 E147.04975
G1 X17.851 Y109.891 E147.37831
G1 X17.398 Y108.909 E147.82792
G1 X17.18 Y108.401 E148.05775
G1 X14.196 Y100.534 E151.55585
G1 X13.759 Y99.258 E152.11659
G1 X13.767 Y99.248 E152.12192
G1 X13.507 Y98.302 E152.5298
G1 X13.335 Y97.52 E152.86269
G1 X11.755 Y89.769 E156.15145
G1 X11.563 Y88.674 E156.61365
G1 X11.391 Y87.067 E157.28558
G1 X11.4 Y87.058 E157.29087
G1 X11.056 Y78.678 E160.7778
G1 X11.045 Y77.595 E161.22808
G1 X11.11 Y76.306 E161.76467
G1 X11.187 Y75.538 E162.08557
G1 X12.127 Y67.755 E165.34488
G1 X12.356 Y66.314 E165.95149
G1 X12.572 Y65.331 E166.36993
G1 X12.803 Y64.474 E166.73894
G1 X15.04 Y56.774 E170.07259
G1 X15.409 Y55.661 E170.56009
G1 X15.813 Y54.633 E171.0193
G1 X16.098 Y54.012 E171.30338
G1 X19.513 Y46.817 E174.61455
G1 X20.143 Y45.599 E175.18467
G1 X20.678 Y44.703 E175.61853
G1 X21.068 Y44.118 E175.91084
G1 X25.67 Y37.454 E179.27785
G1 X26.314 Y36.584 E179.72787
G1 X27.194 Y35.535 E180.29713
G1 X27.539 Y35.163 E180.50806
G1 X31.895 Y30.626 E183.12297
G1 F2400 E168.12297
G0 F600 X39.74 Y25.314
G1 F900 E186.1247
G1 F600 X25.293 Y39.761 E194.61898
G1 F2400 E179.61898
G0 F600 X20.218 Y47.665
G1 F900 E197.62071
G1 F600 X47.544 Y20.338 E213.68765
G1 F2400 E198.68765
G0 F600 X53.345 Y17.366
G1 F900 E216.68937
G1 F600 X17.662 Y53.049 E237.66961
G1 F2400 E222.66961
G0 F600 X15.801 Y57.738
G1 F900 E240.67134
G1 F600 X57.694 Y15.846 E265.30252
G1 F2400 E250.30252
G0 F600 X61.94 Y14.428
G1 F900 E268.30425
G1 F600 X14.643 Y61.724 E296.11278
G1 F2400 E281.11278
G0 F600 X13.521 Y65.675
G1 F900 E299.1145
G1 F600 X65.68 Y13.516 E329.782
G1 F2400 E314.782
G0 F600 X69.06 Y12.964
G1 F900 E332.78372
G1 F600 X12.978 Y69.046 E365.75779
G1 F2400 E350.75779
G0 F600 X12.59 Y72.263
G1 F900 E368.75952
G1 F600 X72.44 Y12.413 E403.94902
G1 F2400 E388.94902
G0 F600 X75.595 Y12.087
G1 F900 E406.95075
G1 F600 X12.201 Y75.48 E444.2237
G1 F2400 E429.2237
G0 F600 X12.055 Y78.455
G1 F900 E447.22543
G1 F600 X78.429 Y12.08 E486.25109
G1 F2400 E471.25109
G0 F600 X81.258 Y12.08
G1 F900 E489.25282
G1 F600 X12.16 Y81.178 E529.87979
G1 F2400 E514.87979
G0 F600 X12.271 Y83.895
G1 F900 E532.88152
G1 F600 X84.086 Y12.081 E575.10569
G1 F2400 E560.10569
G0 F600 X86.71 Y12.285
G1 F900 E578.10742
G1 F600 X12.383 Y86.612 E621.80885
G1 F2400 E606.80885
G0 F600 X12.664 Y89.16
G1 F900 E624.81058
G1 F600 X89.146 Y12.677 E669.77935
G1 F2400 E654.77935
G0 F600 X91.58 Y13.072
G1 F900 E672.78108
G1 F600 X13.133 Y91.519 E718.90491
G1 F2400 E703.90491
G0 F600 X13.612 Y93.868
G1 F900 E721.90664
G1 F600 X94.013 Y13.468 E769.17905
G1 F2400 E754.17905
G0 F600 X96.377 Y13.931
G1 F900 E772.18078
G1 F600 X14.091 Y96.218 E820.56209
G1 F2400 E805.56209
G0 F600 X14.605 Y98.533
G1 F900 E823.56381
G1 F600 X98.544 Y14.593 E872.91702
G1 F2400 E857.91702
G0 F600 X100.664 Y15.302
G1 F900 E875.91875
G1 F600 X15.312 Y100.654 E926.10246
G1 F2400 E911.10246
G0 F600 X16.09 Y102.704
G1 F900 E929.10418
G1 F600 X102.784 Y16.01 E980.07693
G1 F2400 E965.07693
G0 F600 X104.904 Y16.719
G1 F900 E983.07866
G1 F600 X16.867 Y104.755 E1034.84075
G1 F2400 E1019.84075
G0 F600 X17.645 Y106.806
G1 F900 E1037.84247
G1 F600 X106.95 Y17.501 E1090.35039
G1 F2400 E1075.35039
G0 F600 X108.839 Y18.44
G1 F900 E1093.35212
G1 F600 X18.459 Y108.82 E1146.4921
G1 F2400 E1131.4921
G0 F600 X19.427 Y110.681
G1 F900 E1149.49382
G1 F600 X110.693 Y19.414 E1203.15503
G1 F2400 E1188.15503
G0 F600 X112.548 Y20.388
G1 F900 E1206.15675
G1 F600 X20.462 Y112.474 E1260.29979
G1 F2400 E1245.29979
G0 F600 X21.497 Y114.267
G1 F900 E1263.30152
G1 F600 X114.402 Y21.362 E1317.9261
G1 F2400 E1302.9261
G0 F600 X116.216 Y22.377
G1 F900 E1320.92783
G1 F600 X22.533 Y116.06 E1376.00984
G1 F2400 E1361.00984
G0 F600 X23.58 Y117.841
G1 F900 E1379.01157
G1 F600 X117.889 Y23.533 E1434.46135
G1 F2400 E1419.46135
G0 F600 X119.504 Y24.746
G1 F900 E1437.46308
G1 F600 X24.749 Y119.501 E1493.17539
G1 F2400 E1478.17539
G0 F600 X26.017 Y121.062
G1 F900 E1496.17711
G1 F600 X121.119 Y25.959 E1552.09374
G1 F2400 E1537.09374
G0 F600 X122.734 Y27.173
G1 F900 E1555.09547
G1 F600 X27.288 Y122.619 E1611.21406
G1 F2400 E1596.21406
G0 F600 X28.559 Y124.176
G1 F900 E1614.21578
G1 F600 X124.337 Y28.398 E1670.52958
G1 F2400 E1655.52958
G0 F600 X125.836 Y29.727
G1 F900 E1673.5313
G1 F600 X29.831 Y125.732 E1729.97857
G1 F2400 E1714.97857
G0 F600 X31.166 Y127.225
G1 F900 E1732.98029
G1 F600 X127.223 Y31.169 E1789.45783
G1 F2400 E1774.45783
G0 F600 X128.61 Y32.61
G1 F900 E1792.45956
G1 F600 X32.633 Y128.587 E1848.89036
G1 F2400 E1833.89036
G0 F600 X34.133 Y129.915
G1 F900 E1851.89209
G1 F600 X129.997 Y34.052 E1908.25615
G1 F2400 E1893.25615
G0 F600 X131.384 Y35.493
G1 F900 E1911.25788
G1 F600 X35.633 Y131.244 E1967.5558
G1 F2400 E1952.5558
G0 F600 X37.134 Y132.572
G1 F900 E1970.55752
G1 F600 X132.718 Y36.987 E2026.75755
G1 F2400 E2011.75755
G0 F600 X133.917 Y38.617
G1 F900 E2029.75927
G1 F600 X38.655 Y133.879 E2085.76968
G1 F2400 E2070.76968
G0 F600 X40.292 Y135.07
G1 F900 E2088.7714
G1 F600 X135.071 Y40.292 E2144.49753
G1 F2400 E2129.49753
G0 F600 X136.226 Y41.965
G1 F900 E2147.49926
G1 F600 X42.023 Y136.168 E2202.88701
G1 F2400 E2187.88701
G0 F600 X43.756 Y137.264
G1 F900 E2205.88874
G1 F600 X137.38 Y43.639 E2260.93636
G1 F2400 E2245.93636
G0 F600 X138.517 Y45.331
G1 F900 E2263.93808
G1 F600 X45.49 Y138.358 E2318.63439
G1 F2400 E2303.63439
G0 F600 X47.224 Y139.452
G1 F900 E2321.63612
G1 F600 X139.533 Y47.144 E2375.90998
G1 F2400 E2360.90998
G0 F600 X140.445 Y49.06
G1 F900 E2378.91171
G1 F600 X49.057 Y140.448 E2432.64435
G1 F2400 E2417.64435
G0 F600 X51.023 Y141.31
G1 F900 E2435.64608
G1 F600 X141.356 Y50.977 E2488.75842
G1 F2400 E2473.75842
G0 F600 X142.266 Y52.895
G1 F900 E2491.76015
G1 F600 X53.005 Y142.156 E2544.24219
G1 F2400 E2529.24219
G0 F600 X54.988 Y143.002
G1 F900 E2547.24392
G1 F600 X143.166 Y54.824 E2599.08921
G1 F2400 E2584.08921
G0 F600 X143.942 Y56.876
G1 F900 E2602.09093
G1 F600 X56.972 Y143.847 E2653.22625
G1 F2400 E2638.22625
G0 F600 X59.051 Y144.596
G1 F900 E2656.22798
G1 F600 X144.58 Y59.067 E2706.51576
G1 F2400 E2691.51576
G0 F600 X145.213 Y61.262
G1 F900 E2709.51748
G1 F600 X61.301 Y145.174 E2758.85452
G1 F2400 E2743.85452
G0 F600 X63.572 Y145.732
G1 F900 E2761.85625
G1 F600 X145.846 Y63.458 E2810.23021
G1 F2400 E2795.23021
G0 F600 X146.469 Y65.663
G1 F900 E2813.23194
G1 F600 X65.843 Y146.289 E2860.63693
G1 F2400 E2845.63693
G0 F600 X68.113 Y146.847
G1 F900 E2863.63866
G1 F600 X146.899 Y68.062 E2909.96152
G1 F2400 E2894.96152
G0 F600 X147.203 Y70.586
G1 F900 E2912.96324
G1 F600 X70.573 Y147.216 E2958.01875
G1 F2400 E2943.01875
G0 F600 X73.191 Y147.427
G1 F900 E2961.02047
G1 F600 X147.507 Y73.111 E3004.71543
G1 F2400 E2989.71543
G0 F600 X147.811 Y75.635
G1 F900 E3007.71716
G1 F600 X75.808 Y147.638 E3050.05217
G1 F2400 E3035.05217
G0 F600 X78.426 Y147.848
G1 F900 E3053.05389
G1 F600 X147.948 Y78.326 E3093.93016
G1 F2400 E3078.93016
G0 F600 X147.838 Y81.265
G1 F900 E3096.93189
G1 F600 X81.22 Y147.882 E3136.10043
G1 F2400 E3121.10043
G0 F600 X84.163 Y147.768
G1 F900 E3139.10216
G1 F600 X147.722 Y84.209 E3176.47241
G1 F2400 E3161.47241
G0 F600 X147.583 Y87.176
G1 F900 E3179.47414
G1 F600 X87.269 Y147.49 E3214.93646
G1 F2400 E3199.93646
G0 F600 X90.502 Y147.086
G1 F900 E3217.93819
G1 F600 X147.069 Y90.519 E3251.19741
G1 F2400 E3236.19741
G0 F600 X146.345 Y94.071
G1 F900 E3254.19914
G1 F600 X94.108 Y146.308 E3284.9125
G1 F2400 E3269.9125
G0 F600 X97.86 Y145.385
G1 F900 E3287.91422
G1 F600 X145.609 Y97.636 E3315.98881
G1 F2400 E3300.98881
G0 F600 X144.237 Y101.836
G1 F900 E3318.99053
G1 F600 X101.717 Y144.356 E3343.99066
G1 F2400 E3328.99066
G0 F600 X106.565 Y142.336
G1 F900 E3346.99239
G1 F600 X142.511 Y106.391 E3368.12697
G1 F2400 E3353.12697
G0 F600 X139.92 Y111.81
G1 F900 E3371.12869
G1 F600 X111.603 Y140.127 E3387.778
G1 F2400 E3372.778
G0 F600 X119.118 Y135.441
G1 F900 E3390.77973
G1 F600 X135.793 Y118.765 E3400.58429
G1 F2400 E3385.58429
G0 F600 Z1
G0 X127.889 Y42.202
;TIME_ELAPSED:911.558553
;LAYER:-3
;TYPE:SUPPORT
G1 F900 E3403.58601
G1 F600 X127.877 Y42.213 E3403.59278
G1 X126.514 Y40.52 E3404.49641
G1 X121.007 Y34.795 E3407.79902
G1 X120.39 Y34.212 E3408.15194
G1 X119.7 Y33.65 E3408.52193
G1 X114.883 Y30.03 E3411.02708
G1 X129.747 Y44.894 E3419.76654
G1 X132.341 Y48.654 E3421.66569
G1 X132.833 Y49.435 E3422.04945
G1 X133.25 Y50.229 E3422.42231
G1 X134.15 Y52.126 E3423.29525
G1 X107.856 Y25.831 E3438.75541
G1 X106.496 Y25.116 E3439.39421
G1 X106.452 Y25.204 E3439.43512
G1 X104.66 Y24.158 E3440.29778
G1 X103.956 Y23.827 E3440.6212
G1 X103.106 Y23.496 E3441.00044
G1 X102.485 Y23.289 E3441.27259
G1 X136.7 Y57.504 E3461.3897
G1 X137.011 Y58.234 E3461.71959
G1 X137.323 Y59.154 E3462.12348
G1 X138.058 Y61.691 E3463.22161
G1 X98.238 Y21.871 E3486.63425
G1 X95.501 Y20.957 E3487.83393
G1 X94.602 Y20.697 E3488.22301
G1 X94.142 Y20.603 E3488.41821
G1 X139.212 Y65.673 E3514.91764
G1 X139.556 Y66.863 E3515.43264
G1 X139.775 Y67.774 E3515.82218
G1 X139.918 Y68.659 E3516.19489
G1 X139.994 Y69.284 E3516.45665
G1 X90.739 Y20.029 E3545.41671
G1 X87.363 Y19.481 E3546.83865
G1 X140.385 Y72.502 E3578.01326
G1 X140.775 Y75.721 E3579.36136
G1 X84.14 Y19.086 E3612.66057
G1 X81.308 Y19.083 E3613.83797
G1 X140.934 Y78.709 E3648.89578
G1 X140.825 Y81.428 E3650.02711
G1 X78.479 Y19.082 E3686.68417
G1 X77.934 Y19.081 E3686.91076
G1 X77.934 Y19.194 E3686.95774
G1 X75.875 Y19.086 E3687.81495
G1 X75.664 Y19.095 E3687.90275
G1 X140.715 Y84.146 E3726.15025
G1 X140.624 Y86.381 E3727.08022
G1 X140.588 Y86.848 E3727.27495
G1 X73.14 Y19.399 E3766.93209
G1 X70.707 Y19.795 E3767.95692
G1 X140.183 Y89.271 E3808.80615
G1 X139.704 Y91.621 E3809.80325
G1 X68.275 Y20.191 E3851.80106
G1 X66.221 Y20.525 E3852.66623
G1 X65.856 Y20.602 E3852.82132
G1 X139.224 Y93.97 E3895.95889
G1 X138.807 Y96.012 E3896.82538
G1 X138.733 Y96.307 E3896.95182
G1 X63.662 Y21.236 E3941.0907
G1 X61.542 Y21.944 E3942.01994
G1 X138.039 Y98.441 E3986.99725
G1 X137.262 Y100.493 E3987.90948
G1 X59.421 Y22.651 E4033.6773
G1 X57.301 Y23.36 E4034.60668
G1 X136.484 Y102.543 E4081.16325
G1 X135.707 Y104.595 E4082.07548
G1 X55.295 Y24.182 E4129.35495
G1 X53.437 Y25.152 E4130.22635
G1 X134.85 Y106.565 E4178.09407
G92 E0
G1 X134.687 Y106.875 E0.14561
G1 X133.825 Y108.369 E0.86272
G1 X51.581 Y26.125 E49.21904
G1 X49.727 Y27.099 E50.08974
G1 X132.79 Y110.162 E98.9276
G1 X131.754 Y111.956 E99.78889
G1 X47.886 Y28.087 E149.10035
G1 X47.411 Y28.36 E149.32813
G1 X46.697 Y28.847 E149.68745
G1 X46.195 Y29.225 E149.94871
G1 X130.719 Y113.749 E199.64558
G1 X130.162 Y114.618 E200.07472
G1 X129.559 Y115.417 E200.49089
G1 X44.58 Y30.438 E250.45528
G1 X42.965 Y31.651 E251.29502
G1 X128.287 Y116.973 E301.46108
G1 X127.015 Y118.53 E302.29696
G1 X41.349 Y32.864 E352.66529
