; generated by PrusaSlicer 2.9.4 on 2026-06-18 at 05:53:14 UTC

; 

; external perimeters extrusion width = 2.25mm
; perimeters extrusion width = 2.25mm
; infill extrusion width = 2.25mm
; solid infill extrusion width = 2.25mm
; top infill extrusion width = 2.00mm

M104 S250 T1 ; set temperature
;TYPE:Custom
G28 ; home all axes
G1 Z5 F5000 ; lift nozzle
M109 S250 T1 ; set temperature and wait for it to be reached
G21 ; set units to millimeters
G90 ; use absolute coordinates
M82 ; use absolute distances for extrusion
G92 E0
T1
G92 E0
; Filament gcode
M106 S255
;LAYER_CHANGE
;Z:0.5
;HEIGHT:0.5
G92 E0
G1 E-15 F2400
G92 E0
G1 Z.5 F600
G1 X207.267 Y202.069
G1 E18 F900
;TYPE:Skirt/Brim
;WIDTH:2.25
G1 F600
G1 X208.144 Y201.332 E18.19238
G1 X214.577 Y196.498 E19.54375
G1 X215.85 Y195.619 E19.80355
G1 X223.975 Y191.321 E21.3472
G1 X225.709 Y190.582 E21.66375
G1 X233.724 Y187.907 E23.08277
G1 X235.555 Y187.455 E23.3995
G1 X244.398 Y186.035 E24.90361
G1 X250.472 Y185.793 E25.92448
G1 X255.602 Y186.035 E26.78697
G1 X265.172 Y187.604 E28.4156
G1 X266.276 Y187.907 E28.60786
G1 X274.984 Y190.845 E30.15127
G1 X276.026 Y191.321 E30.34366
G1 X283.507 Y195.248 E31.76259
G1 X284.49 Y195.835 E31.95487
G1 X291.856 Y201.332 E33.4984
G1 X293.268 Y202.583 E33.81521
G1 X299.121 Y208.677 E35.23421
G1 X300.314 Y210.137 E35.55085
G1 X305.114 Y217.091 E36.96989
G1 X305.712 Y218.067 E37.16212
G1 X309.679 Y226.358 E38.70568
G1 X310.348 Y228.122 E39.02251
G1 X312.876 Y236.958 E40.56596
G1 X313.076 Y238.085 E40.75818
G1 X314.094 Y246.473 E42.17719
G1 X314.17 Y248.358 E42.49401
G1 X313.77 Y257.54 E44.03749
G1 X313.603 Y258.673 E44.22982
G1 X311.993 Y266.557 E45.58118
G1 X311.388 Y268.763 E45.96533
G1 X308.391 Y276.663 E47.38431
G1 X307.583 Y278.367 E47.70102
G1 X302.962 Y286.312 E49.24457
G1 X302.287 Y287.237 E49.43688
G1 X296.943 Y293.782 E50.85589
G1 X296.172 Y294.628 E51.04812
G1 X289.312 Y300.745 E52.59167
G1 X287.804 Y301.878 E52.90844
G1 X280.663 Y306.394 E54.32738
G1 X279.663 Y306.952 E54.5197
G1 X271.219 Y310.582 E56.06326
G1 X269.431 Y311.18 E56.37988
G1 X260.5 Y313.35 E57.92338
G1 X259.365 Y313.504 E58.11574
G1 X250.943 Y314.184 E59.53473
G1 X249.799 Y314.214 E59.72692
G1 X240.635 Y313.504 E61.27053
G1 X238.773 Y313.202 E61.58732
G1 X229.857 Y310.973 E63.13075
G1 X228.781 Y310.582 E63.32301
G1 X221.007 Y307.27 E64.74211
G1 X219.337 Y306.394 E65.05881
G1 X211.585 Y301.456 E66.60236
G1 X210.688 Y300.745 E66.79458
G1 X203.828 Y294.628 E68.33813
G1 X203.057 Y293.782 E68.53036
G1 X197.713 Y287.237 E69.94937
G1 X197.038 Y286.312 E70.14168
G1 X192.417 Y278.367 E71.68523
G1 X191.609 Y276.663 E72.00194
G1 X188.377 Y268.059 E73.54547
G1 X188.088 Y266.951 E73.73777
G1 X186.397 Y258.673 E75.15668
G1 X186.17 Y256.801 E75.47336
G1 X185.83 Y247.616 E77.01694
G1 X185.906 Y246.473 E77.20932
G1 X186.924 Y238.085 E78.62833
G1 X187.124 Y236.958 E78.82055
G1 X189.652 Y228.122 E80.364
G1 X190.321 Y226.358 E80.68083
G1 X194.288 Y218.067 E82.22439
G1 X194.886 Y217.091 E82.41662
G1 X199.686 Y210.137 E83.83566
G1 X200.879 Y208.677 E84.1523
G1 X207.059 Y202.284 E85.64557
G1 E70.64557 F2400
G92 E0
G1 X208.596 Y203.768 F600
G1 E18 F900
G1 F600
G1 X208.688 Y203.673 E18.02221
G1 X215.864 Y198.211 E19.53672
G1 X216.995 Y197.43 E19.76754
G1 X224.97 Y193.219 E21.2821
G1 X226.388 Y192.615 E21.54094
G1 X234.403 Y189.939 E22.96001
G1 X235.899 Y189.57 E23.21878
G1 X244.613 Y188.167 E24.70105
G1 X250.385 Y187.934 E25.67118
G1 X255.387 Y188.167 E26.51212
G1 X264.659 Y189.684 E28.08995
G1 X265.597 Y189.939 E28.25319
G1 X274.145 Y192.817 E29.76791
G1 X275.03 Y193.219 E29.93115
G1 X283.345 Y197.646 E31.51315
G1 X290.569 Y203.045 E33.02773
G1 X291.722 Y204.067 E33.28648
G1 X297.576 Y210.161 E34.7056
G1 X298.55 Y211.355 E34.96437
G1 X303.856 Y219.139 E36.54643
G1 X307.743 Y227.277 E38.06101
G1 X308.289 Y228.718 E38.3198
G1 X310.777 Y237.387 E39.83444
G1 X311.967 Y246.732 E41.4165
G1 X312.029 Y248.271 E41.67517
G1 X311.643 Y257.282 E43.18986
G1 X309.894 Y266.128 E44.70421
G1 X309.384 Y268.003 E45.03054
G1 X306.388 Y275.904 E46.44962
G1 X305.727 Y277.296 E46.70841
G1 X301.198 Y285.095 E48.22299
G1 X295.283 Y292.427 E49.80506
G1 X294.626 Y293.144 E49.96838
G1 X287.891 Y299.141 E51.48285
G1 X286.659 Y300.067 E51.74168
G1 X278.668 Y305.055 E53.32366
G1 X270.38 Y308.611 E54.83824
G1 X268.918 Y309.099 E55.09708
G1 X260.156 Y311.235 E56.61165
G1 X259.193 Y311.368 E56.77491
G1 X249.799 Y312.071 E58.35694
G1 X240.807 Y311.368 E59.87166
G1 X239.286 Y311.121 E60.13044
G1 X230.535 Y308.941 E61.64499
G1 X221.847 Y305.299 E63.22706
G1 X220.482 Y304.583 E63.48592
G1 X212.872 Y299.744 E65.00043
G1 X206.086 Y293.805 E66.51488
G1 X205.094 Y292.853 E66.74578
G1 X199.373 Y285.882 E68.26026
G1 X198.497 Y284.613 E68.51922
G1 X194.008 Y276.792 E70.03365
G1 X190.759 Y268.379 E71.54822
G1 X190.187 Y266.523 E71.87438
G1 X188.406 Y257.682 E73.38896
G1 X188.311 Y256.714 E73.55231
G1 X187.971 Y247.702 E75.06685
G1 X189.003 Y238.743 E76.58136
G1 X189.223 Y237.387 E76.81206
G1 X191.71 Y228.718 E78.32665
G1 X192.257 Y227.277 E78.5855
G1 X196.144 Y219.139 E80.10008
G1 X201.45 Y211.355 E81.68214
G1 X202.424 Y210.161 E81.94091
G1 X208.388 Y203.984 E83.38289
G1 E68.38289 F2400
G92 E0
G1 X214.644 Y210.23 F600
G1 E18 F900
G1 F600
G1 X221.419 Y205.116 E19.42554
G1 X229.302 Y200.98 E20.92056
G1 X237.433 Y198.294 E22.35865
G1 X245.526 Y196.979 E23.73561
G1 X250.19 Y196.791 E24.51951
G1 X254.474 Y196.979 E25.23965
G1 X262.896 Y198.375 E26.67333
G1 X270.773 Y201.009 E28.06819
G1 X278.298 Y204.937 E29.49374
G1 X285.414 Y210.286 E30.98877
G1 X291.326 Y216.481 E32.42688
G1 X296.038 Y223.314 E33.8208
G1 X299.692 Y230.97 E35.24547
G1 X302.12 Y239.266 E36.69714
G1 X303.16 Y247.685 E38.12177
G1 X302.837 Y256.323 E39.57344
G1 X301.062 Y264.97 E41.05589
G1 X297.999 Y272.967 E42.49404
G1 X293.846 Y280.153 E43.88789
G1 X288.492 Y286.74 E45.31343
G1 X282.104 Y292.435 E46.75065
G1 X274.811 Y297.076 E48.20239
G1 X266.687 Y300.527 E49.68472
G1 X258.627 Y302.51 E51.07867
G1 X250.167 Y303.211 E52.5043
G1 X241.635 Y302.549 E53.94146
G1 X233.118 Y300.464 E55.41403
G1 X225.119 Y297.036 E56.87554
G1 X218.106 Y292.596 E58.26949
G1 X211.686 Y286.929 E59.70761
G1 X206.154 Y280.153 E61.17664
G1 X201.853 Y272.655 E62.6283
G1 X198.843 Y264.644 E64.06549
G1 X197.157 Y256.243 E65.50448
G1 X196.826 Y247.949 E66.89847
G1 X197.831 Y239.52 E68.32405
G1 X200.186 Y231.292 E69.76134
G1 X203.962 Y223.314 E71.24365
G1 X208.892 Y216.214 E72.69528
G1 X214.436 Y210.446 E74.03885
G1 E59.03885 F2400
G92 E0
G1 X215.98 Y211.927 F600
G1 E18 F900
G1 F600
G1 X216.101 Y211.801 E18.02934
G1 X222.668 Y206.858 E19.4097
G1 X230.021 Y202.998 E20.80436
G1 X237.82 Y200.402 E22.18477
G1 X245.805 Y199.105 E23.54334
G1 X250.143 Y198.934 E24.27243
G1 X254.194 Y199.105 E24.95336
G1 X262.18 Y200.402 E26.31209
G1 X269.979 Y202.998 E27.6925
G1 X277.332 Y206.858 E29.08716
G1 X283.899 Y211.801 E30.46752
G1 X289.587 Y217.734 E31.84783
G1 X294.208 Y224.427 E33.21372
G1 X297.737 Y231.849 E34.59389
G1 X300.031 Y239.742 E35.97428
G1 X301.032 Y247.987 E37.3691
G1 X300.704 Y256.113 E38.73488
G1 X299.067 Y264.167 E40.11512
G1 X296.159 Y271.855 E41.49551
G1 X292.055 Y278.976 E42.8758
G1 X286.803 Y285.41 E44.2706
G1 X280.715 Y290.803 E45.63647
G1 X273.772 Y295.201 E47.01672
G1 X266.214 Y298.429 E48.39692
G1 X258.235 Y300.403 E49.7773
G1 X249.957 Y301.071 E51.17202
G1 X241.85 Y300.417 E52.53792
G1 X234.121 Y298.519 E53.87448
G1 X226.304 Y295.241 E55.29801
G1 X219.354 Y290.855 E56.67817
G1 X213.197 Y285.41 E58.05851
G1 X207.994 Y279.047 E59.43887
G1 X203.841 Y271.855 E60.8336
G1 X200.933 Y264.167 E62.21399
G1 X199.306 Y256.199 E63.57974
G1 X198.968 Y247.987 E64.96002
G1 X199.952 Y239.827 E66.34033
G1 X202.263 Y231.849 E67.73523
G1 X205.749 Y224.502 E69.10092
G1 X210.413 Y217.734 E70.48128
G1 X215.773 Y212.144 E71.78189
G1 E56.78189 F2400
G92 E0
G1 X217.356 Y213.665 F600
G1 E18 F900
G92 E0
;TYPE:External perimeter
G1 F600
G1 X217.592 Y213.419 E.05725
G1 X223.88 Y208.694 E1.37816
G1 X230.844 Y205.039 E2.69898
G1 X238.304 Y202.549 E4.01975
G1 X246.089 Y201.284 E5.3443
G1 X250.099 Y201.13 E6.01823
G1 X253.91 Y201.283 E6.65876
G1 X261.696 Y202.549 E7.98351
G1 X269.156 Y205.039 E9.30428
G1 X276.12 Y208.694 E10.6251
G1 X282.408 Y213.419 E11.94601
G1 X287.856 Y219.092 E13.26691
G1 X292.324 Y225.564 E14.58766
G1 X295.695 Y232.67 E15.90851
G1 X297.853 Y240.118 E17.21076
G1 X297.884 Y240.224 E17.22931
G1 X298.832 Y248.032 E18.55021
G1 X298.515 Y255.891 E19.87112
G1 X296.942 Y263.597 E21.19194
G1 X294.153 Y270.951 E22.5128
G1 X290.22 Y277.762 E23.83364
G1 X285.246 Y283.854 E25.15443
G1 X279.359 Y289.07 E26.47533
G1 X272.712 Y293.273 E27.79606
G1 X265.476 Y296.356 E29.11697
G1 X257.84 Y298.238 E30.43773
G1 X250 Y298.871 E31.75866
G1 X242.16 Y298.238 E33.07959
G1 X234.631 Y296.383 E34.38181
G1 X234.524 Y296.356 E34.40034
G1 X227.288 Y293.273 E35.72125
G1 X220.641 Y289.07 E37.04198
G1 X214.754 Y283.854 E38.36288
G1 X209.78 Y277.762 E39.68367
G1 X205.847 Y270.951 E41.00451
G1 X203.097 Y263.7 E42.30687
G1 X203.058 Y263.597 E42.32537
G1 X201.485 Y255.891 E43.64619
G1 X201.168 Y248.032 E44.9671
G1 X202.116 Y240.224 E46.288
G1 X204.305 Y232.67 E47.6088
G1 X207.629 Y225.664 E48.91109
G1 X207.676 Y225.564 E48.92965
G1 X212.144 Y219.092 E50.2504
G1 X217.149 Y213.881 E51.4638
G1 X218.692 Y212.609
G1 E36.4638 F2400
G92 E0
G1 X218.694 Y215.365 F600
G1 E18 F900
;TYPE:Perimeter
G1 F600
G1 X219.018 Y215.028 E18.07851
G1 X225.029 Y210.511 E19.34124
G1 X231.687 Y207.017 E20.60399
G1 X238.819 Y204.636 E21.86671
G1 X246.303 Y203.42 E23.14005
G1 X250.097 Y203.274 E23.77768
G1 X253.694 Y203.419 E24.38225
G1 X261.181 Y204.636 E25.65611
G1 X268.313 Y207.017 E26.91883
G1 X274.971 Y210.511 E28.18158
G1 X280.982 Y215.028 E29.44431
G1 X286.191 Y220.451 E30.70712
G1 X290.462 Y226.639 E31.96982
G1 X293.686 Y233.432 E33.23259
G1 X295.777 Y240.654 E34.49526
G1 X296.684 Y248.119 E35.75814
G1 X296.381 Y255.632 E37.02089
G1 X294.877 Y262.999 E38.28362
G1 X292.211 Y270.029 E39.54628
G1 X288.451 Y276.541 E40.80911
G1 X283.696 Y282.365 E42.07177
G1 X278.068 Y287.351 E43.33449
G1 X271.713 Y291.37 E44.59726
G1 X264.795 Y294.317 E45.86008
G1 X257.495 Y296.117 E47.12275
G1 X250 Y296.722 E48.38555
G1 X242.505 Y296.117 E49.64835
G1 X235.205 Y294.317 E50.91102
G1 X228.287 Y291.37 E52.17384
G1 X221.932 Y287.351 E53.43661
G1 X216.304 Y282.365 E54.69933
G1 X211.549 Y276.541 E55.96199
G1 X207.789 Y270.029 E57.22482
G1 X205.123 Y262.999 E58.48748
G1 X203.619 Y255.632 E59.75021
G1 X203.316 Y248.119 E61.01296
G1 X204.223 Y240.654 E62.27584
G1 X206.314 Y233.432 E63.53851
G1 X209.538 Y226.639 E64.80128
G1 X213.809 Y220.451 E66.06398
G1 X218.486 Y215.582 E67.1978
G1 E52.1978 F2400
G92 E0
G1 X220.031 Y217.066 F600
G1 E18 F900
G1 F600
G1 X220.443 Y216.637 E18.09989
G1 X226.178 Y212.328 E19.30458
G1 X232.529 Y208.995 E20.50911
G1 X239.333 Y206.723 E21.71379
G1 X246.516 Y205.556 E22.93591
G1 X250.095 Y205.419 E23.5374
G1 X253.478 Y205.555 E24.106
G1 X260.667 Y206.723 E25.32914
G1 X267.471 Y208.995 E26.53382
G1 X273.822 Y212.328 E27.73835
G1 X279.557 Y216.637 E28.94304
G1 X284.526 Y221.811 E30.14778
G1 X288.6 Y227.714 E31.3523
G1 X291.676 Y234.195 E32.55708
G1 X293.671 Y241.084 E33.76155
G1 X294.536 Y248.205 E34.96623
G1 X294.247 Y255.373 E36.17099
G1 X292.812 Y262.401 E37.37562
G1 X290.269 Y269.108 E38.58023
G1 X286.682 Y275.32 E39.7849
G1 X282.145 Y280.876 E40.98954
G1 X276.776 Y285.633 E42.1942
G1 X270.714 Y289.467 E43.39877
G1 X264.115 Y292.278 E44.60336
G1 X257.15 Y293.995 E45.80807
G1 X250 Y294.572 E47.01274
G1 X242.85 Y293.995 E48.21741
G1 X235.885 Y292.278 E49.42212
G1 X229.286 Y289.467 E50.62671
G1 X223.224 Y285.633 E51.83128
G1 X217.855 Y280.876 E53.03594
G1 X213.318 Y275.32 E54.24058
G1 X209.731 Y269.108 E55.44525
G1 X207.188 Y262.401 E56.64986
G1 X205.753 Y255.373 E57.85449
G1 X205.464 Y248.205 E59.05925
G1 X206.329 Y241.084 E60.26393
G1 X208.324 Y234.195 E61.4684
G1 X211.4 Y227.714 E62.67318
G1 X215.474 Y221.811 E63.8777
G1 X219.824 Y217.282 E64.9323
G1 E49.9323 F2400
G92 E0
G1 X286.621 Y225.978 F600
G1 E18 F900
;TYPE:Solid infill
;WIDTH:2.25315
G1 F600
G1 X278.487 Y217.844 E19.93468
G1 X272.961 Y213.691 E21.09728
G1 X269.465 Y211.856 E21.76133
G1 X288.175 Y230.567 E26.21164
G1 X290.168 Y234.766 E26.99336
G1 X290.506 Y235.932 E27.19754
G1 X264.156 Y209.582 E33.46491
G1 X260.281 Y208.289 E34.15196
G1 X259.74 Y208.201 E34.24414
G1 X291.743 Y240.204 E41.85608
G1 X292.092 Y241.407 E42.06675
G1 X292.393 Y243.888 E42.48708
G1 X256.116 Y207.612 E51.11548
G1 X253.317 Y207.157 E51.59241
G1 X252.598 Y207.128 E51.71343
G1 X292.812 Y247.342 E61.27837
G1 X292.925 Y248.27 E61.4356
G1 X292.839 Y250.404 E61.7948
G1 X249.485 Y207.05 E72.10659
G1 X246.575 Y207.174 E72.59646
G1 X292.721 Y253.321 E83.57245
G1 X292.647 Y255.178 E83.88502
G1 X292.46 Y256.094 E84.04226
G1 X243.964 Y207.599 E95.57696
G1 X241.354 Y208.023 E96.02168
G1 X291.945 Y258.614 E108.0548
G1 X291.431 Y261.134 E108.48736
G1 X238.869 Y208.572 E120.98928
G1 X236.594 Y209.332 E121.39269
G1 X290.7 Y263.438 E134.26186
G1 X289.866 Y265.639 E134.65772
G1 X234.319 Y210.092 E147.86963
G1 X233.161 Y210.478 E148.07492
G1 X232.183 Y210.991 E148.26066
G1 X289.031 Y267.839 E161.78201
G1 X288.812 Y268.417 E161.88597
G1 X287.993 Y269.835 E162.16138
G1 X230.193 Y212.036 E175.90905
G1 X228.203 Y213.08 E176.287
G1 X286.882 Y271.759 E190.24386
G1 X285.771 Y273.683 E190.61752
G1 X226.32 Y214.232 E204.758
G1 X224.587 Y215.534 E205.12256
G1 X284.502 Y275.449 E219.3734
G1 X283.138 Y277.119 E219.73605
G1 X222.854 Y216.836 E234.07454
G1 X221.512 Y217.844 E234.35682
G1 X221.177 Y218.193 E234.43818
G1 X281.774 Y278.79 E248.85124
G1 X280.983 Y279.759 E249.06162
G1 X280.307 Y280.358 E249.21353
G1 X219.69 Y219.741 E263.63134
G1 X218.204 Y221.289 E263.99224
G1 X278.698 Y281.783 E278.3808
G1 X277.089 Y283.209 E278.74239
G1 X216.718 Y222.838 E293.10169
G1 X215.479 Y224.633 E293.46852
G1 X275.429 Y284.583 E307.72769
G1 X273.57 Y285.759 E308.09766
G1 X214.239 Y226.429 E322.20948
G1 X213 Y228.224 E322.57631
G1 X271.711 Y286.935 E336.54078
G1 X269.964 Y288.039 E336.88835
G1 X269.835 Y288.094 E336.91194
G1 X211.98 Y230.239 E350.67281
G1 X211.004 Y232.297 E351.05589
G1 X267.707 Y289.001 E364.54287
G1 X265.579 Y289.907 E364.93186
G1 X210.027 Y234.355 E378.14496
G1 X209.832 Y234.766 E378.22147
G1 X209.287 Y236.649 E378.55116
G1 X263.429 Y290.792 E391.42901
G1 X260.995 Y291.392 E391.85063
G1 X208.605 Y239.002 E404.31164
G1 X207.923 Y241.356 E404.72383
G1 X258.56 Y291.992 E416.76777
G1 X256.891 Y292.403 E417.05686
G1 X256.008 Y292.475 E417.20586
G1 X207.587 Y244.054 E428.72284
G1 X207.258 Y246.76 E429.1813
G1 X253.2 Y292.701 E440.10853
G1 X250.392 Y292.928 E440.58234
G1 X207.131 Y249.668 E450.87189
G1 X207.259 Y252.83 E451.40413
G1 X247.16 Y292.73 E460.8945
G1 X243.858 Y292.464 E461.45165
G1 X207.554 Y256.159 E470.08671
G1 X208.332 Y259.973 E470.74138
G1 X239.996 Y291.636 E478.27257
G1 X236.396 Y290.749 E478.89615
G1 X235.835 Y290.51 E478.99871
G1 X209.628 Y264.303 E485.23207
G1 X211.188 Y268.417 E485.97206
G1 X211.845 Y269.555 E486.19306
G1 X232.373 Y290.083 E491.07566
;LAYER_CHANGE
;Z:1
;HEIGHT:0.5
G1 Z1 F600
G1 X232.121 Y290.674
;TYPE:Perimeter
;WIDTH:2.25
G1 X229.286 Y289.467 E491.59312
G1 X223.224 Y285.633 E492.79769
G1 X217.855 Y280.876 E494.00235
G1 X213.318 Y275.32 E495.20699
G1 X209.731 Y269.108 E496.41166
G1 X207.247 Y262.557 E497.58826
G1 X207.188 Y262.401 E497.61627
G1 X205.753 Y255.373 E498.8209
G1 X205.464 Y248.205 E500.02566
G1 X206.329 Y241.084 E501.23034
G1 X208.324 Y234.195 E502.43481
G1 X211.4 Y227.714 E503.63959
G1 X215.474 Y221.811 E504.84411
G1 X220.443 Y216.637 E506.04885
G1 X226.178 Y212.328 E507.25354
G1 X232.529 Y208.995 E508.45807
G1 X239.333 Y206.723 E509.66275
G1 X246.522 Y205.555 E510.88589
G1 X250.084 Y205.418 E511.48453
G1 X253.478 Y205.555 E512.05498
G1 X260.667 Y206.723 E513.27812
G1 X267.471 Y208.995 E514.4828
G1 X273.822 Y212.328 E515.68733
G1 X279.557 Y216.637 E516.89202
G1 X284.526 Y221.811 E518.09676
G1 X288.6 Y227.714 E519.30128
G1 X291.676 Y234.195 E520.50606
G1 X293.625 Y240.924 E521.68257
