;FLAVOR:Marlin
;TIME:8890
;Filament used: 0m, 32.1028m
;Layer height: 0.5
;MINX:27.969
;MINY:9.764
;MINZ:0.5
;MAXX:175.879
;MAXY:157.595
;MAXZ:12
;TARGET_MACHINE.NAME:Unknown
;Generated with Cura_SteamEngine 5.13.0
T1
M104 S250
M105
M109 S250
G21 ; set units to millimeters
G90 ; use absolute coordinates
G28 ; home all axes
G1 Z5 F5000 ; lift nozzle
M106 S255 ; fan on full
M82 ;absolute extrusion mode
G92 E0
G92 E0
G1 F2400 E-15
;LAYER_COUNT:20
;LAYER:-4
M106 S255
G0 F600 X44.602 Y36.823 Z0.5
;TYPE:SUPPORT-INTERFACE
G1 F900 E3.00173
G1 F600 X45.12 Y36.196 E3.33986
G1 X45.903 Y35.335 E3.82371
G1 X51.356 Y29.66 E7.09577
G1 X52.5 Y28.535 E7.76284
G1 X53.512 Y27.654 E8.32068
G1 X54.347 Y26.992 E8.7637
G1 X60.722 Y22.204 E12.0784
G1 X61.871 Y21.389 E12.66407
G1 X63.086 Y20.629 E13.25989
G1 X64.005 Y20.116 E13.69746
G1 X71.204 Y16.341 E17.077
G1 X72.439 Y15.739 E17.6482
G1 X73.59 Y15.251 E18.16797
G1 X74.709 Y14.845 E18.66287
G1 X82.61 Y12.21 E22.12558
G1 X83.498 Y11.944 E22.51098
G1 X85.017 Y11.571 E23.16127
G1 X86.168 Y11.358 E23.64792
G1 X93.702 Y10.133 E26.82133
G1 X93.713 Y10.143 E26.82751
G1 X94.052 Y10.075 E26.97126
G1 X95.283 Y9.911 E27.48757
G1 X96.911 Y9.779 E28.16663
G1 X96.921 Y9.788 E28.17223
G1 X97.893 Y9.764 E28.57646
G1 X105.965 Y9.765 E31.93241
G1 X107.087 Y9.796 E32.39906
G1 X107.097 Y9.788 E32.40438
G1 X108.68 Y9.919 E33.06477
G1 X109.741 Y10.069 E33.51027
G1 X117.785 Y11.378 E36.89857
G1 X118.834 Y11.571 E37.34201
G1 X120.103 Y11.88 E37.88501
G1 X120.112 Y11.873 E37.88975
G1 X121.472 Y12.285 E38.48055
G1 X129.156 Y14.852 E41.84874
G1 X130.078 Y15.191 E42.25715
G1 X130.091 Y15.183 E42.2635
G1 X131.572 Y15.813 E42.93262
G1 X132.723 Y16.38 E43.46606
G1 X139.373 Y19.859 E46.5863
G1 X141.143 Y20.861 E47.43192
G1 X142.174 Y21.521 E47.94086
G1 X143.107 Y22.19 E48.41817
G1 X149.559 Y27.039 E51.77371
G1 X150.519 Y27.805 E52.28431
G1 X151.559 Y28.73 E52.86297
G1 X152.399 Y29.562 E53.35451
G1 X157.988 Y35.382 E56.70923
G1 X158.898 Y36.39 E57.27382
G1 X159.765 Y37.468 E57.84897
G1 X160.44 Y38.395 E58.32572
G1 X165.008 Y45.02 E61.67135
G1 X165.72 Y46.12 E62.21612
G1 X166.411 Y47.335 E62.79723
G1 X166.938 Y48.37 E63.28011
G1 X170.366 Y55.603 E66.60787
G1 X170.929 Y56.889 E67.19152
G1 X171.468 Y58.327 E67.82999
G1 X171.459 Y58.34 E67.83656
G1 X171.711 Y59.131 E68.18171
G1 X173.979 Y66.968 E71.57365
G1 X174.293 Y68.193 E72.09941
G1 X174.594 Y69.663 E72.72325
G1 X174.768 Y70.898 E73.24177
G1 X175.713 Y78.732 E76.52238
G1 X175.854 Y80.337 E77.19223
G1 X175.844 Y80.347 E77.19811
G1 X175.879 Y81.359 E77.61911
G1 X175.864 Y82.573 E78.12387
G1 X175.552 Y90.455 E81.40339
G1 X175.438 Y92.11 E82.09309
G1 X175.423 Y92.123 E82.10134
G1 X175.286 Y93.215 E82.5589
G1 X175.081 Y94.394 E83.05643
G1 X173.471 Y102.285 E86.40471
G1 X173.137 Y103.698 E87.00836
G1 X172.74 Y105.032 E87.58701
G1 X172.408 Y105.982 E88.0054
G1 X169.665 Y113.235 E91.22928
G1 X169.649 Y113.242 E91.23654
G1 X168.981 Y114.881 E91.97238
G1 X168.402 Y116.082 E92.5267
G1 X168.056 Y116.715 E92.82662
G1 X168.062 Y116.725 E92.83147
G1 X163.837 Y124.039 E96.34316
G1 X163.127 Y125.191 E96.90576
G1 X162.327 Y126.337 E97.48682
G1 X161.659 Y127.191 E97.93759
G1 X156.561 Y133.429 E101.28696
G1 X155.7 Y134.429 E101.83559
G1 X154.806 Y135.355 E102.37071
G1 X153.942 Y136.164 E102.86281
G1 X147.931 Y141.489 E106.20147
G1 X146.776 Y142.454 E106.82721
G1 X145.779 Y143.198 E107.34441
G1 X144.863 Y143.809 E107.80218
G1 X138.015 Y148.142 E111.17131
G1 X136.732 Y148.896 E111.79001
G1 X135.557 Y149.505 E112.34024
G1 X134.703 Y149.897 E112.73091
G1 X127.13 Y153.122 E116.153
G1 X125.937 Y153.588 E116.68549
G1 X124.711 Y154.003 E117.22361
G1 X123.32 Y154.382 E117.823
G1 X123.122 Y154.423 E117.90707
G1 X115.849 Y156.222 E121.02196
G1 X114.201 Y156.582 E121.72327
G1 X114.188 Y156.571 E121.73035
G1 X112.701 Y156.799 E122.3558
G1 X108.915 Y157.255 E123.94121
G1 X108.704 Y157.287 E124.02994
G1 X108.694 Y157.276 E124.03612
G1 X106.68 Y157.437 E124.87612
G1 X103.236 Y157.568 E126.309
G1 X103.228 Y157.56 E126.3137
G1 X102.916 Y157.58 E126.44368
G1 X101.434 Y157.595 E127.05986
G1 X100.096 Y157.533 E127.61673
G1 X91.76 Y156.862 E131.09365
G1 X91.753 Y156.855 E131.09776
G1 X90.771 Y156.748 E131.50845
G1 X89.379 Y156.521 E132.09482
G1 X88.182 Y156.261 E132.60408
G1 X80.311 Y154.32 E135.97449
G1 X78.926 Y153.932 E136.57248
G1 X77.701 Y153.511 E137.11101
G1 X77.031 Y153.256 E137.40906
G1 X69.174 Y149.905 E140.96031
G1 X68.327 Y149.515 E141.34799
G1 X68.311 Y149.525 E141.35583
G1 X66.938 Y148.799 E142.00155
G1 X65.836 Y148.143 E142.53474
G1 X59.039 Y143.842 E145.87883
G1 X57.886 Y143.066 E146.45665
G1 X56.92 Y142.334 E146.96055
G1 X55.978 Y141.542 E147.47221
G1 X49.985 Y136.236 E150.80004
G1 X49.115 Y135.423 E151.29509
G1 X47.861 Y134.111 E152.04964
G1 X47.29 Y133.433 E152.41817
G1 X42.288 Y127.314 E155.70398
G1 X41.304 Y126.034 E156.37521
G1 X40.562 Y124.939 E156.92514
G1 X39.985 Y123.989 E157.38724
G1 X35.977 Y117.055 E160.71701
G1 X35.342 Y115.882 E161.27156
G1 X35.157 Y115.52 E161.44057
G1 X35.165 Y115.508 E161.44657
G1 X34.745 Y114.607 E161.85986
G1 X34.275 Y113.454 E162.37752
G1 X31.476 Y106.065 E165.66253
G1 X31.034 Y104.802 E166.21885
G1 X30.621 Y103.347 E166.84767
G1 X30.37 Y102.255 E167.31351
G1 X28.775 Y94.437 E170.63081
G1 X28.542 Y93.115 E171.1889
G1 X28.373 Y91.65 E171.80202
G1 X28.295 Y90.428 E172.3111
G1 X27.984 Y82.522 E175.60058
G1 X27.969 Y81.223 E176.14067
G1 X28.019 Y80.001 E176.64915
G1 X28.045 Y79.642 E176.79879
G1 X28.139 Y78.702 E177.19155
G1 X29.111 Y70.7 E180.54285
G1 X29.329 Y69.281 E181.13972
G1 X29.614 Y67.951 E181.70522
G1 X29.889 Y66.893 E182.1597
G1 X32.056 Y59.403 E185.40139
G1 X32.607 Y57.716 E186.13923
G1 X33.04 Y56.597 E186.63807
G1 X33.521 Y55.519 E187.12884
G1 X36.962 Y48.274 E190.46343
G1 X37.404 Y47.406 E190.8684
G1 X37.396 Y47.394 E190.87439
G1 X38.24 Y45.937 E191.57444
G1 X38.894 Y44.939 E192.07051
G1 X43.422 Y38.378 E195.3848
G1 X44.301 Y37.188 E195.99988
G1 X44.602 Y36.823 E196.19657
G1 F2400 E181.19657
G0 F600 X40.543 Y44.309
G1 F900 E199.1983
G1 F600 X62.976 Y21.876 E212.38804
G1 F2400 E197.38804
G0 F600 X69.118 Y18.563
G1 F900 E215.38977
G1 F600 X36.858 Y50.823 E234.35741
G1 F2400 E219.35741
G0 F600 X34.314 Y56.196
G1 F900 E237.35914
G1 F600 X74.54 Y15.969 E261.01078
G1 F2400 E246.01078
G0 F600 X78.806 Y14.532
G1 F900 E264.01251
G1 F600 X32.756 Y60.582 E291.08814
G1 F2400 E276.08814
G0 F600 X31.604 Y64.562
G1 F900 E294.08987
G1 F600 X83.043 Y13.123 E324.33403
G1 F2400 E309.33403
G0 F600 X86.713 Y12.282
G1 F900 E327.33576
G1 F600 X30.526 Y68.469 E360.37156
G1 F2400 E345.37156
G0 F600 X29.98 Y71.843
G1 F900 E363.37329
G1 F600 X90.09 Y11.733 E398.71566
G1 F2400 E383.71566
G0 F600 X93.467 Y11.184
G1 F900 E401.71739
G1 F600 X29.589 Y75.063 E439.2755
G1 F2400 E424.2755
G0 F600 X29.198 Y78.282
G1 F900 E442.27723
G1 F600 X96.68 Y10.8 E481.95406
G1 F2400 E466.95406
G0 F600 X99.544 Y10.764
G1 F900 E484.95579
G1 F600 X28.97 Y81.338 E526.45059
G1 F2400 E511.45059
G0 F600 X29.047 Y84.091
G1 F900 E529.45232
G1 F600 X102.373 Y10.764 E572.56549
G1 F2400 E557.56549
G0 F600 X105.201 Y10.764
G1 F900 E575.56722
G1 F600 X29.154 Y86.811 E620.27994
G1 F2400 E605.27994
G0 F600 X29.261 Y89.532
G1 F900 E623.28167
G1 F600 X107.934 Y10.86 E669.53808
G1 F2400 E654.53808
G0 F600 X110.429 Y11.194
G1 F900 E672.53981
G1 F600 X29.441 Y92.181 E720.15736
G1 F2400 E705.15736
G0 F600 X29.834 Y94.617
G1 F900 E723.15908
G1 F600 X112.861 Y11.589 E771.97607
G1 F2400 E756.97607
G0 F600 X115.294 Y11.985
G1 F900 E774.9778
G1 F600 X30.312 Y96.967 E824.94396
G1 F2400 E809.94396
G0 F600 X30.791 Y99.317
G1 F900 E827.94569
G1 F600 X117.725 Y12.383 E879.05955
G1 F2400 E864.05955
G0 F600 X120.04 Y12.896
G1 F900 E882.06127
G1 F600 X31.27 Y101.666 E934.25463
G1 F2400 E919.25463
G0 F600 X31.828 Y103.936
G1 F900 E937.25636
G1 F600 X122.187 Y13.578 E990.38369
G1 F2400 E975.38369
G0 F600 X124.307 Y14.286
G1 F900 E993.38542
G1 F600 X32.541 Y106.052 E1047.34031
G1 F2400 E1032.34031
G0 F600 X33.318 Y108.103
G1 F900 E1050.34204
G1 F600 X126.427 Y14.994 E1105.08656
G1 F2400 E1090.08656
G0 F600 X128.548 Y15.702
G1 F900 E1108.08829
G1 F600 X34.095 Y110.155 E1163.62303
G1 F2400 E1148.62303
G0 F600 X34.872 Y112.206
G1 F900 E1166.62476
G1 F600 X130.596 Y16.483 E1222.90651
G1 F2400 E1207.90651
G0 F600 X132.51 Y17.397
G1 F900 E1225.90824
G1 F600 X35.674 Y114.232 E1282.8438
G1 F2400 E1267.8438
G0 F600 X36.611 Y116.124
G1 F900 E1285.84553
G1 F600 X134.367 Y18.369 E1343.32202
G1 F2400 E1328.32202
G0 F600 X136.224 Y19.339
G1 F900 E1346.32374
G1 F600 X37.636 Y117.927 E1404.28971
G1 F2400 E1389.28971
G0 F600 X38.673 Y119.719
G1 F900 E1407.29144
G1 F600 X138.081 Y20.311 E1465.73953
G1 F2400 E1450.73953
G0 F600 X139.909 Y21.311
G1 F900 E1468.74126
G1 F600 X39.709 Y121.511 E1527.65502
G1 F2400 E1512.65502
G0 F600 X40.745 Y123.304
G1 F900 E1530.65674
G1 F600 X141.664 Y22.385 E1589.99325
G1 F2400 E1574.99325
G0 F600 X143.296 Y23.581
G1 F900 E1592.99498
G1 F600 X41.839 Y125.038 E1652.6478
G1 F2400 E1637.6478
G0 F600 X43.047 Y126.659
G1 F900 E1655.64953
G1 F600 X144.91 Y24.795 E1715.54136
G1 F2400 E1700.54136
G0 F600 X146.525 Y26.009
G1 F900 E1718.54309
G1 F600 X44.318 Y128.216 E1778.63689
G1 F2400 E1763.63689
G0 F600 X45.59 Y129.772
G1 F900 E1781.63862
G1 F600 X148.14 Y27.222 E1841.93409
G1 F2400 E1826.93409
G0 F600 X149.733 Y28.458
G1 F900 E1844.93581
G1 F600 X46.862 Y131.329 E1905.42002
G1 F2400 E1890.42002
G0 F600 X48.136 Y132.884
G1 F900 E1908.42175
G1 F600 X151.219 Y29.8 E1969.0309
G1 F2400 E1954.0309
G0 F600 X152.615 Y31.233
G1 F900 E1972.03262
G1 F600 X49.485 Y134.363 E2032.66911
G1 F2400 E2017.66911
G0 F600 X50.934 Y135.742
G1 F900 E2035.67084
G1 F600 X154.001 Y32.675 E2096.27028
G1 F2400 E2081.27028
G0 F600 X155.387 Y34.118
G1 F900 E2099.27201
G1 F600 X52.434 Y137.071 E2159.80443
G1 F2400 E2144.80443
G0 F600 X53.935 Y138.398
G1 F900 E2162.80616
G1 F600 X156.773 Y35.56 E2223.27096
G1 F2400 E2208.27096
G0 F600 X158.13 Y37.032
G1 F900 E2226.27269
G1 F600 X55.435 Y139.726 E2286.65312
G1 F2400 E2271.65312
G0 F600 X56.943 Y141.047
G1 F900 E2289.65484
G1 F600 X159.368 Y38.622 E2349.87682
G1 F2400 E2334.87682
G0 F600 X160.53 Y40.288
G1 F900 E2352.87855
G1 F600 X58.527 Y142.292 E2412.85269
G1 F2400 E2397.85269
G0 F600 X60.232 Y143.415
G1 F900 E2415.85442
G1 F600 X161.685 Y41.962 E2475.5049
G1 F2400 E2460.5049
G0 F600 X162.839 Y43.636
G1 F900 E2478.50662
G1 F600 X61.964 Y144.511 E2537.81726
G1 F2400 E2522.81726
G0 F600 X63.697 Y145.607
G1 F900 E2540.81899
G1 F600 X163.994 Y45.31 E2599.78978
G1 F2400 E2584.78978
G0 F600 X165.092 Y47.04
G1 F900 E2602.79151
G1 F600 X65.429 Y146.703 E2661.38953
G1 F2400 E2646.38953
G0 F600 X67.18 Y147.78
G1 F900 E2664.39126
G1 F600 X166.075 Y48.886 E2722.53743
G1 F2400 E2707.53743
G0 F600 X166.984 Y50.805
G1 F900 E2725.53916
G1 F600 X69.044 Y148.745 E2783.12413
G1 F2400 E2768.12413
G0 F600 X71.014 Y149.603
G1 F900 E2786.12585
G1 F600 X167.894 Y52.723 E2843.08758
G1 F2400 E2828.08758
G0 F600 X168.803 Y54.642
G1 F900 E2846.08931
G1 F600 X72.997 Y150.449 E2902.41986
G1 F2400 E2887.41986
G0 F600 X74.979 Y151.295
G1 F900 E2905.42159
G1 F600 X169.699 Y56.575 E2961.11332
G1 F2400 E2946.11332
G0 F600 X170.503 Y58.599
G1 F900 E2964.11504
G1 F600 X76.962 Y152.14 E3019.11357
G1 F2400 E3004.11357
G0 F600 X79.023 Y152.908
G1 F900 E3022.11529
G1 F600 X171.148 Y60.783 E3076.28126
G1 F2400 E3061.28126
G0 F600 X171.782 Y62.977
G1 F900 E3079.28299
G1 F600 X81.239 Y153.52 E3132.5188
G1 F2400 E3117.5188
G0 F600 X83.509 Y154.079
G1 F900 E3135.52053
G1 F600 X172.417 Y65.17 E3187.79532
G1 F2400 E3172.79532
G0 F600 X173.049 Y67.367
G1 F900 E3190.79705
G1 F600 X85.778 Y154.639 E3242.10935
G1 F2400 E3227.10935
G0 F600 X88.046 Y155.199
G1 F900 E3245.11107
G1 F600 X173.574 Y69.671 E3295.39826
G1 F2400 E3280.39826
G0 F600 X173.913 Y72.16
G1 F900 E3298.39999
G1 F600 X90.399 Y155.675 E3347.50331
G1 F2400 E3332.50331
G0 F600 X92.949 Y155.952
G1 F900 E3350.50504
G1 F600 X174.217 Y74.685 E3398.28721
G1 F2400 E3383.28721
G0 F600 X174.522 Y77.208
G1 F900 E3401.28894
G1 F600 X95.566 Y156.164 E3447.71204
G1 F2400 E3432.71204
G0 F600 X98.183 Y156.375
G1 F900 E3450.71377
G1 F600 X174.799 Y79.76 E3495.76075
G1 F2400 E3480.76075
G0 F600 X174.864 Y82.523
G1 F900 E3498.76248
G1 F600 X100.821 Y156.566 E3542.29692
G1 F2400 E3527.29692
G0 F600 X103.663 Y156.552
G1 F900 E3545.29865
G1 F600 X174.748 Y85.467 E3587.09391
G1 F2400 E3572.09391
G0 F600 X174.631 Y88.412
G1 F900 E3590.09563
G1 F600 X106.603 Y156.44 E3630.09349
G1 F2400 E3615.09349
G0 F600 X109.718 Y156.154
G1 F900 E3633.09522
G1 F600 X174.486 Y91.386 E3671.17632
G1 F2400 E3656.17632
G0 F600 X173.996 Y94.704
G1 F900 E3674.17805
G1 F600 X112.951 Y155.749 E3710.07017
G1 F2400 E3695.07017
G0 F600 X116.497 Y155.032
G1 F900 E3713.07189
G1 F600 X173.272 Y98.257 E3746.45342
G1 F2400 E3731.45342
G0 F600 X172.546 Y101.811
G1 F900 E3749.45514
G1 F600 X120.254 Y154.103 E3780.20084
G1 F2400 E3765.20084
G0 F600 X124.035 Y153.151
G1 F900 E3783.20256
G1 F600 X171.42 Y105.765 E3811.06342
G1 F2400 E3796.06342
G0 F600 X169.701 Y110.314
G1 F900 E3814.06515
G1 F600 X128.609 Y151.405 E3838.22538
G1 F2400 E3823.22538
G0 F600 X133.536 Y149.306
G1 F900 E3841.2271
G1 F600 X167.786 Y115.057 E3861.3645
G1 F2400 E3846.3645
G0 F600 X164.117 Y121.554
G1 F900 E3864.36622
G1 F600 X139.916 Y145.755 E3878.59548
G1 F2400 E3863.59548
G0 F600 X151.569 Y136.931
G1 F900 E3881.59721
G1 F600 X156.162 Y132.338 E3884.29772
G1 F2400 E3869.29772
G0 F600 Z1
G0 X159.585 Y38.917
;TIME_ELAPSED:1036.728709
;LAYER:-3
;TYPE:SUPPORT
G1 F900 E3887.29945
G1 F600 X158.964 Y38.061 E3887.73912
G1 X158.068 Y36.958 E3888.32993
G1 X157.27 Y36.079 E3888.82351
G1 X151.688 Y30.265 E3892.17441
G1 X150.865 Y29.451 E3892.65566
G1 X149.961 Y28.643 E3893.15975
G1 X148.83 Y27.739 E3893.76171
G1 X142.52 Y22.997 E3897.04332
G1 X141.619 Y22.352 E3897.50401
G1 X140.546 Y21.664 E3898.03393
G1 X140.345 Y21.551 E3898.1298
G1 X163.758 Y44.964 E3911.89575
G1 X164.155 Y45.539 E3912.18625
G1 X164.858 Y46.626 E3912.72445
G1 X165.53 Y47.801 E3913.2872
G1 X166.044 Y48.818 E3913.76096
G1 X167.181 Y51.216 E3914.86432
G1 X134.301 Y18.335 E3934.19679
G1 X132.187 Y17.226 E3935.18929
G1 X131.173 Y16.73 E3935.65859
G1 X130.108 Y16.27 E3936.14091
G1 X128.997 Y15.86 E3936.63326
G1 X169.696 Y56.559 E3960.56271
G1 X169.965 Y57.169 E3960.83988
G1 X170.448 Y58.461 E3961.41334
G1 X170.768 Y59.474 E3961.85501
G1 X171.17 Y60.861 E3962.45539
G1 X124.741 Y14.433 E3989.75357
G1 X123.777 Y14.11 E3990.17625
G1 X123.778 Y14.234 E3990.22781
G1 X121.11 Y13.222 E3991.41415
G1 X120.524 Y13.043 E3991.66889
G1 X172.323 Y64.842 E4022.12472
G1 X173.015 Y67.235 E4023.16038
G1 X173.352 Y68.555 E4023.72677
G1 X173.389 Y68.737 E4023.80398
G1 X116.894 Y12.242 E4057.02088
G1 X113.518 Y11.695 E4058.44276
G1 X173.899 Y72.076 E4093.94448
G1 X174.291 Y75.296 E4095.29308
G1 X110.193 Y11.198 E4132.98025
G1 X109.52 Y11.048 E4133.26691
G1 X108.454 Y10.906 E4133.71402
G1 X107.317 Y10.81 E4134.18841
G1 X106.965 Y10.799 E4134.33483
G1 X174.681 Y78.514 E4174.14895
G92 E0
G1 X174.713 Y78.783 E0.11263
G1 X174.84 Y80.178 E0.695
G1 X174.851 Y80.554 E0.85139
G1 X174.737 Y80.554 E0.89878
G1 X174.793 Y81.454 E1.27368
G1 X104.105 Y10.767 E42.83522
G1 X101.276 Y10.766 E44.01139
G1 X174.797 Y84.287 E87.23892
G1 X174.687 Y87.006 E88.37027
G1 X98.495 Y10.814 E133.16825
G1 X97.826 Y10.769 E133.44701
G1 X96.881 Y10.792 E133.84001
G1 X95.734 Y10.881 E134.31831
G1 X174.578 Y89.725 E180.67556
G1 X174.547 Y90.465 E180.98349
G1 X174.457 Y91.81 E181.54393
